Luts/blue_inversion_curve_fun.cube
TITLE "Exported LUT"
LUT_3D_SIZE 9
DOMAIN_MIN 0.0 0.0 0.0
DOMAIN_MAX 1.0 1.0 1.0
0.000000 0.000000 0.981980
0.000000 0.000000 0.981980
0.000000 0.000000 0.981980
0.000000 0.000000 0.981980
0.383716 0.000000 0.981980
0.687988 0.000000 0.981980
0.864273 0.000000 0.981980
0.959818 0.000000 0.981980
0.996427 0.000000 0.981980
0.000000 0.000000 0.981980
0.000000 0.000000 0.981980
0.000000 0.000000 0.981980
0.000000 0.000000 0.981980
0.383716 0.000000 0.981980
0.687988 0.000000 0.981980
0.864273 0.000000 0.981980
0.959818 0.000000 0.981980
0.996427 0.000000 0.981980
0.000000 0.110395 0.981980
0.000000 0.110395 0.981980
0.000000 0.110395 0.981980
0.000000 0.110395 0.981980
0.383716 0.110395 0.981980
0.687988 0.110395 0.981980
0.864273 0.110395 0.981980
0.959818 0.110395 0.981980
0.996427 0.110395 0.981980
0.000000 0.151280 0.981980
0.000000 0.151280 0.981980
0.000000 0.151280 0.981980
0.000000 0.151280 0.981980
0.383716 0.151280 0.981980
0.687988 0.151280 0.981980
0.864273 0.151280 0.981980
0.959818 0.151280 0.981980
0.996427 0.151280 0.981980
0.000000 0.229437 0.981980
0.000000 0.229437 0.981980
0.000000 0.229437 0.981980
0.000000 0.229437 0.981980
0.383716 0.229437 0.981980
0.687988 0.229437 0.981980
0.864273 0.229437 0.981980
0.959818 0.229437 0.981980
0.996427 0.229437 0.981980
0.000000 0.410703 0.981980
0.000000 0.410703 0.981980
0.000000 0.410703 0.981980
0.000000 0.410703 0.981980
0.383716 0.410703 0.981980
0.687988 0.410703 0.981980
0.864273 0.410703 0.981980
0.959818 0.410703 0.981980
0.996427 0.410703 0.981980
0.000000 0.736210 0.981980
0.000000 0.736210 0.981980
0.000000 0.736210 0.981980
0.000000 0.736210 0.981980
0.383716 0.736210 0.981980
0.687988 0.736210 0.981980
0.864273 0.736210 0.981980
0.959818 0.736210 0.981980
0.996427 0.736210 0.981980
0.000000 0.940870 0.981980
0.000000 0.940870 0.981980
0.000000 0.940870 0.981980
0.000000 0.940870 0.981980
0.383716 0.940870 0.981980
0.687988 0.940870 0.981980
0.864273 0.940870 0.981980
0.959818 0.940870 0.981980
0.996427 0.940870 0.981980
0.000000 0.996427 0.981980
0.000000 0.996427 0.981980
0.000000 0.996427 0.981980
0.000000 0.996427 0.981980
0.383716 0.996427 0.981980
0.687988 0.996427 0.981980
0.864273 0.996427 0.981980
0.959818 0.996427 0.981980
0.996427 0.996427 0.981980
0.000000 0.000000 0.972820
0.000000 0.000000 0.972820
0.000000 0.000000 0.972820
0.000000 0.000000 0.972820
0.383716 0.000000 0.972820
0.687988 0.000000 0.972820
0.864273 0.000000 0.972820
0.959818 0.000000 0.972820
0.996427 0.000000 0.972820
0.000000 0.000000 0.972820
0.000000 0.000000 0.972820
0.000000 0.080560 0.957944
0.000000 0.080560 0.957944
0.383716 0.080560 0.957944
0.687988 0.080560 0.957944
0.864273 0.080560 0.957944
0.959818 0.080560 0.957944
0.996427 0.080560 0.957944
0.000000 0.110395 0.972820
0.000000 0.110395 0.957944
0.000000 0.110395 0.957944
0.000000 0.110395 0.957944
0.383716 0.110395 0.957944
0.687988 0.110395 0.957944
0.864273 0.110395 0.957944
0.959818 0.110395 0.957944
0.996427 0.110395 0.957944
0.000000 0.151280 0.972820
0.000000 0.151280 0.957944
0.000000 0.151280 0.957944
0.000000 0.151280 0.957944
0.383716 0.151280 0.957944
0.687988 0.151280 0.957944
0.864273 0.151280 0.957944
0.959818 0.167429 0.957944
0.996427 0.167429 0.957944
0.000000 0.229437 0.972820
0.000000 0.229437 0.957944
0.000000 0.229437 0.957944
0.000000 0.229437 0.957944
0.383716 0.229437 0.957944
0.687988 0.249261 0.957944
0.864273 0.249261 0.957944
0.959818 0.249261 0.957944
0.996427 0.258497 0.957944
0.000000 0.410703 0.972820
0.000000 0.410703 0.957944
0.000000 0.410703 0.957944
0.000000 0.410703 0.957944
0.415850 0.410703 0.957944
0.687988 0.410703 0.957944
0.864273 0.430851 0.957944
0.959818 0.445250 0.957944
0.996427 0.454547 0.957944
0.000000 0.736210 0.972820
0.000000 0.736210 0.957944
0.000000 0.736210 0.957944
0.000000 0.736210 0.957944
0.430851 0.736210 0.957944
0.696304 0.736210 0.957944
0.864273 0.736210 0.957944
0.959818 0.746421 0.957944
0.996427 0.756468 0.957944
0.000000 0.940870 0.972820
0.000000 0.940870 0.957944
0.000000 0.940870 0.957944
0.000000 0.940870 0.957944
0.440513 0.940870 0.957944
0.707210 0.940870 0.957944
0.870615 0.940870 0.957944
0.959818 0.940870 0.957944
0.996427 0.946602 0.957944
0.000000 0.996427 0.972820
0.000000 0.996427 0.957944
0.000000 0.996427 0.957944
0.000000 0.996427 0.957944
0.449927 0.996427 0.957944
0.712588 0.996427 0.957944
0.876903 0.996427 0.957944
0.961688 0.996427 0.957944
0.996427 0.996427 0.957944
0.000000 0.000000 0.897481
0.000000 0.000000 0.897481
0.000000 0.000000 0.897481
0.000000 0.000000 0.897481
0.383716 0.000000 0.897481
0.687988 0.000000 0.897481
0.864273 0.000000 0.897481
0.959818 0.000000 0.897481
0.996427 0.000000 0.897481
0.000000 0.000000 0.897481
0.000000 0.080560 0.897481
0.000000 0.080560 0.897481
0.000000 0.080560 0.878987
0.383716 0.080560 0.870615
0.687988 0.080560 0.870615
0.864273 0.080560 0.870615
0.959818 0.080560 0.870615
0.996427 0.080560 0.870615
0.000000 0.110395 0.897481
0.000000 0.110395 0.897481
0.000000 0.110395 0.897481
0.000000 0.132737 0.818211
0.383716 0.132737 0.818211
0.687988 0.132737 0.818211
0.864273 0.132737 0.818211
0.959818 0.132737 0.818211
0.996427 0.132737 0.818211
0.000000 0.151280 0.897481
0.000000 0.151280 0.878987
0.000000 0.151280 0.818211
0.000000 0.151280 0.818211
0.383716 0.167429 0.818211
0.687988 0.181896 0.818211
0.864273 0.181896 0.818211
0.959818 0.181896 0.818211
0.996427 0.181896 0.818211
0.000000 0.229437 0.897481
0.000000 0.229437 0.870615
0.000000 0.229437 0.818211
0.080560 0.229437 0.818211
0.383716 0.229437 0.818211
0.687988 0.258497 0.818211
0.864273 0.275870 0.818211
0.959818 0.284083 0.818211
0.996427 0.292020 0.818211
0.000000 0.410703 0.897481
0.000000 0.410703 0.870615
0.000000 0.410703 0.818211
0.151280 0.410703 0.818211
0.463620 0.410703 0.818211
0.687988 0.410703 0.818211
0.864273 0.463620 0.818211
0.959818 0.497957 0.818211
0.996427 0.525825 0.818211
0.000000 0.736210 0.897481
0.000000 0.736210 0.870615
0.000000 0.736210 0.818211
0.167429 0.736210 0.818211
0.493821 0.736210 0.818211
0.715259 0.736210 0.818211
0.864273 0.736210 0.818211
0.959818 0.766357 0.818211
0.996427 0.788065 0.818211
0.000000 0.940870 0.897481
0.000000 0.940870 0.870615
0.000000 0.940870 0.818211
0.195098 0.940870 0.818211
0.514104 0.940870 0.818211
0.733630 0.940870 0.818211
0.883137 0.940870 0.818211
0.959818 0.940870 0.818211
0.996427 0.950400 0.818211
0.000000 0.996427 0.897481
0.000000 0.996427 0.870615
0.000000 0.996427 0.818211
0.207307 0.996427 0.818211
0.533469 0.996427 0.818211
0.748948 0.996427 0.818211
0.893411 0.996427 0.818211
0.963554 0.996427 0.818211
0.996427 0.996427 0.818211
0.000000 0.000000 0.768805
0.000000 0.000000 0.768805
0.000000 0.000000 0.768805
0.000000 0.000000 0.768805
0.383716 0.000000 0.768805
0.687988 0.000000 0.768805
0.864273 0.000000 0.768805
0.959818 0.000000 0.768805
0.996427 0.000000 0.768805
0.000000 0.000000 0.768805
0.000000 0.080560 0.768805
0.000000 0.080560 0.768805
0.000000 0.080560 0.768805
0.383716 0.080560 0.756468
0.687988 0.080560 0.743884
0.864273 0.080560 0.743884
0.959818 0.080560 0.738778
0.996427 0.080560 0.738778
0.000000 0.110395 0.768805
0.000000 0.110395 0.768805
0.000000 0.132737 0.768805
0.000000 0.132737 0.768805
0.383716 0.132737 0.725825
0.687988 0.132737 0.707210
0.864273 0.132737 0.701783
0.959818 0.132737 0.696304
0.996427 0.132737 0.690773
0.000000 0.151280 0.768805
0.000000 0.151280 0.768805
0.000000 0.151280 0.768805
0.000000 0.151280 0.768805
0.383716 0.229437 0.626025
0.687988 0.229437 0.626025
0.864273 0.229437 0.626025
0.959818 0.229437 0.626025
0.996427 0.229437 0.626025
0.000000 0.229437 0.768805
0.000000 0.229437 0.756468
0.000000 0.229437 0.725825
0.366368 0.229437 0.626025
0.383716 0.229437 0.626025
0.687988 0.299707 0.626025
0.864273 0.321460 0.626025
0.959818 0.341576 0.626025
0.996427 0.354232 0.626025
0.000000 0.410703 0.768805
0.000000 0.410703 0.743884
0.000000 0.410703 0.707210
0.366368 0.410703 0.626025
0.552025 0.410703 0.626025
0.687988 0.410703 0.626025
0.864273 0.525825 0.626025
0.959818 0.587051 0.626025
0.996427 0.616558 0.626025
0.000000 0.736210 0.768805
0.000000 0.736210 0.743884
0.000000 0.736210 0.701783
0.366368 0.736210 0.626025
0.597081 0.736210 0.626025
0.748948 0.736210 0.626025
0.864273 0.736210 0.626025
0.959818 0.797487 0.626025
0.996427 0.829457 0.626025
0.000000 0.940870 0.768805
0.000000 0.940870 0.738778
0.000000 0.940870 0.696304
0.366368 0.940870 0.626025
0.619733 0.940870 0.626025
0.778507 0.940870 0.626025
0.897481 0.940870 0.626025
0.959818 0.940870 0.626025
0.996427 0.957944 0.626025
0.000000 0.996427 0.768805
0.000000 0.996427 0.738778
0.000000 0.996427 0.690773
0.366368 0.996427 0.626025
0.632242 0.996427 0.626025
0.795144 0.996427 0.626025
0.913545 0.996427 0.626025
0.967273 0.996427 0.626025
0.996427 0.996427 0.626025
0.000000 0.000000 0.619733
0.000000 0.000000 0.619733
0.000000 0.000000 0.619733
0.000000 0.000000 0.619733
0.383716 0.000000 0.619733
0.687988 0.000000 0.619733
0.864273 0.000000 0.619733
0.959818 0.000000 0.619733
0.996427 0.000000 0.619733
0.000000 0.000000 0.619733
0.000000 0.080560 0.619733
0.000000 0.080560 0.619733
0.000000 0.080560 0.619733
0.383716 0.080560 0.619733
0.687988 0.080560 0.603657
0.864273 0.080560 0.600380
0.959818 0.080560 0.593760
0.996427 0.080560 0.587051
0.000000 0.110395 0.619733
0.000000 0.110395 0.619733
0.000000 0.132737 0.619733
0.080560 0.132737 0.619733
0.383716 0.132737 0.619733
0.687988 0.132737 0.583662
0.864273 0.132737 0.566348
0.959818 0.132737 0.555647
0.996427 0.132737 0.544693
0.000000 0.151280 0.619733
0.000000 0.151280 0.619733
0.000000 0.167429 0.619733
0.366368 0.229437 0.619733
0.383716 0.229437 0.619733
0.687988 0.229437 0.537242
0.864273 0.229437 0.510125
0.959818 0.229437 0.493821
0.996427 0.229437 0.485422
0.000000 0.229437 0.619733
0.000000 0.229437 0.619733
0.000000 0.229437 0.619733
0.366368 0.229437 0.619733
0.383716 0.229437 0.619733
0.687988 0.410703 0.445250
0.864273 0.506108 0.400170
0.959818 0.506108 0.400170
0.996427 0.506108 0.400170
0.000000 0.410703 0.619733
0.000000 0.410703 0.603657
0.000000 0.410703 0.583662
0.366368 0.410703 0.537242
0.687988 0.410703 0.445250
0.687988 0.410703 0.445250
0.864273 0.638386 0.400170
0.959818 0.696304 0.400170
0.996427 0.723201 0.400170
0.000000 0.736210 0.619733
0.000000 0.736210 0.600380
0.000000 0.736210 0.566348
0.366368 0.736210 0.510125
0.738778 0.736210 0.400170
0.806776 0.736210 0.400170
0.864273 0.736210 0.400170
0.959818 0.842715 0.400170
0.996427 0.887264 0.400170
0.000000 0.940870 0.619733
0.000000 0.940870 0.593760
0.000000 0.940870 0.555647
0.366368 0.940870 0.493821
0.738778 0.940870 0.400170
0.842715 0.940870 0.400170
0.919483 0.940870 0.400170
0.959818 0.940870 0.400170
0.996427 0.967273 0.400170
0.000000 0.996427 0.619733
0.000000 0.996427 0.587051
0.000000 0.996427 0.544693
0.366368 0.996427 0.485422
0.738778 0.996427 0.400170
0.857874 0.996427 0.400170
0.937025 0.996427 0.400170
0.972820 0.996427 0.400170
0.996427 0.996427 0.400170
0.000000 0.000000 0.445250
0.000000 0.000000 0.445250
0.000000 0.000000 0.445250
0.000000 0.000000 0.445250
0.383716 0.000000 0.445250
0.687988 0.000000 0.445250
0.864273 0.000000 0.445250
0.959818 0.000000 0.445250
0.996427 0.000000 0.445250
0.000000 0.000000 0.445250
0.000000 0.080560 0.445250
0.000000 0.080560 0.445250
0.000000 0.080560 0.445250
0.415850 0.080560 0.445250
0.687988 0.080560 0.445250
0.864273 0.080560 0.435714
0.959818 0.080560 0.430851
0.996427 0.080560 0.425921
0.000000 0.110395 0.445250
0.000000 0.110395 0.445250
0.000000 0.132737 0.445250
0.151280 0.132737 0.445250
0.463620 0.132737 0.445250
0.687988 0.132737 0.445250
0.864273 0.132737 0.420922
0.959818 0.132737 0.405478
0.996427 0.132737 0.394777
0.000000 0.151280 0.445250
0.000000 0.151280 0.445250
0.000000 0.181896 0.445250
0.366368 0.229437 0.445250
0.552025 0.229437 0.445250
0.687988 0.229437 0.445250
0.864273 0.229437 0.394777
0.959818 0.229437 0.372258
0.996427 0.229437 0.360361
0.000000 0.229437 0.445250
0.000000 0.249261 0.445250
0.000000 0.258497 0.445250
0.366368 0.299707 0.445250
0.687988 0.410703 0.445250
0.687988 0.410703 0.445250
0.864273 0.506108 0.354232
0.959818 0.506108 0.328330
0.996427 0.506108 0.314409
0.000000 0.410703 0.445250
0.000000 0.410703 0.445250
0.000000 0.410703 0.445250
0.366368 0.410703 0.445250
0.687988 0.410703 0.445250
0.687988 0.410703 0.445250
0.864273 0.736210 0.314409
0.959818 0.883137 0.249261
0.996427 0.883137 0.249261
0.000000 0.736210 0.445250
0.000000 0.736210 0.435714
0.000000 0.736210 0.420922
0.366368 0.736210 0.394777
0.738778 0.736210 0.354232
0.864273 0.736210 0.314409
0.864273 0.736210 0.314409
0.959818 0.917509 0.249261
0.996427 0.946602 0.249261
0.000000 0.940870 0.445250
0.000000 0.940870 0.430851
0.000000 0.940870 0.405478
0.366368 0.940870 0.372258
0.738778 0.940870 0.328330
0.935095 0.940870 0.249261
0.948503 0.940870 0.249261
0.959818 0.940870 0.249261
0.996427 0.976496 0.249261
0.000000 0.996427 0.445250
0.000000 0.996427 0.425921
0.000000 0.996427 0.394777
0.366368 0.996427 0.360361
0.738778 0.996427 0.314409
0.935095 0.996427 0.249261
0.961688 0.996427 0.249261
0.980156 0.996427 0.249261
0.996427 0.996427 0.249261
0.000000 0.000000 0.314409
0.000000 0.000000 0.314409
0.000000 0.000000 0.314409
0.000000 0.000000 0.314409
0.383716 0.000000 0.314409
0.687988 0.000000 0.314409
0.864273 0.000000 0.314409
0.959818 0.000000 0.314409
0.996427 0.000000 0.314409
0.000000 0.000000 0.314409
0.000000 0.080560 0.314409
0.000000 0.080560 0.314409
0.000000 0.080560 0.314409
0.430851 0.080560 0.314409
0.696304 0.080560 0.314409
0.864273 0.080560 0.314409
0.959818 0.080560 0.307164
0.996427 0.080560 0.307164
0.000000 0.110395 0.314409
0.000000 0.110395 0.314409
0.000000 0.132737 0.314409
0.167429 0.132737 0.314409
0.493821 0.132737 0.314409
0.715259 0.132737 0.314409
0.864273 0.132737 0.314409
0.959818 0.132737 0.299707
0.996427 0.132737 0.292020
0.000000 0.151280 0.314409
0.000000 0.151280 0.314409
0.000000 0.181896 0.314409
0.366368 0.229437 0.314409
0.597081 0.229437 0.314409
0.748948 0.229437 0.314409
0.864273 0.229437 0.314409
0.959818 0.229437 0.292020
0.996427 0.229437 0.275870
0.000000 0.229437 0.314409
0.000000 0.249261 0.314409
0.000000 0.275870 0.314409
0.366368 0.321460 0.314409
0.738778 0.506108 0.314409
0.806776 0.506108 0.314409
0.864273 0.506108 0.314409
0.959818 0.506108 0.267353
0.996427 0.506108 0.249261
0.000000 0.410703 0.314409
0.000000 0.430851 0.314409
0.000000 0.463620 0.314409
0.366368 0.525825 0.314409
0.738778 0.638386 0.314409
0.864273 0.736210 0.314409
0.864273 0.736210 0.314409
0.959818 0.883137 0.229437
0.996427 0.883137 0.207307
0.000000 0.736210 0.314409
0.000000 0.736210 0.314409
0.000000 0.736210 0.314409
0.366368 0.736210 0.314409
0.738778 0.736210 0.314409
0.864273 0.736210 0.314409
0.864273 0.736210 0.314409
0.959818 0.940870 0.218708
0.996427 0.992839 0.080560
0.000000 0.940870 0.314409
0.000000 0.940870 0.307164
0.000000 0.940870 0.299707
0.366368 0.940870 0.292020
0.738778 0.940870 0.267353
0.935095 0.940870 0.229437
0.959818 0.940870 0.218708
0.959818 0.940870 0.218708
0.996427 0.994635 0.080560
0.000000 0.996427 0.314409
0.000000 0.996427 0.307164
0.000000 0.996427 0.292020
0.366368 0.996427 0.275870
0.738778 0.996427 0.249261
0.935095 0.996427 0.207307
0.992839 0.996427 0.080560
0.994635 0.996427 0.080560
0.996427 0.996427 0.080560
0.000000 0.000000 0.218708
0.000000 0.000000 0.218708
0.000000 0.000000 0.218708
0.000000 0.000000 0.218708
0.383716 0.000000 0.218708
0.687988 0.000000 0.218708
0.864273 0.000000 0.218708
0.959818 0.000000 0.218708
0.996427 0.000000 0.218708
0.000000 0.000000 0.218708
0.000000 0.080560 0.218708
0.000000 0.080560 0.218708
0.000000 0.080560 0.218708
0.440513 0.080560 0.218708
0.707210 0.080560 0.218708
0.870615 0.080560 0.218708
0.959818 0.080560 0.218708
0.996427 0.080560 0.207307
0.000000 0.110395 0.218708
0.000000 0.110395 0.218708
0.000000 0.132737 0.218708
0.195098 0.132737 0.218708
0.514104 0.132737 0.218708
0.733630 0.132737 0.218708
0.883137 0.132737 0.218708
0.959818 0.132737 0.218708
0.996427 0.132737 0.207307
0.000000 0.151280 0.218708
0.000000 0.167429 0.218708
0.000000 0.181896 0.218708
0.366368 0.229437 0.218708
0.619733 0.229437 0.218708
0.778507 0.229437 0.218708
0.897481 0.229437 0.218708
0.959818 0.229437 0.218708
0.996427 0.229437 0.195098
0.000000 0.229437 0.218708
0.000000 0.249261 0.218708
0.000000 0.284083 0.218708
0.366368 0.341576 0.218708
0.738778 0.506108 0.218708
0.842715 0.506108 0.218708
0.919483 0.506108 0.218708
0.959818 0.506108 0.218708
0.996427 0.506108 0.181896
0.000000 0.410703 0.218708
0.000000 0.445250 0.218708
0.000000 0.497957 0.218708
0.366368 0.587051 0.218708
0.738778 0.696304 0.218708
0.935095 0.883137 0.218708
0.948503 0.883137 0.218708
0.959818 0.883137 0.218708
0.996427 0.883137 0.167429
0.000000 0.736210 0.218708
0.000000 0.746421 0.218708
0.000000 0.766357 0.218708
0.366368 0.797487 0.218708
0.738778 0.842715 0.218708
0.935095 0.917509 0.218708
0.959818 0.940870 0.218708
0.959818 0.940870 0.218708
0.996427 0.992839 0.000000
0.000000 0.940870 0.218708
0.000000 0.940870 0.218708
0.000000 0.940870 0.218708
0.366368 0.940870 0.218708
0.738778 0.940870 0.218708
0.935095 0.940870 0.218708
0.959818 0.940870 0.218708
0.959818 0.940870 0.218708
0.996427 0.996427 0.000000
0.000000 0.996427 0.218708
0.000000 0.996427 0.207307
0.000000 0.996427 0.207307
0.366368 0.996427 0.195098
0.738778 0.996427 0.181896
0.935095 0.996427 0.167429
0.992839 0.996427 0.000000
0.996427 0.996427 0.000000
0.996427 0.996427 0.000000
0.000000 0.000000 0.000000
0.000000 0.000000 0.000000
0.000000 0.000000 0.000000
0.000000 0.000000 0.000000
0.383716 0.000000 0.000000
0.687988 0.000000 0.000000
0.864273 0.000000 0.000000
0.959818 0.000000 0.000000
0.996427 0.000000 0.000000
0.000000 0.000000 0.000000
0.000000 0.080560 0.000000
0.000000 0.080560 0.000000
0.000000 0.080560 0.000000
0.449927 0.080560 0.000000
0.712588 0.080560 0.000000
0.876903 0.080560 0.000000
0.961688 0.080560 0.000000
0.996427 0.080560 0.000000
0.000000 0.110395 0.000000
0.000000 0.110395 0.000000
0.000000 0.132737 0.000000
0.207307 0.132737 0.000000
0.533469 0.132737 0.000000
0.748948 0.132737 0.000000
0.893411 0.132737 0.000000
0.963554 0.132737 0.000000
0.996427 0.132737 0.000000
0.000000 0.151280 0.000000
0.000000 0.167429 0.000000
0.000000 0.181896 0.000000
0.366368 0.229437 0.000000
0.632242 0.229437 0.000000
0.795144 0.229437 0.000000
0.913545 0.229437 0.000000
0.967273 0.229437 0.000000
0.996427 0.229437 0.000000
0.000000 0.229437 0.000000
0.000000 0.258497 0.000000
0.000000 0.292020 0.000000
0.366368 0.354232 0.000000
0.738778 0.506108 0.000000
0.857874 0.506108 0.000000
0.937025 0.506108 0.000000
0.972820 0.506108 0.000000
0.996427 0.506108 0.000000
0.000000 0.410703 0.000000
0.000000 0.454547 0.000000
0.000000 0.525825 0.000000
0.366368 0.616558 0.000000
0.738778 0.723201 0.000000
0.935095 0.883137 0.000000
0.961688 0.883137 0.000000
0.980156 0.883137 0.000000
0.996427 0.883137 0.000000
0.000000 0.736210 0.000000
0.000000 0.756468 0.000000
0.000000 0.788065 0.000000
0.366368 0.829457 0.000000
0.738778 0.887264 0.000000
0.935095 0.946602 0.000000
0.992839 0.992839 0.000000
0.994635 0.992839 0.000000
0.996427 0.992839 0.000000
0.000000 0.940870 0.000000
0.000000 0.946602 0.000000
0.000000 0.950400 0.000000
0.366368 0.957944 0.000000
0.738778 0.967273 0.000000
0.935095 0.976496 0.000000
0.992839 0.994635 0.000000
0.996427 0.996427 0.000000
0.996427 0.996427 0.000000
0.000000 0.996427 0.000000
0.000000 0.996427 0.000000
0.000000 0.996427 0.000000
0.366368 0.996427 0.000000
0.738778 0.996427 0.000000
0.935095 0.996427 0.000000
0.992839 0.996427 0.000000
0.996427 0.996427 0.000000
0.996427 0.996427 0.000000
