Luts/blue_inversion_curve_fun.cube
TITLE "Exported LUT"
LUT_3D_SIZE 5
DOMAIN_MIN 0.0 0.0 0.0
DOMAIN_MAX 1.0 1.0 1.0
0.000000 0.000000 0.981980
0.000000 0.000000 0.981980
0.383716 0.000000 0.981980
0.864273 0.000000 0.981980
0.996427 0.000000 0.981980
0.000000 0.110395 0.981980
0.000000 0.110395 0.981980
0.383716 0.110395 0.981980
0.864273 0.110395 0.981980
0.996427 0.110395 0.981980
0.000000 0.229437 0.981980
0.000000 0.229437 0.981980
0.383716 0.229437 0.981980
0.864273 0.229437 0.981980
0.996427 0.229437 0.981980
0.000000 0.736210 0.981980
0.000000 0.736210 0.981980
0.383716 0.736210 0.981980
0.864273 0.736210 0.981980
0.996427 0.736210 0.981980
0.000000 0.996427 0.981980
0.000000 0.996427 0.981980
0.383716 0.996427 0.981980
0.864273 0.996427 0.981980
0.996427 0.996427 0.981980
0.000000 0.000000 0.897481
0.000000 0.000000 0.897481
0.383716 0.000000 0.897481
0.864273 0.000000 0.897481
0.996427 0.000000 0.897481
0.000000 0.110395 0.897481
0.000000 0.110395 0.897481
0.383716 0.132737 0.818211
0.864273 0.132737 0.818211
0.996427 0.132737 0.818211
0.000000 0.229437 0.897481
0.000000 0.229437 0.818211
0.383716 0.229437 0.818211
0.864273 0.275870 0.818211
0.996427 0.292020 0.818211
0.000000 0.736210 0.897481
0.000000 0.736210 0.818211
0.493821 0.736210 0.818211
0.864273 0.736210 0.818211
0.996427 0.788065 0.818211
0.000000 0.996427 0.897481
0.000000 0.996427 0.818211
0.533469 0.996427 0.818211
0.893411 0.996427 0.818211
0.996427 0.996427 0.818211
0.000000 0.000000 0.619733
0.000000 0.000000 0.619733
0.383716 0.000000 0.619733
0.864273 0.000000 0.619733
0.996427 0.000000 0.619733
0.000000 0.110395 0.619733
0.000000 0.132737 0.619733
0.383716 0.132737 0.619733
0.864273 0.132737 0.566348
0.996427 0.132737 0.544693
0.000000 0.229437 0.619733
0.000000 0.229437 0.619733
0.383716 0.229437 0.619733
0.864273 0.506108 0.400170
0.996427 0.506108 0.400170
0.000000 0.736210 0.619733
0.000000 0.736210 0.566348
0.738778 0.736210 0.400170
0.864273 0.736210 0.400170
0.996427 0.887264 0.400170
0.000000 0.996427 0.619733
0.000000 0.996427 0.544693
0.738778 0.996427 0.400170
0.937025 0.996427 0.400170
0.996427 0.996427 0.400170
0.000000 0.000000 0.314409
0.000000 0.000000 0.314409
0.383716 0.000000 0.314409
0.864273 0.000000 0.314409
0.996427 0.000000 0.314409
0.000000 0.110395 0.314409
0.000000 0.132737 0.314409
0.493821 0.132737 0.314409
0.864273 0.132737 0.314409
0.996427 0.132737 0.292020
0.000000 0.229437 0.314409
0.000000 0.275870 0.314409
0.738778 0.506108 0.314409
0.864273 0.506108 0.314409
0.996427 0.506108 0.249261
0.000000 0.736210 0.314409
0.000000 0.736210 0.314409
0.738778 0.736210 0.314409
0.864273 0.736210 0.314409
0.996427 0.992839 0.080560
0.000000 0.996427 0.314409
0.000000 0.996427 0.292020
0.738778 0.996427 0.249261
0.992839 0.996427 0.080560
0.996427 0.996427 0.080560
0.000000 0.000000 0.000000
0.000000 0.000000 0.000000
0.383716 0.000000 0.000000
0.864273 0.000000 0.000000
0.996427 0.000000 0.000000
0.000000 0.110395 0.000000
0.000000 0.132737 0.000000
0.533469 0.132737 0.000000
0.893411 0.132737 0.000000
0.996427 0.132737 0.000000
0.000000 0.229437 0.000000
0.000000 0.292020 0.000000
0.738778 0.506108 0.000000
0.937025 0.506108 0.000000
0.996427 0.506108 0.000000
0.000000 0.736210 0.000000
0.000000 0.788065 0.000000
0.738778 0.887264 0.000000
0.992839 0.992839 0.000000
0.996427 0.992839 0.000000
0.000000 0.996427 0.000000
0.000000 0.996427 0.000000
0.738778 0.996427 0.000000
0.992839 0.996427 0.000000
0.996427 0.996427 0.000000
