Luts/blue_inversion_curve_fun.cube
TITLE "Exported LUT"
LUT_3D_SIZE 17
DOMAIN_MIN 0.0 0.0 0.0
DOMAIN_MAX 1.0 1.0 1.0
0.000000 0.000000 0.981980
0.000000 0.000000 0.981980
0.000000 0.000000 0.981980
0.000000 0.000000 0.981980
0.000000 0.000000 0.981980
0.000000 0.000000 0.981980
0.000000 0.000000 0.981980
0.195098 0.000000 0.981980
0.383716 0.000000 0.981980
0.552025 0.000000 0.981980
0.687988 0.000000 0.981980
0.778507 0.000000 0.981980
0.864273 0.000000 0.981980
0.925374 0.000000 0.981980
0.959818 0.000000 0.981980
0.978328 0.000000 0.981980
0.996427 0.000000 0.981980
0.000000 0.000000 0.981980
0.000000 0.000000 0.981980
0.000000 0.000000 0.981980
0.000000 0.000000 0.981980
0.000000 0.000000 0.981980
0.000000 0.000000 0.981980
0.000000 0.000000 0.981980
0.195098 0.000000 0.981980
0.383716 0.000000 0.981980
0.552025 0.000000 0.981980
0.687988 0.000000 0.981980
0.778507 0.000000 0.981980
0.864273 0.000000 0.981980
0.925374 0.000000 0.981980
0.959818 0.000000 0.981980
0.978328 0.000000 0.981980
0.996427 0.000000 0.981980
0.000000 0.000000 0.981980
0.000000 0.000000 0.981980
0.000000 0.000000 0.981980
0.000000 0.000000 0.981980
0.000000 0.000000 0.981980
0.000000 0.000000 0.981980
0.000000 0.000000 0.981980
0.195098 0.000000 0.981980
0.383716 0.000000 0.981980
0.552025 0.000000 0.981980
0.687988 0.000000 0.981980
0.778507 0.000000 0.981980
0.864273 0.000000 0.981980
0.925374 0.000000 0.981980
0.959818 0.000000 0.981980
0.978328 0.000000 0.981980
0.996427 0.000000 0.981980
0.000000 0.080560 0.981980
0.000000 0.080560 0.981980
0.000000 0.080560 0.981980
0.000000 0.080560 0.981980
0.000000 0.080560 0.981980
0.000000 0.080560 0.981980
0.000000 0.080560 0.981980
0.195098 0.080560 0.981980
0.383716 0.080560 0.981980
0.552025 0.080560 0.981980
0.687988 0.080560 0.981980
0.778507 0.080560 0.981980
0.864273 0.080560 0.981980
0.925374 0.080560 0.981980
0.959818 0.080560 0.981980
0.978328 0.080560 0.981980
0.996427 0.080560 0.981980
0.000000 0.110395 0.981980
0.000000 0.110395 0.981980
0.000000 0.110395 0.981980
0.000000 0.110395 0.981980
0.000000 0.110395 0.981980
0.000000 0.110395 0.981980
0.000000 0.110395 0.981980
0.195098 0.110395 0.981980
0.383716 0.110395 0.981980
0.552025 0.110395 0.981980
0.687988 0.110395 0.981980
0.778507 0.110395 0.981980
0.864273 0.110395 0.981980
0.925374 0.110395 0.981980
0.959818 0.110395 0.981980
0.978328 0.110395 0.981980
0.996427 0.110395 0.981980
0.000000 0.132737 0.981980
0.000000 0.132737 0.981980
0.000000 0.132737 0.981980
0.000000 0.132737 0.981980
0.000000 0.132737 0.981980
0.000000 0.132737 0.981980
0.000000 0.132737 0.981980
0.195098 0.132737 0.981980
0.383716 0.132737 0.981980
0.552025 0.132737 0.981980
0.687988 0.132737 0.981980
0.778507 0.132737 0.981980
0.864273 0.132737 0.981980
0.925374 0.132737 0.981980
0.959818 0.132737 0.981980
0.978328 0.132737 0.981980
0.996427 0.132737 0.981980
0.000000 0.151280 0.981980
0.000000 0.151280 0.981980
0.000000 0.151280 0.981980
0.000000 0.151280 0.981980
0.000000 0.151280 0.981980
0.000000 0.151280 0.981980
0.000000 0.151280 0.981980
0.195098 0.151280 0.981980
0.383716 0.151280 0.981980
0.552025 0.151280 0.981980
0.687988 0.151280 0.981980
0.778507 0.151280 0.981980
0.864273 0.151280 0.981980
0.925374 0.151280 0.981980
0.959818 0.151280 0.981980
0.978328 0.151280 0.981980
0.996427 0.151280 0.981980
0.000000 0.181896 0.981980
0.000000 0.181896 0.981980
0.000000 0.181896 0.981980
0.000000 0.181896 0.981980
0.000000 0.181896 0.981980
0.000000 0.181896 0.981980
0.000000 0.181896 0.981980
0.195098 0.181896 0.981980
0.383716 0.181896 0.981980
0.552025 0.181896 0.981980
0.687988 0.181896 0.981980
0.778507 0.181896 0.981980
0.864273 0.181896 0.981980
0.925374 0.181896 0.981980
0.959818 0.181896 0.981980
0.978328 0.181896 0.981980
0.996427 0.181896 0.981980
0.000000 0.229437 0.981980
0.000000 0.229437 0.981980
0.000000 0.229437 0.981980
0.000000 0.229437 0.981980
0.000000 0.229437 0.981980
0.000000 0.229437 0.981980
0.000000 0.229437 0.981980
0.195098 0.229437 0.981980
0.383716 0.229437 0.981980
0.552025 0.229437 0.981980
0.687988 0.229437 0.981980
0.778507 0.229437 0.981980
0.864273 0.229437 0.981980
0.925374 0.229437 0.981980
0.959818 0.229437 0.981980
0.978328 0.229437 0.981980
0.996427 0.229437 0.981980
0.000000 0.299707 0.981980
0.000000 0.299707 0.981980
0.000000 0.299707 0.981980
0.000000 0.299707 0.981980
0.000000 0.299707 0.981980
0.000000 0.299707 0.981980
0.000000 0.299707 0.981980
0.195098 0.299707 0.981980
0.383716 0.299707 0.981980
0.552025 0.299707 0.981980
0.687988 0.299707 0.981980
0.778507 0.299707 0.981980
0.864273 0.299707 0.981980
0.925374 0.299707 0.981980
0.959818 0.299707 0.981980
0.978328 0.299707 0.981980
0.996427 0.299707 0.981980
0.000000 0.410703 0.981980
0.000000 0.410703 0.981980
0.000000 0.410703 0.981980
0.000000 0.410703 0.981980
0.000000 0.410703 0.981980
0.000000 0.410703 0.981980
0.000000 0.410703 0.981980
0.195098 0.410703 0.981980
0.383716 0.410703 0.981980
0.552025 0.410703 0.981980
0.687988 0.410703 0.981980
0.778507 0.410703 0.981980
0.864273 0.410703 0.981980
0.925374 0.410703 0.981980
0.959818 0.410703 0.981980
0.978328 0.410703 0.981980
0.996427 0.410703 0.981980
0.000000 0.587051 0.981980
0.000000 0.587051 0.981980
0.000000 0.587051 0.981980
0.000000 0.587051 0.981980
0.000000 0.587051 0.981980
0.000000 0.587051 0.981980
0.000000 0.587051 0.981980
0.195098 0.587051 0.981980
0.383716 0.587051 0.981980
0.552025 0.587051 0.981980
0.687988 0.587051 0.981980
0.778507 0.587051 0.981980
0.864273 0.587051 0.981980
0.925374 0.587051 0.981980
0.959818 0.587051 0.981980
0.978328 0.587051 0.981980
0.996427 0.587051 0.981980
0.000000 0.736210 0.981980
0.000000 0.736210 0.981980
0.000000 0.736210 0.981980
0.000000 0.736210 0.981980
0.000000 0.736210 0.981980
0.000000 0.736210 0.981980
0.000000 0.736210 0.981980
0.195098 0.736210 0.981980
0.383716 0.736210 0.981980
0.552025 0.736210 0.981980
0.687988 0.736210 0.981980
0.778507 0.736210 0.981980
0.864273 0.736210 0.981980
0.925374 0.736210 0.981980
0.959818 0.736210 0.981980
0.978328 0.736210 0.981980
0.996427 0.736210 0.981980
0.000000 0.860013 0.981980
0.000000 0.860013 0.981980
0.000000 0.860013 0.981980
0.000000 0.860013 0.981980
0.000000 0.860013 0.981980
0.000000 0.860013 0.981980
0.000000 0.860013 0.981980
0.195098 0.860013 0.981980
0.383716 0.860013 0.981980
0.552025 0.860013 0.981980
0.687988 0.860013 0.981980
0.778507 0.860013 0.981980
0.864273 0.860013 0.981980
0.925374 0.860013 0.981980
0.959818 0.860013 0.981980
0.978328 0.860013 0.981980
0.996427 0.860013 0.981980
0.000000 0.940870 0.981980
0.000000 0.940870 0.981980
0.000000 0.940870 0.981980
0.000000 0.940870 0.981980
0.000000 0.940870 0.981980
0.000000 0.940870 0.981980
0.000000 0.940870 0.981980
0.195098 0.940870 0.981980
0.383716 0.940870 0.981980
0.552025 0.940870 0.981980
0.687988 0.940870 0.981980
0.778507 0.940870 0.981980
0.864273 0.940870 0.981980
0.925374 0.940870 0.981980
0.959818 0.940870 0.981980
0.978328 0.940870 0.981980
0.996427 0.940870 0.981980
0.000000 0.974660 0.981980
0.000000 0.974660 0.981980
0.000000 0.974660 0.981980
0.000000 0.974660 0.981980
0.000000 0.974660 0.981980
0.000000 0.974660 0.981980
0.000000 0.974660 0.981980
0.195098 0.974660 0.981980
0.383716 0.974660 0.981980
0.552025 0.974660 0.981980
0.687988 0.974660 0.981980
0.778507 0.974660 0.981980
0.864273 0.974660 0.981980
0.925374 0.974660 0.981980
0.959818 0.974660 0.981980
0.978328 0.974660 0.981980
0.996427 0.974660 0.981980
0.000000 0.996427 0.981980
0.000000 0.996427 0.981980
0.000000 0.996427 0.981980
0.000000 0.996427 0.981980
0.000000 0.996427 0.981980
0.000000 0.996427 0.981980
0.000000 0.996427 0.981980
0.195098 0.996427 0.981980
0.383716 0.996427 0.981980
0.552025 0.996427 0.981980
0.687988 0.996427 0.981980
0.778507 0.996427 0.981980
0.864273 0.996427 0.981980
0.925374 0.996427 0.981980
0.959818 0.996427 0.981980
0.978328 0.996427 0.981980
0.996427 0.996427 0.981980
0.000000 0.000000 0.981980
0.000000 0.000000 0.981980
0.000000 0.000000 0.981980
0.000000 0.000000 0.981980
0.000000 0.000000 0.981980
0.000000 0.000000 0.981980
0.000000 0.000000 0.981980
0.195098 0.000000 0.981980
0.383716 0.000000 0.981980
0.552025 0.000000 0.981980
0.687988 0.000000 0.981980
0.778507 0.000000 0.981980
0.864273 0.000000 0.981980
0.925374 0.000000 0.981980
0.959818 0.000000 0.981980
0.978328 0.000000 0.981980
0.996427 0.000000 0.981980
0.000000 0.000000 0.981980
0.000000 0.000000 0.981980
0.000000 0.000000 0.981980
0.000000 0.000000 0.981980
0.000000 0.000000 0.981980
0.000000 0.000000 0.981980
0.000000 0.000000 0.981980
0.195098 0.000000 0.981980
0.383716 0.000000 0.981980
0.552025 0.000000 0.981980
0.687988 0.000000 0.981980
0.778507 0.000000 0.981980
0.864273 0.000000 0.981980
0.925374 0.000000 0.981980
0.959818 0.000000 0.981980
0.978328 0.000000 0.981980
0.996427 0.000000 0.981980
0.000000 0.000000 0.981980
0.000000 0.000000 0.981980
0.000000 0.000000 0.981980
0.000000 0.000000 0.981980
0.000000 0.000000 0.981980
0.000000 0.080560 0.981980
0.000000 0.080560 0.981980
0.195098 0.080560 0.981980
0.383716 0.080560 0.981980
0.552025 0.080560 0.981980
0.687988 0.080560 0.981980
0.778507 0.080560 0.981980
0.864273 0.080560 0.981980
0.925374 0.080560 0.981980
0.959818 0.080560 0.981980
0.978328 0.080560 0.981980
0.996427 0.080560 0.981980
0.000000 0.080560 0.981980
0.000000 0.080560 0.981980
0.000000 0.080560 0.981980
0.000000 0.080560 0.981980
0.000000 0.080560 0.981980
0.000000 0.080560 0.981980
0.000000 0.080560 0.981980
0.195098 0.080560 0.981980
0.383716 0.080560 0.981980
0.552025 0.080560 0.981980
0.687988 0.080560 0.981980
0.778507 0.080560 0.981980
0.864273 0.080560 0.981980
0.925374 0.080560 0.981980
0.959818 0.080560 0.981980
0.978328 0.080560 0.981980
0.996427 0.080560 0.981980
0.000000 0.110395 0.981980
0.000000 0.110395 0.981980
0.000000 0.110395 0.981980
0.000000 0.110395 0.981980
0.000000 0.110395 0.981980
0.000000 0.110395 0.981980
0.000000 0.110395 0.981980
0.195098 0.110395 0.981980
0.383716 0.110395 0.981980
0.552025 0.110395 0.981980
0.687988 0.110395 0.981980
0.778507 0.110395 0.981980
0.864273 0.110395 0.981980
0.925374 0.110395 0.981980
0.959818 0.110395 0.981980
0.978328 0.110395 0.981980
0.996427 0.110395 0.981980
0.000000 0.132737 0.981980
0.000000 0.132737 0.981980
0.000000 0.132737 0.981980
0.000000 0.132737 0.981980
0.000000 0.132737 0.981980
0.000000 0.132737 0.981980
0.000000 0.132737 0.981980
0.195098 0.132737 0.981980
0.383716 0.132737 0.981980
0.552025 0.132737 0.981980
0.687988 0.132737 0.981980
0.778507 0.132737 0.981980
0.864273 0.132737 0.981980
0.925374 0.132737 0.981980
0.959818 0.132737 0.981980
0.978328 0.132737 0.981980
0.996427 0.132737 0.981980
0.000000 0.151280 0.981980
0.000000 0.151280 0.981980
0.000000 0.151280 0.981980
0.000000 0.151280 0.981980
0.000000 0.151280 0.981980
0.000000 0.151280 0.981980
0.000000 0.151280 0.981980
0.195098 0.151280 0.981980
0.383716 0.151280 0.981980
0.552025 0.151280 0.981980
0.687988 0.151280 0.981980
0.778507 0.151280 0.981980
0.864273 0.151280 0.981980
0.925374 0.151280 0.981980
0.959818 0.151280 0.981980
0.978328 0.151280 0.981980
0.996427 0.151280 0.981980
0.000000 0.181896 0.981980
0.000000 0.181896 0.981980
0.000000 0.181896 0.981980
0.000000 0.181896 0.981980
0.000000 0.181896 0.981980
0.000000 0.181896 0.981980
0.000000 0.181896 0.981980
0.195098 0.181896 0.981980
0.383716 0.181896 0.981980
0.552025 0.181896 0.981980
0.687988 0.181896 0.981980
0.778507 0.181896 0.981980
0.864273 0.181896 0.981980
0.925374 0.195098 0.981980
0.959818 0.195098 0.981980
0.978328 0.195098 0.981980
0.996427 0.195098 0.981980
0.000000 0.229437 0.981980
0.000000 0.229437 0.981980
0.000000 0.229437 0.981980
0.000000 0.229437 0.981980
0.000000 0.229437 0.981980
0.000000 0.229437 0.981980
0.000000 0.229437 0.981980
0.195098 0.229437 0.981980
0.383716 0.229437 0.981980
0.552025 0.239595 0.981980
0.687988 0.239595 0.981980
0.778507 0.239595 0.981980
0.864273 0.239595 0.981980
0.925374 0.239595 0.981980
0.959818 0.249261 0.981980
0.978328 0.249261 0.981980
0.996427 0.249261 0.981980
0.000000 0.299707 0.981980
0.000000 0.299707 0.981980
0.000000 0.299707 0.981980
0.000000 0.299707 0.981980
0.000000 0.299707 0.981980
0.000000 0.299707 0.981980
0.000000 0.299707 0.981980
0.207307 0.299707 0.981980
0.394777 0.299707 0.981980
0.552025 0.299707 0.981980
0.687988 0.307164 0.981980
0.778507 0.307164 0.981980
0.864273 0.307164 0.981980
0.925374 0.307164 0.981980
0.959818 0.307164 0.981980
0.978328 0.314409 0.981980
0.996427 0.314409 0.981980
0.000000 0.410703 0.981980
0.000000 0.410703 0.981980
0.000000 0.410703 0.981980
0.000000 0.410703 0.981980
0.000000 0.410703 0.981980
0.000000 0.410703 0.981980
0.000000 0.410703 0.981980
0.207307 0.410703 0.981980
0.394777 0.410703 0.981980
0.562808 0.410703 0.981980
0.687988 0.410703 0.981980
0.778507 0.410703 0.981980
0.864273 0.420922 0.981980
0.925374 0.420922 0.981980
0.959818 0.430851 0.981980
0.978328 0.430851 0.981980
0.996427 0.430851 0.981980
0.000000 0.587051 0.981980
0.000000 0.587051 0.981980
0.000000 0.587051 0.981980
0.000000 0.587051 0.981980
0.000000 0.587051 0.981980
0.000000 0.587051 0.981980
0.000000 0.587051 0.981980
0.207307 0.587051 0.981980
0.405478 0.587051 0.981980
0.562808 0.587051 0.981980
0.687988 0.587051 0.981980
0.778507 0.587051 0.981980
0.864273 0.593760 0.981980
0.925374 0.600380 0.981980
0.959818 0.600380 0.981980
0.978328 0.600380 0.981980
0.996427 0.610149 0.981980
0.000000 0.736210 0.981980
0.000000 0.736210 0.981980
0.000000 0.736210 0.981980
0.000000 0.736210 0.981980
0.000000 0.736210 0.981980
0.000000 0.736210 0.981980
0.000000 0.736210 0.981980
0.207307 0.736210 0.981980
0.405478 0.736210 0.981980
0.569861 0.736210 0.981980
0.693545 0.736210 0.981980
0.783303 0.736210 0.981980
0.864273 0.736210 0.981980
0.925374 0.736210 0.981980
0.959818 0.741336 0.981980
0.978328 0.741336 0.981980
0.996427 0.746421 0.981980
0.000000 0.860013 0.981980
0.000000 0.860013 0.981980
0.000000 0.860013 0.981980
0.000000 0.860013 0.981980
0.000000 0.860013 0.981980
0.000000 0.860013 0.981980
0.000000 0.860013 0.981980
0.229437 0.860013 0.981980
0.405478 0.860013 0.981980
0.569861 0.860013 0.981980
0.693545 0.860013 0.981980
0.785689 0.860013 0.981980
0.864273 0.860013 0.981980
0.925374 0.860013 0.981980
0.959818 0.860013 0.981980
0.978328 0.864273 0.981980
0.996427 0.864273 0.981980
0.000000 0.940870 0.981980
0.000000 0.940870 0.981980
0.000000 0.940870 0.981980
0.000000 0.940870 0.981980
0.000000 0.940870 0.981980
0.000000 0.940870 0.981980
0.000000 0.940870 0.981980
0.229437 0.940870 0.981980
0.415850 0.940870 0.981980
0.569861 0.940870 0.981980
0.696304 0.940870 0.981980
0.785689 0.940870 0.981980
0.868507 0.940870 0.981980
0.925374 0.940870 0.981980
0.959818 0.940870 0.981980
0.978328 0.942785 0.981980
0.996427 0.942785 0.981980
0.000000 0.974660 0.981980
0.000000 0.974660 0.981980
0.000000 0.974660 0.981980
0.000000 0.974660 0.981980
0.000000 0.974660 0.981980
0.000000 0.974660 0.981980
0.000000 0.974660 0.981980
0.229437 0.974660 0.981980
0.415850 0.974660 0.981980
0.580248 0.974660 0.981980
0.696304 0.974660 0.981980
0.785689 0.974660 0.981980
0.868507 0.974660 0.981980
0.927328 0.974660 0.981980
0.959818 0.974660 0.981980
0.978328 0.974660 0.981980
0.996427 0.976496 0.981980
0.000000 0.996427 0.981980
0.000000 0.996427 0.981980
0.000000 0.996427 0.981980
0.000000 0.996427 0.981980
0.000000 0.996427 0.981980
0.000000 0.996427 0.981980
0.000000 0.996427 0.981980
0.229437 0.996427 0.981980
0.415850 0.996427 0.981980
0.580248 0.996427 0.981980
0.696304 0.996427 0.981980
0.790433 0.996427 0.981980
0.870615 0.996427 0.981980
0.927328 0.996427 0.981980
0.959818 0.996427 0.981980
0.978328 0.996427 0.981980
0.996427 0.996427 0.981980
0.000000 0.000000 0.972820
0.000000 0.000000 0.972820
0.000000 0.000000 0.972820
0.000000 0.000000 0.972820
0.000000 0.000000 0.972820
0.000000 0.000000 0.972820
0.000000 0.000000 0.972820
0.195098 0.000000 0.972820
0.383716 0.000000 0.972820
0.552025 0.000000 0.972820
0.687988 0.000000 0.972820
0.778507 0.000000 0.972820
0.864273 0.000000 0.972820
0.925374 0.000000 0.972820
0.959818 0.000000 0.972820
0.978328 0.000000 0.972820
0.996427 0.000000 0.972820
0.000000 0.000000 0.972820
0.000000 0.000000 0.972820
0.000000 0.000000 0.972820
0.000000 0.000000 0.972820
0.000000 0.000000 0.972820
0.000000 0.000000 0.965416
0.000000 0.000000 0.965416
0.195098 0.000000 0.965416
0.383716 0.000000 0.965416
0.552025 0.000000 0.965416
0.687988 0.000000 0.965416
0.778507 0.000000 0.965416
0.864273 0.000000 0.965416
0.925374 0.000000 0.965416
0.959818 0.000000 0.965416
0.978328 0.000000 0.965416
0.996427 0.000000 0.965416
0.000000 0.000000 0.972820
0.000000 0.000000 0.972820
0.000000 0.000000 0.972820
0.000000 0.080560 0.957944
0.000000 0.080560 0.957944
0.000000 0.080560 0.957944
0.000000 0.080560 0.957944
0.195098 0.080560 0.957944
0.383716 0.080560 0.957944
0.552025 0.080560 0.957944
0.687988 0.080560 0.957944
0.778507 0.080560 0.957944
0.864273 0.080560 0.957944
0.925374 0.080560 0.957944
0.959818 0.080560 0.957944
0.978328 0.080560 0.957944
0.996427 0.080560 0.957944
0.000000 0.080560 0.972820
0.000000 0.080560 0.972820
0.000000 0.080560 0.957944
0.000000 0.080560 0.957944
0.000000 0.080560 0.957944
0.000000 0.080560 0.957944
0.000000 0.080560 0.957944
0.195098 0.080560 0.957944
0.383716 0.080560 0.957944
0.552025 0.080560 0.957944
0.687988 0.080560 0.957944
0.778507 0.080560 0.957944
0.864273 0.080560 0.957944
0.925374 0.080560 0.957944
0.959818 0.080560 0.957944
0.978328 0.080560 0.957944
0.996427 0.080560 0.957944
0.000000 0.110395 0.972820
0.000000 0.110395 0.972820
0.000000 0.110395 0.957944
0.000000 0.110395 0.957944
0.000000 0.110395 0.957944
0.000000 0.110395 0.957944
0.000000 0.110395 0.957944
0.195098 0.110395 0.957944
0.383716 0.110395 0.957944
0.552025 0.110395 0.957944
0.687988 0.110395 0.957944
0.778507 0.110395 0.957944
0.864273 0.110395 0.957944
0.925374 0.110395 0.957944
0.959818 0.110395 0.957944
0.978328 0.110395 0.957944
0.996427 0.110395 0.957944
0.000000 0.132737 0.972820
0.000000 0.132737 0.965416
0.000000 0.132737 0.957944
0.000000 0.132737 0.957944
0.000000 0.132737 0.957944
0.000000 0.132737 0.957944
0.000000 0.132737 0.957944
0.195098 0.132737 0.957944
0.383716 0.132737 0.957944
0.552025 0.132737 0.957944
0.687988 0.132737 0.957944
0.778507 0.132737 0.957944
0.864273 0.132737 0.957944
0.925374 0.132737 0.957944
0.959818 0.132737 0.957944
0.978328 0.132737 0.957944
0.996427 0.132737 0.957944
0.000000 0.151280 0.972820
0.000000 0.151280 0.965416
0.000000 0.151280 0.957944
0.000000 0.151280 0.957944
0.000000 0.151280 0.957944
0.000000 0.151280 0.957944
0.000000 0.151280 0.957944
0.195098 0.151280 0.957944
0.383716 0.151280 0.957944
0.552025 0.151280 0.957944
0.687988 0.151280 0.957944
0.778507 0.151280 0.957944
0.864273 0.151280 0.957944
0.925374 0.167429 0.957944
0.959818 0.167429 0.957944
0.978328 0.167429 0.957944
0.996427 0.167429 0.957944
0.000000 0.181896 0.972820
0.000000 0.181896 0.965416
0.000000 0.181896 0.957944
0.000000 0.181896 0.957944
0.000000 0.181896 0.957944
0.000000 0.181896 0.957944
0.000000 0.181896 0.957944
0.195098 0.181896 0.957944
0.383716 0.181896 0.957944
0.552025 0.195098 0.957944
0.687988 0.195098 0.957944
0.778507 0.195098 0.957944
0.864273 0.195098 0.957944
0.925374 0.195098 0.957944
0.959818 0.195098 0.957944
0.978328 0.195098 0.957944
0.996427 0.195098 0.957944
0.000000 0.229437 0.972820
0.000000 0.229437 0.965416
0.000000 0.229437 0.957944
0.000000 0.229437 0.957944
0.000000 0.229437 0.957944
0.000000 0.229437 0.957944
0.000000 0.229437 0.957944
0.207307 0.229437 0.957944
0.383716 0.229437 0.957944
0.552025 0.239595 0.957944
0.687988 0.249261 0.957944
0.778507 0.249261 0.957944
0.864273 0.249261 0.957944
0.925374 0.249261 0.957944
0.959818 0.249261 0.957944
0.978328 0.258497 0.957944
0.996427 0.258497 0.957944
0.000000 0.299707 0.972820
0.000000 0.299707 0.965416
0.000000 0.299707 0.957944
0.000000 0.299707 0.957944
0.000000 0.299707 0.957944
0.000000 0.299707 0.957944
0.000000 0.299707 0.957944
0.229437 0.299707 0.957944
0.405478 0.299707 0.957944
0.552025 0.299707 0.957944
0.687988 0.307164 0.957944
0.778507 0.314409 0.957944
0.864273 0.321460 0.957944
0.925374 0.321460 0.957944
0.959818 0.321460 0.957944
0.978328 0.321460 0.957944
0.996427 0.328330 0.957944
0.000000 0.410703 0.972820
0.000000 0.410703 0.965416
0.000000 0.410703 0.957944
0.000000 0.410703 0.957944
0.000000 0.410703 0.957944
0.000000 0.410703 0.957944
0.000000 0.410703 0.957944
0.239595 0.410703 0.957944
0.415850 0.410703 0.957944
0.569861 0.410703 0.957944
0.687988 0.410703 0.957944
0.778507 0.420922 0.957944
0.864273 0.430851 0.957944
0.925374 0.435714 0.957944
0.959818 0.445250 0.957944
0.978328 0.454547 0.957944
0.996427 0.454547 0.957944
0.000000 0.587051 0.972820
0.000000 0.587051 0.965416
0.000000 0.587051 0.957944
0.000000 0.587051 0.957944
0.000000 0.587051 0.957944
0.000000 0.587051 0.957944
0.000000 0.587051 0.957944
0.239595 0.587051 0.957944
0.430851 0.587051 0.957944
0.580248 0.587051 0.957944
0.693545 0.587051 0.957944
0.778507 0.587051 0.957944
0.864273 0.600380 0.957944
0.925374 0.610149 0.957944
0.959818 0.616558 0.957944
0.978328 0.622888 0.957944
0.996427 0.622888 0.957944
0.000000 0.736210 0.972820
0.000000 0.736210 0.965416
0.000000 0.736210 0.957944
0.000000 0.736210 0.957944
0.000000 0.736210 0.957944
0.000000 0.736210 0.957944
0.000000 0.736210 0.957944
0.258497 0.736210 0.957944
0.430851 0.736210 0.957944
0.587051 0.736210 0.957944
0.696304 0.736210 0.957944
0.785689 0.736210 0.957944
0.864273 0.736210 0.957944
0.925374 0.741336 0.957944
0.959818 0.746421 0.957944
0.978328 0.751465 0.957944
0.996427 0.756468 0.957944
0.000000 0.860013 0.972820
0.000000 0.860013 0.965416
0.000000 0.860013 0.957944
0.000000 0.860013 0.957944
0.000000 0.860013 0.957944
0.000000 0.860013 0.957944
0.000000 0.860013 0.957944
0.258497 0.860013 0.957944
0.440513 0.860013 0.957944
0.587051 0.860013 0.957944
0.701783 0.860013 0.957944
0.790433 0.860013 0.957944
0.868507 0.860013 0.957944
0.925374 0.860013 0.957944
0.959818 0.864273 0.957944
0.978328 0.868507 0.957944
0.996427 0.872717 0.957944
0.000000 0.940870 0.972820
0.000000 0.940870 0.965416
0.000000 0.940870 0.957944
0.000000 0.940870 0.957944
0.000000 0.940870 0.957944
0.000000 0.940870 0.957944
0.000000 0.940870 0.957944
0.258497 0.940870 0.957944
0.440513 0.940870 0.957944
0.597081 0.940870 0.957944
0.707210 0.940870 0.957944
0.795144 0.940870 0.957944
0.870615 0.940870 0.957944
0.927328 0.940870 0.957944
0.959818 0.940870 0.957944
0.978328 0.942785 0.957944
0.996427 0.946602 0.957944
0.000000 0.974660 0.972820
0.000000 0.974660 0.965416
0.000000 0.974660 0.957944
0.000000 0.974660 0.957944
0.000000 0.974660 0.957944
0.000000 0.974660 0.957944
0.000000 0.974660 0.957944
0.275870 0.974660 0.957944
0.449927 0.974660 0.957944
0.597081 0.974660 0.957944
0.712588 0.974660 0.957944
0.799821 0.974660 0.957944
0.874813 0.974660 0.957944
0.929277 0.974660 0.957944
0.959818 0.974660 0.957944
0.978328 0.974660 0.957944
0.996427 0.976496 0.957944
0.000000 0.996427 0.972820
0.000000 0.996427 0.965416
0.000000 0.996427 0.957944
0.000000 0.996427 0.957944
0.000000 0.996427 0.957944
0.000000 0.996427 0.957944
0.000000 0.996427 0.957944
0.275870 0.996427 0.957944
0.449927 0.996427 0.957944
0.603657 0.996427 0.957944
0.712588 0.996427 0.957944
0.799821 0.996427 0.957944
0.876903 0.996427 0.957944
0.931221 0.996427 0.957944
0.961688 0.996427 0.957944
0.980156 0.996427 0.957944
0.996427 0.996427 0.957944
0.000000 0.000000 0.948503
0.000000 0.000000 0.948503
0.000000 0.000000 0.948503
0.000000 0.000000 0.948503
0.000000 0.000000 0.948503
0.000000 0.000000 0.948503
0.000000 0.000000 0.948503
0.195098 0.000000 0.948503
0.383716 0.000000 0.948503
0.552025 0.000000 0.948503
0.687988 0.000000 0.948503
0.778507 0.000000 0.948503
0.864273 0.000000 0.948503
0.925374 0.000000 0.948503
0.959818 0.000000 0.948503
0.978328 0.000000 0.948503
0.996427 0.000000 0.948503
0.000000 0.000000 0.948503
