Luts/curve_bump.cube
TITLE "Exported LUT"
LUT_3D_SIZE 17
DOMAIN_MIN 0.0 0.0 0.0
DOMAIN_MAX 1.0 1.0 1.0
0.000000 0.000000 0.000000
0.000000 0.000000 0.000000
0.110395 0.000000 0.000000
0.151280 0.000000 0.000000
0.207307 0.000000 0.000000
0.249261 0.000000 0.000000
0.299707 0.000000 0.000000
0.372258 0.000000 0.000000
0.468078 0.000000 0.000000
0.593760 0.000000 0.000000
0.712588 0.000000 0.000000
0.813660 0.000000 0.000000
0.883137 0.000000 0.000000
0.931221 0.000000 0.000000
0.965416 0.000000 0.000000
0.985616 0.000000 0.000000
1.000000 0.000000 0.000000
0.000000 0.000000 0.000000
0.000000 0.000000 0.000000
0.110395 0.000000 0.000000
0.151280 0.000000 0.000000
0.207307 0.000000 0.000000
0.249261 0.000000 0.000000
0.299707 0.000000 0.000000
0.372258 0.000000 0.000000
0.468078 0.000000 0.000000
0.593760 0.000000 0.000000
0.712588 0.000000 0.000000
0.813660 0.000000 0.000000
0.883137 0.000000 0.000000
0.931221 0.000000 0.000000
0.965416 0.000000 0.000000
0.985616 0.000000 0.000000
1.000000 0.000000 0.000000
0.000000 0.110395 0.000000
0.000000 0.110395 0.000000
0.110395 0.110395 0.000000
0.151280 0.110395 0.000000
0.207307 0.110395 0.000000
0.249261 0.110395 0.000000
0.299707 0.110395 0.000000
0.372258 0.110395 0.000000
0.468078 0.110395 0.000000
0.593760 0.110395 0.000000
0.712588 0.110395 0.000000
0.813660 0.110395 0.000000
0.883137 0.110395 0.000000
0.931221 0.110395 0.000000
0.965416 0.110395 0.000000
0.985616 0.110395 0.000000
1.000000 0.110395 0.000000
0.000000 0.167429 0.000000
0.000000 0.167429 0.000000
0.110395 0.167429 0.000000
0.151280 0.167429 0.000000
0.207307 0.167429 0.000000
0.249261 0.167429 0.000000
0.299707 0.167429 0.000000
0.372258 0.167429 0.000000
0.468078 0.167429 0.000000
0.593760 0.167429 0.000000
0.712588 0.167429 0.000000
0.813660 0.167429 0.000000
0.883137 0.167429 0.000000
0.931221 0.167429 0.000000
0.965416 0.167429 0.000000
0.985616 0.167429 0.000000
1.000000 0.167429 0.000000
0.000000 0.229437 0.000000
0.000000 0.229437 0.000000
0.110395 0.229437 0.000000
0.151280 0.229437 0.000000
0.207307 0.229437 0.000000
0.249261 0.229437 0.000000
0.299707 0.229437 0.000000
0.372258 0.229437 0.000000
0.468078 0.229437 0.000000
0.593760 0.229437 0.000000
0.712588 0.229437 0.000000
0.813660 0.229437 0.000000
0.883137 0.229437 0.000000
0.931221 0.229437 0.000000
0.965416 0.229437 0.000000
0.985616 0.229437 0.000000
1.000000 0.229437 0.000000
0.000000 0.275870 0.000000
0.000000 0.275870 0.000000
0.110395 0.275870 0.000000
0.151280 0.275870 0.000000
0.207307 0.275870 0.000000
0.249261 0.275870 0.000000
0.299707 0.275870 0.000000
0.372258 0.275870 0.000000
0.468078 0.275870 0.000000
0.593760 0.275870 0.000000
0.712588 0.275870 0.000000
0.813660 0.275870 0.000000
0.883137 0.275870 0.000000
0.931221 0.275870 0.000000
0.965416 0.275870 0.000000
0.985616 0.275870 0.000000
1.000000 0.275870 0.000000
0.000000 0.335031 0.000000
0.000000 0.335031 0.000000
0.110395 0.335031 0.000000
0.151280 0.335031 0.000000
0.207307 0.335031 0.000000
0.249261 0.335031 0.000000
0.299707 0.335031 0.000000
0.372258 0.335031 0.000000
0.468078 0.335031 0.000000
0.593760 0.335031 0.000000
0.712588 0.335031 0.000000
0.813660 0.335031 0.000000
0.883137 0.335031 0.000000
0.931221 0.335031 0.000000
0.965416 0.335031 0.000000
0.985616 0.335031 0.000000
1.000000 0.335031 0.000000
0.000000 0.405478 0.000000
0.000000 0.405478 0.000000
0.110395 0.405478 0.000000
0.151280 0.405478 0.000000
0.207307 0.405478 0.000000
0.249261 0.405478 0.000000
0.299707 0.405478 0.000000
0.372258 0.405478 0.000000
0.468078 0.405478 0.000000
0.593760 0.405478 0.000000
0.712588 0.405478 0.000000
0.813660 0.405478 0.000000
0.883137 0.405478 0.000000
0.931221 0.405478 0.000000
0.965416 0.405478 0.000000
0.985616 0.405478 0.000000
1.000000 0.405478 0.000000
0.000000 0.502052 0.000000
0.000000 0.502052 0.000000
0.110395 0.502052 0.000000
0.151280 0.502052 0.000000
0.207307 0.502052 0.000000
0.249261 0.502052 0.000000
0.299707 0.502052 0.000000
0.372258 0.502052 0.000000
0.468078 0.502052 0.000000
0.593760 0.502052 0.000000
0.712588 0.502052 0.000000
0.813660 0.502052 0.000000
0.883137 0.502052 0.000000
0.931221 0.502052 0.000000
0.965416 0.502052 0.000000
0.985616 0.502052 0.000000
1.000000 0.502052 0.000000
0.000000 0.613363 0.000000
0.000000 0.613363 0.000000
0.110395 0.613363 0.000000
0.151280 0.613363 0.000000
0.207307 0.613363 0.000000
0.249261 0.613363 0.000000
0.299707 0.613363 0.000000
0.372258 0.613363 0.000000
0.468078 0.613363 0.000000
0.593760 0.613363 0.000000
0.712588 0.613363 0.000000
0.813660 0.613363 0.000000
0.883137 0.613363 0.000000
0.931221 0.613363 0.000000
0.965416 0.613363 0.000000
0.985616 0.613363 0.000000
1.000000 0.613363 0.000000
0.000000 0.720565 0.000000
0.000000 0.720565 0.000000
0.110395 0.720565 0.000000
0.151280 0.720565 0.000000
0.207307 0.720565 0.000000
0.249261 0.720565 0.000000
0.299707 0.720565 0.000000
0.372258 0.720565 0.000000
0.468078 0.720565 0.000000
0.593760 0.720565 0.000000
0.712588 0.720565 0.000000
0.813660 0.720565 0.000000
0.883137 0.720565 0.000000
0.931221 0.720565 0.000000
0.965416 0.720565 0.000000
0.985616 0.720565 0.000000
1.000000 0.720565 0.000000
0.000000 0.815939 0.000000
0.000000 0.815939 0.000000
0.110395 0.815939 0.000000
0.151280 0.815939 0.000000
0.207307 0.815939 0.000000
0.249261 0.815939 0.000000
0.299707 0.815939 0.000000
0.372258 0.815939 0.000000
0.468078 0.815939 0.000000
0.593760 0.815939 0.000000
0.712588 0.815939 0.000000
0.813660 0.815939 0.000000
0.883137 0.815939 0.000000
0.931221 0.815939 0.000000
0.965416 0.815939 0.000000
0.985616 0.815939 0.000000
1.000000 0.815939 0.000000
0.000000 0.885203 0.000000
0.000000 0.885203 0.000000
0.110395 0.885203 0.000000
0.151280 0.885203 0.000000
0.207307 0.885203 0.000000
0.249261 0.885203 0.000000
0.299707 0.885203 0.000000
0.372258 0.885203 0.000000
0.468078 0.885203 0.000000
0.593760 0.885203 0.000000
0.712588 0.885203 0.000000
0.813660 0.885203 0.000000
0.883137 0.885203 0.000000
0.931221 0.885203 0.000000
0.965416 0.885203 0.000000
0.985616 0.885203 0.000000
1.000000 0.885203 0.000000
0.000000 0.938949 0.000000
0.000000 0.938949 0.000000
0.110395 0.938949 0.000000
0.151280 0.938949 0.000000
0.207307 0.938949 0.000000
0.249261 0.938949 0.000000
0.299707 0.938949 0.000000
0.372258 0.938949 0.000000
0.468078 0.938949 0.000000
0.593760 0.938949 0.000000
0.712588 0.938949 0.000000
0.813660 0.938949 0.000000
0.883137 0.938949 0.000000
0.931221 0.938949 0.000000
0.965416 0.938949 0.000000
0.985616 0.938949 0.000000
1.000000 0.938949 0.000000
0.000000 0.972820 0.000000
0.000000 0.972820 0.000000
0.110395 0.972820 0.000000
0.151280 0.972820 0.000000
0.207307 0.972820 0.000000
0.249261 0.972820 0.000000
0.299707 0.972820 0.000000
0.372258 0.972820 0.000000
0.468078 0.972820 0.000000
0.593760 0.972820 0.000000
0.712588 0.972820 0.000000
0.813660 0.972820 0.000000
0.883137 0.972820 0.000000
0.931221 0.972820 0.000000
0.965416 0.972820 0.000000
0.985616 0.972820 0.000000
1.000000 0.972820 0.000000
0.000000 0.989235 0.000000
0.000000 0.989235 0.000000
0.110395 0.989235 0.000000
0.151280 0.989235 0.000000
0.207307 0.989235 0.000000
0.249261 0.989235 0.000000
0.299707 0.989235 0.000000
0.372258 0.989235 0.000000
0.468078 0.989235 0.000000
0.593760 0.989235 0.000000
0.712588 0.989235 0.000000
0.813660 0.989235 0.000000
0.883137 0.989235 0.000000
0.931221 0.989235 0.000000
0.965416 0.989235 0.000000
0.985616 0.989235 0.000000
1.000000 0.989235 0.000000
0.000000 1.000000 0.000000
0.000000 1.000000 0.000000
0.110395 1.000000 0.000000
0.151280 1.000000 0.000000
0.207307 1.000000 0.000000
0.249261 1.000000 0.000000
0.299707 1.000000 0.000000
0.372258 1.000000 0.000000
0.468078 1.000000 0.000000
0.593760 1.000000 0.000000
0.712588 1.000000 0.000000
0.813660 1.000000 0.000000
0.883137 1.000000 0.000000
0.931221 1.000000 0.000000
0.965416 1.000000 0.000000
0.985616 1.000000 0.000000
1.000000 1.000000 0.000000
0.000000 0.000000 0.000000
0.000000 0.000000 0.000000
0.110395 0.000000 0.000000
0.151280 0.000000 0.000000
0.207307 0.000000 0.000000
0.249261 0.000000 0.000000
0.299707 0.000000 0.000000
0.372258 0.000000 0.000000
0.468078 0.000000 0.000000
0.593760 0.000000 0.000000
0.712588 0.000000 0.000000
0.813660 0.000000 0.000000
0.883137 0.000000 0.000000
0.931221 0.000000 0.000000
0.965416 0.000000 0.000000
0.985616 0.000000 0.000000
1.000000 0.000000 0.000000
0.000000 0.000000 0.000000
0.000000 0.000000 0.000000
0.110395 0.000000 0.000000
0.151280 0.000000 0.000000
0.207307 0.000000 0.000000
0.249261 0.000000 0.000000
0.299707 0.000000 0.000000
0.372258 0.000000 0.000000
0.468078 0.000000 0.000000
0.593760 0.000000 0.000000
0.712588 0.000000 0.000000
0.813660 0.000000 0.000000
0.883137 0.000000 0.000000
0.931221 0.000000 0.000000
0.965416 0.000000 0.000000
0.985616 0.000000 0.000000
1.000000 0.000000 0.000000
0.000000 0.110395 0.000000
0.000000 0.110395 0.000000
0.110395 0.110395 0.000000
0.151280 0.110395 0.000000
0.207307 0.110395 0.000000
0.249261 0.110395 0.000000
0.299707 0.110395 0.000000
0.372258 0.110395 0.000000
0.468078 0.110395 0.000000
0.593760 0.110395 0.000000
0.712588 0.110395 0.000000
0.813660 0.110395 0.000000
0.883137 0.110395 0.000000
0.931221 0.110395 0.000000
0.965416 0.110395 0.000000
0.985616 0.110395 0.000000
1.000000 0.110395 0.000000
0.000000 0.167429 0.000000
0.000000 0.167429 0.000000
0.110395 0.167429 0.000000
0.151280 0.167429 0.000000
0.207307 0.167429 0.000000
0.249261 0.167429 0.000000
0.299707 0.167429 0.000000
0.372258 0.167429 0.000000
0.468078 0.167429 0.000000
0.593760 0.167429 0.000000
0.712588 0.167429 0.000000
0.813660 0.167429 0.000000
0.883137 0.167429 0.000000
0.931221 0.167429 0.000000
0.965416 0.167429 0.000000
0.985616 0.167429 0.000000
1.000000 0.167429 0.000000
0.000000 0.229437 0.000000
0.000000 0.229437 0.000000
0.110395 0.229437 0.000000
0.151280 0.229437 0.000000
0.207307 0.229437 0.000000
0.249261 0.229437 0.000000
0.299707 0.229437 0.000000
0.372258 0.229437 0.000000
0.468078 0.229437 0.000000
0.593760 0.229437 0.000000
0.712588 0.229437 0.000000
0.813660 0.229437 0.000000
0.883137 0.229437 0.000000
0.931221 0.229437 0.000000
0.965416 0.229437 0.000000
0.985616 0.229437 0.000000
1.000000 0.229437 0.000000
0.000000 0.275870 0.000000
0.000000 0.275870 0.000000
0.110395 0.275870 0.000000
0.151280 0.275870 0.000000
0.207307 0.275870 0.000000
0.249261 0.275870 0.000000
0.299707 0.275870 0.000000
0.372258 0.275870 0.000000
0.468078 0.275870 0.000000
0.593760 0.275870 0.000000
0.712588 0.275870 0.000000
0.813660 0.275870 0.000000
0.883137 0.275870 0.000000
0.931221 0.275870 0.000000
0.965416 0.275870 0.000000
0.985616 0.275870 0.000000
1.000000 0.275870 0.000000
0.000000 0.335031 0.000000
0.000000 0.335031 0.000000
0.110395 0.335031 0.000000
0.151280 0.335031 0.000000
0.207307 0.335031 0.000000
0.249261 0.335031 0.000000
0.299707 0.335031 0.000000
0.372258 0.335031 0.000000
0.468078 0.335031 0.000000
0.593760 0.335031 0.000000
0.712588 0.335031 0.000000
0.813660 0.335031 0.000000
0.883137 0.335031 0.000000
0.931221 0.335031 0.000000
0.965416 0.335031 0.000000
0.985616 0.335031 0.000000
1.000000 0.335031 0.000000
0.000000 0.405478 0.000000
0.000000 0.405478 0.000000
0.110395 0.405478 0.000000
0.151280 0.405478 0.000000
0.207307 0.405478 0.000000
0.249261 0.405478 0.000000
0.299707 0.405478 0.000000
0.372258 0.405478 0.000000
0.468078 0.405478 0.000000
0.593760 0.405478 0.000000
0.712588 0.405478 0.000000
0.813660 0.405478 0.000000
0.883137 0.405478 0.000000
0.931221 0.405478 0.000000
0.965416 0.405478 0.000000
0.985616 0.405478 0.000000
1.000000 0.405478 0.000000
0.000000 0.502052 0.000000
0.000000 0.502052 0.000000
0.110395 0.502052 0.000000
0.151280 0.502052 0.000000
0.207307 0.502052 0.000000
0.249261 0.502052 0.000000
0.299707 0.502052 0.000000
0.372258 0.502052 0.000000
0.468078 0.502052 0.000000
0.593760 0.502052 0.000000
0.712588 0.502052 0.000000
0.813660 0.502052 0.000000
0.883137 0.502052 0.000000
0.931221 0.502052 0.000000
0.965416 0.502052 0.000000
0.985616 0.502052 0.000000
1.000000 0.502052 0.000000
0.000000 0.613363 0.000000
0.000000 0.613363 0.000000
0.110395 0.613363 0.000000
0.151280 0.613363 0.000000
0.207307 0.613363 0.000000
0.249261 0.613363 0.000000
0.299707 0.613363 0.000000
0.372258 0.613363 0.000000
0.468078 0.613363 0.000000
0.593760 0.613363 0.000000
0.712588 0.613363 0.000000
0.813660 0.613363 0.000000
0.883137 0.613363 0.000000
0.931221 0.613363 0.000000
0.965416 0.613363 0.000000
0.985616 0.613363 0.000000
1.000000 0.613363 0.000000
0.000000 0.720565 0.000000
0.000000 0.720565 0.000000
0.110395 0.720565 0.000000
0.151280 0.720565 0.000000
0.207307 0.720565 0.000000
0.249261 0.720565 0.000000
0.299707 0.720565 0.000000
0.372258 0.720565 0.000000
0.468078 0.720565 0.000000
0.593760 0.720565 0.000000
0.712588 0.720565 0.000000
0.813660 0.720565 0.000000
0.883137 0.720565 0.000000
0.931221 0.720565 0.000000
0.965416 0.720565 0.000000
0.985616 0.720565 0.000000
1.000000 0.720565 0.000000
0.000000 0.815939 0.000000
0.000000 0.815939 0.000000
0.110395 0.815939 0.000000
0.151280 0.815939 0.000000
0.207307 0.815939 0.000000
0.249261 0.815939 0.000000
0.299707 0.815939 0.000000
0.372258 0.815939 0.000000
0.468078 0.815939 0.000000
0.593760 0.815939 0.000000
0.712588 0.815939 0.000000
0.813660 0.815939 0.000000
0.883137 0.815939 0.000000
0.931221 0.815939 0.000000
0.965416 0.815939 0.000000
0.985616 0.815939 0.000000
1.000000 0.815939 0.000000
0.000000 0.885203 0.000000
0.000000 0.885203 0.000000
0.110395 0.885203 0.000000
0.151280 0.885203 0.000000
0.207307 0.885203 0.000000
0.249261 0.885203 0.000000
0.299707 0.885203 0.000000
0.372258 0.885203 0.000000
0.468078 0.885203 0.000000
0.593760 0.885203 0.000000
0.712588 0.885203 0.000000
0.813660 0.885203 0.000000
0.883137 0.885203 0.000000
0.931221 0.885203 0.000000
0.965416 0.885203 0.000000
0.985616 0.885203 0.000000
1.000000 0.885203 0.000000
0.000000 0.938949 0.000000
0.000000 0.938949 0.000000
0.110395 0.938949 0.000000
0.151280 0.938949 0.000000
0.207307 0.938949 0.000000
0.249261 0.938949 0.000000
0.299707 0.938949 0.000000
0.372258 0.938949 0.000000
0.468078 0.938949 0.000000
0.593760 0.938949 0.000000
0.712588 0.938949 0.000000
0.813660 0.938949 0.000000
0.883137 0.938949 0.000000
0.931221 0.938949 0.000000
0.965416 0.938949 0.000000
0.985616 0.938949 0.000000
1.000000 0.938949 0.000000
0.000000 0.972820 0.000000
0.000000 0.972820 0.000000
0.110395 0.972820 0.000000
0.151280 0.972820 0.000000
0.207307 0.972820 0.000000
0.249261 0.972820 0.000000
0.299707 0.972820 0.000000
0.372258 0.972820 0.000000
0.468078 0.972820 0.000000
0.593760 0.972820 0.000000
0.712588 0.972820 0.000000
0.813660 0.972820 0.000000
0.883137 0.972820 0.000000
0.931221 0.972820 0.000000
0.965416 0.972820 0.000000
0.985616 0.972820 0.000000
1.000000 0.972820 0.000000
0.000000 0.989235 0.000000
0.000000 0.989235 0.000000
0.110395 0.989235 0.000000
0.151280 0.989235 0.000000
0.207307 0.989235 0.000000
0.249261 0.989235 0.000000
0.299707 0.989235 0.000000
0.372258 0.989235 0.000000
0.468078 0.989235 0.000000
0.593760 0.989235 0.000000
0.712588 0.989235 0.000000
0.813660 0.989235 0.000000
0.883137 0.989235 0.000000
0.931221 0.989235 0.000000
0.965416 0.989235 0.000000
0.985616 0.989235 0.000000
1.000000 0.989235 0.000000
0.000000 1.000000 0.000000
0.000000 1.000000 0.000000
0.110395 1.000000 0.000000
0.151280 1.000000 0.000000
0.207307 1.000000 0.000000
0.249261 1.000000 0.000000
0.299707 1.000000 0.000000
0.372258 1.000000 0.000000
0.468078 1.000000 0.000000
0.593760 1.000000 0.000000
0.712588 1.000000 0.000000
0.813660 1.000000 0.000000
0.883137 1.000000 0.000000
0.931221 1.000000 0.000000
0.965416 1.000000 0.000000
0.985616 1.000000 0.000000
1.000000 1.000000 0.000000
0.000000 0.000000 0.080560
0.000000 0.000000 0.080560
0.110395 0.000000 0.080560
0.151280 0.000000 0.080560
0.207307 0.000000 0.080560
0.249261 0.000000 0.080560
0.299707 0.000000 0.080560
0.372258 0.000000 0.080560
0.468078 0.000000 0.080560
0.593760 0.000000 0.080560
0.712588 0.000000 0.080560
0.813660 0.000000 0.080560
0.883137 0.000000 0.080560
0.931221 0.000000 0.080560
0.965416 0.000000 0.080560
0.985616 0.000000 0.080560
1.000000 0.000000 0.080560
0.000000 0.000000 0.080560
0.000000 0.000000 0.080560
0.110395 0.000000 0.080560
0.151280 0.000000 0.080560
0.207307 0.000000 0.080560
0.249261 0.000000 0.080560
0.299707 0.000000 0.080560
0.372258 0.000000 0.080560
0.468078 0.000000 0.080560
0.593760 0.000000 0.080560
0.712588 0.000000 0.080560
0.813660 0.000000 0.080560
0.883137 0.000000 0.080560
0.931221 0.000000 0.080560
0.965416 0.000000 0.080560
0.985616 0.000000 0.080560
1.000000 0.000000 0.080560
0.000000 0.110395 0.080560
0.000000 0.110395 0.080560
0.110395 0.110395 0.080560
0.151280 0.110395 0.080560
0.207307 0.110395 0.080560
0.249261 0.110395 0.080560
0.299707 0.110395 0.080560
0.372258 0.110395 0.080560
0.468078 0.110395 0.080560
0.593760 0.110395 0.080560
0.712588 0.110395 0.080560
0.813660 0.110395 0.080560
0.883137 0.110395 0.080560
0.931221 0.110395 0.080560
0.965416 0.110395 0.080560
0.985616 0.110395 0.080560
1.000000 0.110395 0.080560
0.000000 0.167429 0.080560
0.000000 0.167429 0.080560
0.110395 0.167429 0.080560
0.151280 0.167429 0.080560
0.207307 0.167429 0.080560
0.249261 0.167429 0.080560
0.299707 0.167429 0.080560
0.372258 0.167429 0.080560
0.468078 0.167429 0.080560
0.593760 0.167429 0.080560
0.712588 0.167429 0.080560
0.813660 0.167429 0.080560
0.883137 0.167429 0.080560
0.931221 0.167429 0.080560
0.965416 0.167429 0.080560
0.985616 0.167429 0.080560
1.000000 0.167429 0.080560
0.000000 0.229437 0.080560
0.000000 0.229437 0.080560
0.110395 0.229437 0.080560
0.151280 0.229437 0.080560
0.207307 0.229437 0.080560
0.249261 0.229437 0.080560
0.299707 0.229437 0.080560
0.372258 0.229437 0.080560
0.468078 0.229437 0.080560
0.593760 0.229437 0.080560
0.712588 0.229437 0.080560
0.813660 0.229437 0.080560
0.883137 0.229437 0.080560
0.931221 0.229437 0.080560
0.965416 0.229437 0.080560
0.985616 0.229437 0.080560
1.000000 0.229437 0.080560
0.000000 0.275870 0.080560
0.000000 0.275870 0.080560
0.110395 0.275870 0.080560
0.151280 0.275870 0.080560
0.207307 0.275870 0.080560
0.249261 0.275870 0.080560
0.299707 0.275870 0.080560
0.372258 0.275870 0.080560
0.468078 0.275870 0.080560
0.593760 0.275870 0.080560
0.712588 0.275870 0.080560
0.813660 0.275870 0.080560
0.883137 0.275870 0.080560
0.931221 0.275870 0.080560
0.965416 0.275870 0.080560
0.985616 0.275870 0.080560
1.000000 0.275870 0.080560
0.000000 0.335031 0.080560
0.000000 0.335031 0.080560
0.110395 0.335031 0.080560
0.151280 0.335031 0.080560
0.207307 0.335031 0.080560
0.249261 0.335031 0.080560
0.299707 0.335031 0.080560
0.372258 0.335031 0.080560
0.468078 0.335031 0.080560
0.593760 0.335031 0.080560
0.712588 0.335031 0.080560
0.813660 0.335031 0.080560
0.883137 0.335031 0.080560
0.931221 0.335031 0.080560
0.965416 0.335031 0.080560
0.985616 0.335031 0.080560
1.000000 0.335031 0.080560
0.000000 0.405478 0.080560
0.000000 0.405478 0.080560
0.110395 0.405478 0.080560
0.151280 0.405478 0.080560
0.207307 0.405478 0.080560
0.249261 0.405478 0.080560
0.299707 0.405478 0.080560
0.372258 0.405478 0.080560
0.468078 0.405478 0.080560
0.593760 0.405478 0.080560
0.712588 0.405478 0.080560
0.813660 0.405478 0.080560
0.883137 0.405478 0.080560
0.931221 0.405478 0.080560
0.965416 0.405478 0.080560
0.985616 0.405478 0.080560
1.000000 0.405478 0.080560
0.000000 0.502052 0.080560
0.000000 0.502052 0.080560
0.110395 0.502052 0.080560
0.151280 0.502052 0.080560
0.207307 0.502052 0.080560
0.249261 0.502052 0.080560
0.299707 0.502052 0.080560
0.372258 0.502052 0.080560
0.468078 0.502052 0.080560
0.593760 0.502052 0.080560
0.712588 0.502052 0.080560
0.813660 0.502052 0.080560
0.883137 0.502052 0.080560
0.931221 0.502052 0.080560
0.965416 0.502052 0.080560
0.985616 0.502052 0.080560
1.000000 0.502052 0.080560
0.000000 0.613363 0.080560
0.000000 0.613363 0.080560
0.110395 0.613363 0.080560
0.151280 0.613363 0.080560
0.207307 0.613363 0.080560
0.249261 0.613363 0.080560
0.299707 0.613363 0.080560
0.372258 0.613363 0.080560
0.468078 0.613363 0.080560
0.593760 0.613363 0.080560
0.712588 0.613363 0.080560
0.813660 0.613363 0.080560
0.883137 0.613363 0.080560
0.931221 0.613363 0.080560
0.965416 0.613363 0.080560
0.985616 0.613363 0.080560
1.000000 0.613363 0.080560
0.000000 0.720565 0.080560
0.000000 0.720565 0.080560
0.110395 0.720565 0.080560
0.151280 0.720565 0.080560
0.207307 0.720565 0.080560
0.249261 0.720565 0.080560
0.299707 0.720565 0.080560
0.372258 0.720565 0.080560
0.468078 0.720565 0.080560
0.593760 0.720565 0.080560
0.712588 0.720565 0.080560
0.813660 0.720565 0.080560
0.883137 0.720565 0.080560
0.931221 0.720565 0.080560
0.965416 0.720565 0.080560
0.985616 0.720565 0.080560
1.000000 0.720565 0.080560
0.000000 0.815939 0.080560
0.000000 0.815939 0.080560
0.110395 0.815939 0.080560
0.151280 0.815939 0.080560
0.207307 0.815939 0.080560
0.249261 0.815939 0.080560
0.299707 0.815939 0.080560
0.372258 0.815939 0.080560
0.468078 0.815939 0.080560
0.593760 0.815939 0.080560
0.712588 0.815939 0.080560
0.813660 0.815939 0.080560
0.883137 0.815939 0.080560
0.931221 0.815939 0.080560
0.965416 0.815939 0.080560
0.985616 0.815939 0.080560
1.000000 0.815939 0.080560
0.000000 0.885203 0.080560
0.000000 0.885203 0.080560
0.110395 0.885203 0.080560
0.151280 0.885203 0.080560
0.207307 0.885203 0.080560
0.249261 0.885203 0.080560
0.299707 0.885203 0.080560
0.372258 0.885203 0.080560
0.468078 0.885203 0.080560
0.593760 0.885203 0.080560
0.712588 0.885203 0.080560
0.813660 0.885203 0.080560
0.883137 0.885203 0.080560
0.931221 0.885203 0.080560
0.965416 0.885203 0.080560
0.985616 0.885203 0.080560
1.000000 0.885203 0.080560
0.000000 0.938949 0.080560
0.000000 0.938949 0.080560
0.110395 0.938949 0.080560
0.151280 0.938949 0.080560
0.207307 0.938949 0.080560
0.249261 0.938949 0.080560
0.299707 0.938949 0.080560
0.372258 0.938949 0.080560
0.468078 0.938949 0.080560
0.593760 0.938949 0.080560
0.712588 0.938949 0.080560
0.813660 0.938949 0.080560
0.883137 0.938949 0.080560
0.931221 0.938949 0.080560
0.965416 0.938949 0.080560
0.985616 0.938949 0.080560
1.000000 0.938949 0.080560
0.000000 0.972820 0.080560
0.000000 0.972820 0.080560
0.110395 0.972820 0.080560
0.151280 0.972820 0.080560
0.207307 0.972820 0.080560
0.249261 0.972820 0.080560
0.299707 0.972820 0.080560
0.372258 0.972820 0.080560
0.468078 0.972820 0.080560
0.593760 0.972820 0.080560
0.712588 0.972820 0.080560
0.813660 0.972820 0.080560
0.883137 0.972820 0.080560
0.931221 0.972820 0.080560
0.965416 0.972820 0.080560
0.985616 0.972820 0.080560
1.000000 0.972820 0.080560
0.000000 0.989235 0.080560
0.000000 0.989235 0.080560
0.110395 0.989235 0.080560
0.151280 0.989235 0.080560
0.207307 0.989235 0.080560
0.249261 0.989235 0.080560
0.299707 0.989235 0.080560
0.372258 0.989235 0.080560
0.468078 0.989235 0.080560
0.593760 0.989235 0.080560
0.712588 0.989235 0.080560
0.813660 0.989235 0.080560
0.883137 0.989235 0.080560
0.931221 0.989235 0.080560
0.965416 0.989235 0.080560
0.985616 0.989235 0.080560
1.000000 0.989235 0.080560
0.000000 1.000000 0.080560
0.000000 1.000000 0.080560
0.110395 1.000000 0.080560
0.151280 1.000000 0.080560
0.207307 1.000000 0.080560
0.249261 1.000000 0.080560
0.299707 1.000000 0.080560
0.372258 1.000000 0.080560
0.468078 1.000000 0.080560
0.593760 1.000000 0.080560
0.712588 1.000000 0.080560
0.813660 1.000000 0.080560
0.883137 1.000000 0.080560
0.931221 1.000000 0.080560
0.965416 1.000000 0.080560
0.985616 1.000000 0.080560
1.000000 1.000000 0.080560
0.000000 0.000000 0.151280
0.000000 0.000000 0.151280
0.110395 0.000000 0.151280
0.151280 0.000000 0.151280
0.207307 0.000000 0.151280
0.249261 0.000000 0.151280
0.299707 0.000000 0.151280
0.372258 0.000000 0.151280
0.468078 0.000000 0.151280
0.593760 0.000000 0.151280
0.712588 0.000000 0.151280
0.813660 0.000000 0.151280
0.883137 0.000000 0.151280
0.931221 0.000000 0.151280
0.965416 0.000000 0.151280
0.985616 0.000000 0.151280
1.000000 0.000000 0.151280
0.000000 0.000000 0.151280
