Luts/curve_bump.cube
TITLE "Exported LUT"
LUT_3D_SIZE 5
DOMAIN_MIN 0.0 0.0 0.0
DOMAIN_MAX 1.0 1.0 1.0
0.000000 0.000000 0.000000
0.207307 0.000000 0.000000
0.468078 0.000000 0.000000
0.883137 0.000000 0.000000
1.000000 0.000000 0.000000
0.000000 0.229437 0.000000
0.207307 0.229437 0.000000
0.468078 0.229437 0.000000
0.883137 0.229437 0.000000
1.000000 0.229437 0.000000
0.000000 0.502052 0.000000
0.207307 0.502052 0.000000
0.468078 0.502052 0.000000
0.883137 0.502052 0.000000
1.000000 0.502052 0.000000
0.000000 0.885203 0.000000
0.207307 0.885203 0.000000
0.468078 0.885203 0.000000
0.883137 0.885203 0.000000
1.000000 0.885203 0.000000
0.000000 1.000000 0.000000
0.207307 1.000000 0.000000
0.468078 1.000000 0.000000
0.883137 1.000000 0.000000
1.000000 1.000000 0.000000
0.000000 0.000000 0.195098
0.207307 0.000000 0.195098
0.468078 0.000000 0.195098
0.883137 0.000000 0.195098
1.000000 0.000000 0.195098
0.000000 0.229437 0.195098
0.207307 0.229437 0.195098
0.468078 0.229437 0.195098
0.883137 0.229437 0.195098
1.000000 0.229437 0.195098
0.000000 0.502052 0.195098
0.207307 0.502052 0.195098
0.468078 0.502052 0.195098
0.883137 0.502052 0.195098
1.000000 0.502052 0.195098
0.000000 0.885203 0.195098
0.207307 0.885203 0.195098
0.468078 0.885203 0.195098
0.883137 0.885203 0.195098
1.000000 0.885203 0.195098
0.000000 1.000000 0.195098
0.207307 1.000000 0.195098
0.468078 1.000000 0.195098
0.883137 1.000000 0.195098
1.000000 1.000000 0.195098
0.000000 0.000000 0.440513
0.207307 0.000000 0.440513
0.468078 0.000000 0.440513
0.883137 0.000000 0.440513
1.000000 0.000000 0.440513
0.000000 0.229437 0.440513
0.207307 0.229437 0.440513
0.468078 0.229437 0.440513
0.883137 0.229437 0.440513
1.000000 0.229437 0.440513
0.000000 0.502052 0.440513
0.207307 0.502052 0.440513
0.468078 0.502052 0.440513
0.883137 0.502052 0.440513
1.000000 0.502052 0.440513
0.000000 0.885203 0.440513
0.207307 0.885203 0.440513
0.468078 0.885203 0.440513
0.883137 0.885203 0.440513
1.000000 0.885203 0.440513
0.000000 1.000000 0.440513
0.207307 1.000000 0.440513
0.468078 1.000000 0.440513
0.883137 1.000000 0.440513
1.000000 1.000000 0.440513
0.000000 0.000000 0.864273
0.207307 0.000000 0.864273
0.468078 0.000000 0.864273
0.883137 0.000000 0.864273
1.000000 0.000000 0.864273
0.000000 0.229437 0.864273
0.207307 0.229437 0.864273
0.468078 0.229437 0.864273
0.883137 0.229437 0.864273
1.000000 0.229437 0.864273
0.000000 0.502052 0.864273
0.207307 0.502052 0.864273
0.468078 0.502052 0.864273
0.883137 0.502052 0.864273
1.000000 0.502052 0.864273
0.000000 0.885203 0.864273
0.207307 0.885203 0.864273
0.468078 0.885203 0.864273
0.883137 0.885203 0.864273
1.000000 0.885203 0.864273
0.000000 1.000000 0.864273
0.207307 1.000000 0.864273
0.468078 1.000000 0.864273
0.883137 1.000000 0.864273
1.000000 1.000000 0.864273
0.000000 0.000000 1.000000
0.207307 0.000000 1.000000
0.468078 0.000000 1.000000
0.883137 0.000000 1.000000
1.000000 0.000000 1.000000
0.000000 0.229437 1.000000
0.207307 0.229437 1.000000
0.468078 0.229437 1.000000
0.883137 0.229437 1.000000
1.000000 0.229437 1.000000
0.000000 0.502052 1.000000
0.207307 0.502052 1.000000
0.468078 0.502052 1.000000
0.883137 0.502052 1.000000
1.000000 0.502052 1.000000
0.000000 0.885203 1.000000
0.207307 0.885203 1.000000
0.468078 0.885203 1.000000
0.883137 0.885203 1.000000
1.000000 0.885203 1.000000
0.000000 1.000000 1.000000
0.207307 1.000000 1.000000
0.468078 1.000000 1.000000
0.883137 1.000000 1.000000
1.000000 1.000000 1.000000
