Luts/curve_bump.cube
TITLE "Exported LUT"
LUT_3D_SIZE 9
DOMAIN_MIN 0.0 0.0 0.0
DOMAIN_MAX 1.0 1.0 1.0
0.000000 0.000000 0.000000
0.110395 0.000000 0.000000
0.207307 0.000000 0.000000
0.299707 0.000000 0.000000
0.468078 0.000000 0.000000
0.712588 0.000000 0.000000
0.883137 0.000000 0.000000
0.965416 0.000000 0.000000
1.000000 0.000000 0.000000
0.000000 0.110395 0.000000
0.110395 0.110395 0.000000
0.207307 0.110395 0.000000
0.299707 0.110395 0.000000
0.468078 0.110395 0.000000
0.712588 0.110395 0.000000
0.883137 0.110395 0.000000
0.965416 0.110395 0.000000
1.000000 0.110395 0.000000
0.000000 0.229437 0.000000
0.110395 0.229437 0.000000
0.207307 0.229437 0.000000
0.299707 0.229437 0.000000
0.468078 0.229437 0.000000
0.712588 0.229437 0.000000
0.883137 0.229437 0.000000
0.965416 0.229437 0.000000
1.000000 0.229437 0.000000
0.000000 0.335031 0.000000
0.110395 0.335031 0.000000
0.207307 0.335031 0.000000
0.299707 0.335031 0.000000
0.468078 0.335031 0.000000
0.712588 0.335031 0.000000
0.883137 0.335031 0.000000
0.965416 0.335031 0.000000
1.000000 0.335031 0.000000
0.000000 0.502052 0.000000
0.110395 0.502052 0.000000
0.207307 0.502052 0.000000
0.299707 0.502052 0.000000
0.468078 0.502052 0.000000
0.712588 0.502052 0.000000
0.883137 0.502052 0.000000
0.965416 0.502052 0.000000
1.000000 0.502052 0.000000
0.000000 0.720565 0.000000
0.110395 0.720565 0.000000
0.207307 0.720565 0.000000
0.299707 0.720565 0.000000
0.468078 0.720565 0.000000
0.712588 0.720565 0.000000
0.883137 0.720565 0.000000
0.965416 0.720565 0.000000
1.000000 0.720565 0.000000
0.000000 0.885203 0.000000
0.110395 0.885203 0.000000
0.207307 0.885203 0.000000
0.299707 0.885203 0.000000
0.468078 0.885203 0.000000
0.712588 0.885203 0.000000
0.883137 0.885203 0.000000
0.965416 0.885203 0.000000
1.000000 0.885203 0.000000
0.000000 0.972820 0.000000
0.110395 0.972820 0.000000
0.207307 0.972820 0.000000
0.299707 0.972820 0.000000
0.468078 0.972820 0.000000
0.712588 0.972820 0.000000
0.883137 0.972820 0.000000
0.965416 0.972820 0.000000
1.000000 0.972820 0.000000
0.000000 1.000000 0.000000
0.110395 1.000000 0.000000
0.207307 1.000000 0.000000
0.299707 1.000000 0.000000
0.468078 1.000000 0.000000
0.712588 1.000000 0.000000
0.883137 1.000000 0.000000
0.965416 1.000000 0.000000
1.000000 1.000000 0.000000
0.000000 0.000000 0.080560
0.110395 0.000000 0.080560
0.207307 0.000000 0.080560
0.299707 0.000000 0.080560
0.468078 0.000000 0.080560
0.712588 0.000000 0.080560
0.883137 0.000000 0.080560
0.965416 0.000000 0.080560
1.000000 0.000000 0.080560
0.000000 0.110395 0.080560
0.110395 0.110395 0.080560
0.207307 0.110395 0.080560
0.299707 0.110395 0.080560
0.468078 0.110395 0.080560
0.712588 0.110395 0.080560
0.883137 0.110395 0.080560
0.965416 0.110395 0.080560
1.000000 0.110395 0.080560
0.000000 0.229437 0.080560
0.110395 0.229437 0.080560
0.207307 0.229437 0.080560
0.299707 0.229437 0.080560
0.468078 0.229437 0.080560
0.712588 0.229437 0.080560
0.883137 0.229437 0.080560
0.965416 0.229437 0.080560
1.000000 0.229437 0.080560
0.000000 0.335031 0.080560
0.110395 0.335031 0.080560
0.207307 0.335031 0.080560
0.299707 0.335031 0.080560
0.468078 0.335031 0.080560
0.712588 0.335031 0.080560
0.883137 0.335031 0.080560
0.965416 0.335031 0.080560
1.000000 0.335031 0.080560
0.000000 0.502052 0.080560
0.110395 0.502052 0.080560
0.207307 0.502052 0.080560
0.299707 0.502052 0.080560
0.468078 0.502052 0.080560
0.712588 0.502052 0.080560
0.883137 0.502052 0.080560
0.965416 0.502052 0.080560
1.000000 0.502052 0.080560
0.000000 0.720565 0.080560
0.110395 0.720565 0.080560
0.207307 0.720565 0.080560
0.299707 0.720565 0.080560
0.468078 0.720565 0.080560
0.712588 0.720565 0.080560
0.883137 0.720565 0.080560
0.965416 0.720565 0.080560
1.000000 0.720565 0.080560
0.000000 0.885203 0.080560
0.110395 0.885203 0.080560
0.207307 0.885203 0.080560
0.299707 0.885203 0.080560
0.468078 0.885203 0.080560
0.712588 0.885203 0.080560
0.883137 0.885203 0.080560
0.965416 0.885203 0.080560
1.000000 0.885203 0.080560
0.000000 0.972820 0.080560
0.110395 0.972820 0.080560
0.207307 0.972820 0.080560
0.299707 0.972820 0.080560
0.468078 0.972820 0.080560
0.712588 0.972820 0.080560
0.883137 0.972820 0.080560
0.965416 0.972820 0.080560
1.000000 0.972820 0.080560
0.000000 1.000000 0.080560
0.110395 1.000000 0.080560
0.207307 1.000000 0.080560
0.299707 1.000000 0.080560
0.468078 1.000000 0.080560
0.712588 1.000000 0.080560
0.883137 1.000000 0.080560
0.965416 1.000000 0.080560
1.000000 1.000000 0.080560
0.000000 0.000000 0.195098
0.110395 0.000000 0.195098
0.207307 0.000000 0.195098
0.299707 0.000000 0.195098
0.468078 0.000000 0.195098
0.712588 0.000000 0.195098
0.883137 0.000000 0.195098
0.965416 0.000000 0.195098
1.000000 0.000000 0.195098
0.000000 0.110395 0.195098
0.110395 0.110395 0.195098
0.207307 0.110395 0.195098
0.299707 0.110395 0.195098
0.468078 0.110395 0.195098
0.712588 0.110395 0.195098
0.883137 0.110395 0.195098
0.965416 0.110395 0.195098
1.000000 0.110395 0.195098
0.000000 0.229437 0.195098
0.110395 0.229437 0.195098
0.207307 0.229437 0.195098
0.299707 0.229437 0.195098
0.468078 0.229437 0.195098
0.712588 0.229437 0.195098
0.883137 0.229437 0.195098
0.965416 0.229437 0.195098
1.000000 0.229437 0.195098
0.000000 0.335031 0.195098
0.110395 0.335031 0.195098
0.207307 0.335031 0.195098
0.299707 0.335031 0.195098
0.468078 0.335031 0.195098
0.712588 0.335031 0.195098
0.883137 0.335031 0.195098
0.965416 0.335031 0.195098
1.000000 0.335031 0.195098
0.000000 0.502052 0.195098
0.110395 0.502052 0.195098
0.207307 0.502052 0.195098
0.299707 0.502052 0.195098
0.468078 0.502052 0.195098
0.712588 0.502052 0.195098
0.883137 0.502052 0.195098
0.965416 0.502052 0.195098
1.000000 0.502052 0.195098
0.000000 0.720565 0.195098
0.110395 0.720565 0.195098
0.207307 0.720565 0.195098
0.299707 0.720565 0.195098
0.468078 0.720565 0.195098
0.712588 0.720565 0.195098
0.883137 0.720565 0.195098
0.965416 0.720565 0.195098
1.000000 0.720565 0.195098
0.000000 0.885203 0.195098
0.110395 0.885203 0.195098
0.207307 0.885203 0.195098
0.299707 0.885203 0.195098
0.468078 0.885203 0.195098
0.712588 0.885203 0.195098
0.883137 0.885203 0.195098
0.965416 0.885203 0.195098
1.000000 0.885203 0.195098
0.000000 0.972820 0.195098
0.110395 0.972820 0.195098
0.207307 0.972820 0.195098
0.299707 0.972820 0.195098
0.468078 0.972820 0.195098
0.712588 0.972820 0.195098
0.883137 0.972820 0.195098
0.965416 0.972820 0.195098
1.000000 0.972820 0.195098
0.000000 1.000000 0.195098
0.110395 1.000000 0.195098
0.207307 1.000000 0.195098
0.299707 1.000000 0.195098
0.468078 1.000000 0.195098
0.712588 1.000000 0.195098
0.883137 1.000000 0.195098
0.965416 1.000000 0.195098
1.000000 1.000000 0.195098
0.000000 0.000000 0.284083
0.110395 0.000000 0.284083
0.207307 0.000000 0.284083
0.299707 0.000000 0.284083
0.468078 0.000000 0.284083
0.712588 0.000000 0.284083
0.883137 0.000000 0.284083
0.965416 0.000000 0.284083
1.000000 0.000000 0.284083
0.000000 0.110395 0.284083
0.110395 0.110395 0.284083
0.207307 0.110395 0.284083
0.299707 0.110395 0.284083
0.468078 0.110395 0.284083
0.712588 0.110395 0.284083
0.883137 0.110395 0.284083
0.965416 0.110395 0.284083
1.000000 0.110395 0.284083
0.000000 0.229437 0.284083
0.110395 0.229437 0.284083
0.207307 0.229437 0.284083
0.299707 0.229437 0.284083
0.468078 0.229437 0.284083
0.712588 0.229437 0.284083
0.883137 0.229437 0.284083
0.965416 0.229437 0.284083
1.000000 0.229437 0.284083
0.000000 0.335031 0.284083
0.110395 0.335031 0.284083
0.207307 0.335031 0.284083
0.299707 0.335031 0.284083
0.468078 0.335031 0.284083
0.712588 0.335031 0.284083
0.883137 0.335031 0.284083
0.965416 0.335031 0.284083
1.000000 0.335031 0.284083
0.000000 0.502052 0.284083
0.110395 0.502052 0.284083
0.207307 0.502052 0.284083
0.299707 0.502052 0.284083
0.468078 0.502052 0.284083
0.712588 0.502052 0.284083
0.883137 0.502052 0.284083
0.965416 0.502052 0.284083
1.000000 0.502052 0.284083
0.000000 0.720565 0.284083
0.110395 0.720565 0.284083
0.207307 0.720565 0.284083
0.299707 0.720565 0.284083
0.468078 0.720565 0.284083
0.712588 0.720565 0.284083
0.883137 0.720565 0.284083
0.965416 0.720565 0.284083
1.000000 0.720565 0.284083
0.000000 0.885203 0.284083
0.110395 0.885203 0.284083
0.207307 0.885203 0.284083
0.299707 0.885203 0.284083
0.468078 0.885203 0.284083
0.712588 0.885203 0.284083
0.883137 0.885203 0.284083
0.965416 0.885203 0.284083
1.000000 0.885203 0.284083
0.000000 0.972820 0.284083
0.110395 0.972820 0.284083
0.207307 0.972820 0.284083
0.299707 0.972820 0.284083
0.468078 0.972820 0.284083
0.712588 0.972820 0.284083
0.883137 0.972820 0.284083
0.965416 0.972820 0.284083
1.000000 0.972820 0.284083
0.000000 1.000000 0.284083
0.110395 1.000000 0.284083
0.207307 1.000000 0.284083
0.299707 1.000000 0.284083
0.468078 1.000000 0.284083
0.712588 1.000000 0.284083
0.883137 1.000000 0.284083
0.965416 1.000000 0.284083
1.000000 1.000000 0.284083
0.000000 0.000000 0.440513
0.110395 0.000000 0.440513
0.207307 0.000000 0.440513
0.299707 0.000000 0.440513
0.468078 0.000000 0.440513
0.712588 0.000000 0.440513
0.883137 0.000000 0.440513
0.965416 0.000000 0.440513
1.000000 0.000000 0.440513
0.000000 0.110395 0.440513
0.110395 0.110395 0.440513
0.207307 0.110395 0.440513
0.299707 0.110395 0.440513
0.468078 0.110395 0.440513
0.712588 0.110395 0.440513
0.883137 0.110395 0.440513
0.965416 0.110395 0.440513
1.000000 0.110395 0.440513
0.000000 0.229437 0.440513
0.110395 0.229437 0.440513
0.207307 0.229437 0.440513
0.299707 0.229437 0.440513
0.468078 0.229437 0.440513
0.712588 0.229437 0.440513
0.883137 0.229437 0.440513
0.965416 0.229437 0.440513
1.000000 0.229437 0.440513
0.000000 0.335031 0.440513
0.110395 0.335031 0.440513
0.207307 0.335031 0.440513
0.299707 0.335031 0.440513
0.468078 0.335031 0.440513
0.712588 0.335031 0.440513
0.883137 0.335031 0.440513
0.965416 0.335031 0.440513
1.000000 0.335031 0.440513
0.000000 0.502052 0.440513
0.110395 0.502052 0.440513
0.207307 0.502052 0.440513
0.299707 0.502052 0.440513
0.468078 0.502052 0.440513
0.712588 0.502052 0.440513
0.883137 0.502052 0.440513
0.965416 0.502052 0.440513
1.000000 0.502052 0.440513
0.000000 0.720565 0.440513
0.110395 0.720565 0.440513
0.207307 0.720565 0.440513
0.299707 0.720565 0.440513
0.468078 0.720565 0.440513
0.712588 0.720565 0.440513
0.883137 0.720565 0.440513
0.965416 0.720565 0.440513
1.000000 0.720565 0.440513
0.000000 0.885203 0.440513
0.110395 0.885203 0.440513
0.207307 0.885203 0.440513
0.299707 0.885203 0.440513
0.468078 0.885203 0.440513
0.712588 0.885203 0.440513
0.883137 0.885203 0.440513
0.965416 0.885203 0.440513
1.000000 0.885203 0.440513
0.000000 0.972820 0.440513
0.110395 0.972820 0.440513
0.207307 0.972820 0.440513
0.299707 0.972820 0.440513
0.468078 0.972820 0.440513
0.712588 0.972820 0.440513
0.883137 0.972820 0.440513
0.965416 0.972820 0.440513
1.000000 0.972820 0.440513
0.000000 1.000000 0.440513
0.110395 1.000000 0.440513
0.207307 1.000000 0.440513
0.299707 1.000000 0.440513
0.468078 1.000000 0.440513
0.712588 1.000000 0.440513
0.883137 1.000000 0.440513
0.965416 1.000000 0.440513
1.000000 1.000000 0.440513
0.000000 0.000000 0.687988
0.110395 0.000000 0.687988
0.207307 0.000000 0.687988
0.299707 0.000000 0.687988
0.468078 0.000000 0.687988
0.712588 0.000000 0.687988
0.883137 0.000000 0.687988
0.965416 0.000000 0.687988
1.000000 0.000000 0.687988
0.000000 0.110395 0.687988
0.110395 0.110395 0.687988
0.207307 0.110395 0.687988
0.299707 0.110395 0.687988
0.468078 0.110395 0.687988
0.712588 0.110395 0.687988
0.883137 0.110395 0.687988
0.965416 0.110395 0.687988
1.000000 0.110395 0.687988
0.000000 0.229437 0.687988
0.110395 0.229437 0.687988
0.207307 0.229437 0.687988
0.299707 0.229437 0.687988
0.468078 0.229437 0.687988
0.712588 0.229437 0.687988
0.883137 0.229437 0.687988
0.965416 0.229437 0.687988
1.000000 0.229437 0.687988
0.000000 0.335031 0.687988
0.110395 0.335031 0.687988
0.207307 0.335031 0.687988
0.299707 0.335031 0.687988
0.468078 0.335031 0.687988
0.712588 0.335031 0.687988
0.883137 0.335031 0.687988
0.965416 0.335031 0.687988
1.000000 0.335031 0.687988
0.000000 0.502052 0.687988
0.110395 0.502052 0.687988
0.207307 0.502052 0.687988
0.299707 0.502052 0.687988
0.468078 0.502052 0.687988
0.712588 0.502052 0.687988
0.883137 0.502052 0.687988
0.965416 0.502052 0.687988
1.000000 0.502052 0.687988
0.000000 0.720565 0.687988
0.110395 0.720565 0.687988
0.207307 0.720565 0.687988
0.299707 0.720565 0.687988
0.468078 0.720565 0.687988
0.712588 0.720565 0.687988
0.883137 0.720565 0.687988
0.965416 0.720565 0.687988
1.000000 0.720565 0.687988
0.000000 0.885203 0.687988
0.110395 0.885203 0.687988
0.207307 0.885203 0.687988
0.299707 0.885203 0.687988
0.468078 0.885203 0.687988
0.712588 0.885203 0.687988
0.883137 0.885203 0.687988
0.965416 0.885203 0.687988
1.000000 0.885203 0.687988
0.000000 0.972820 0.687988
0.110395 0.972820 0.687988
0.207307 0.972820 0.687988
0.299707 0.972820 0.687988
0.468078 0.972820 0.687988
0.712588 0.972820 0.687988
0.883137 0.972820 0.687988
0.965416 0.972820 0.687988
1.000000 0.972820 0.687988
0.000000 1.000000 0.687988
0.110395 1.000000 0.687988
0.207307 1.000000 0.687988
0.299707 1.000000 0.687988
0.468078 1.000000 0.687988
0.712588 1.000000 0.687988
0.883137 1.000000 0.687988
0.965416 1.000000 0.687988
1.000000 1.000000 0.687988
0.000000 0.000000 0.864273
0.110395 0.000000 0.864273
0.207307 0.000000 0.864273
0.299707 0.000000 0.864273
0.468078 0.000000 0.864273
0.712588 0.000000 0.864273
0.883137 0.000000 0.864273
0.965416 0.000000 0.864273
1.000000 0.000000 0.864273
0.000000 0.110395 0.864273
0.110395 0.110395 0.864273
0.207307 0.110395 0.864273
0.299707 0.110395 0.864273
0.468078 0.110395 0.864273
0.712588 0.110395 0.864273
0.883137 0.110395 0.864273
0.965416 0.110395 0.864273
1.000000 0.110395 0.864273
0.000000 0.229437 0.864273
0.110395 0.229437 0.864273
0.207307 0.229437 0.864273
0.299707 0.229437 0.864273
0.468078 0.229437 0.864273
0.712588 0.229437 0.864273
0.883137 0.229437 0.864273
0.965416 0.229437 0.864273
1.000000 0.229437 0.864273
0.000000 0.335031 0.864273
0.110395 0.335031 0.864273
0.207307 0.335031 0.864273
0.299707 0.335031 0.864273
0.468078 0.335031 0.864273
0.712588 0.335031 0.864273
0.883137 0.335031 0.864273
0.965416 0.335031 0.864273
1.000000 0.335031 0.864273
0.000000 0.502052 0.864273
0.110395 0.502052 0.864273
0.207307 0.502052 0.864273
0.299707 0.502052 0.864273
0.468078 0.502052 0.864273
0.712588 0.502052 0.864273
0.883137 0.502052 0.864273
0.965416 0.502052 0.864273
1.000000 0.502052 0.864273
0.000000 0.720565 0.864273
0.110395 0.720565 0.864273
0.207307 0.720565 0.864273
0.299707 0.720565 0.864273
0.468078 0.720565 0.864273
0.712588 0.720565 0.864273
0.883137 0.720565 0.864273
0.965416 0.720565 0.864273
1.000000 0.720565 0.864273
0.000000 0.885203 0.864273
0.110395 0.885203 0.864273
0.207307 0.885203 0.864273
0.299707 0.885203 0.864273
0.468078 0.885203 0.864273
0.712588 0.885203 0.864273
0.883137 0.885203 0.864273
0.965416 0.885203 0.864273
1.000000 0.885203 0.864273
0.000000 0.972820 0.864273
0.110395 0.972820 0.864273
0.207307 0.972820 0.864273
0.299707 0.972820 0.864273
0.468078 0.972820 0.864273
0.712588 0.972820 0.864273
0.883137 0.972820 0.864273
0.965416 0.972820 0.864273
1.000000 0.972820 0.864273
0.000000 1.000000 0.864273
0.110395 1.000000 0.864273
0.207307 1.000000 0.864273
0.299707 1.000000 0.864273
0.468078 1.000000 0.864273
0.712588 1.000000 0.864273
0.883137 1.000000 0.864273
0.965416 1.000000 0.864273
1.000000 1.000000 0.864273
0.000000 0.000000 0.974660
0.110395 0.000000 0.974660
0.207307 0.000000 0.974660
0.299707 0.000000 0.974660
0.468078 0.000000 0.974660
0.712588 0.000000 0.974660
0.883137 0.000000 0.974660
0.965416 0.000000 0.974660
1.000000 0.000000 0.974660
0.000000 0.110395 0.974660
0.110395 0.110395 0.974660
0.207307 0.110395 0.974660
0.299707 0.110395 0.974660
0.468078 0.110395 0.974660
0.712588 0.110395 0.974660
0.883137 0.110395 0.974660
0.965416 0.110395 0.974660
1.000000 0.110395 0.974660
0.000000 0.229437 0.974660
0.110395 0.229437 0.974660
0.207307 0.229437 0.974660
0.299707 0.229437 0.974660
0.468078 0.229437 0.974660
0.712588 0.229437 0.974660
0.883137 0.229437 0.974660
0.965416 0.229437 0.974660
1.000000 0.229437 0.974660
0.000000 0.335031 0.974660
0.110395 0.335031 0.974660
0.207307 0.335031 0.974660
0.299707 0.335031 0.974660
0.468078 0.335031 0.974660
0.712588 0.335031 0.974660
0.883137 0.335031 0.974660
0.965416 0.335031 0.974660
1.000000 0.335031 0.974660
0.000000 0.502052 0.974660
0.110395 0.502052 0.974660
0.207307 0.502052 0.974660
0.299707 0.502052 0.974660
0.468078 0.502052 0.974660
0.712588 0.502052 0.974660
0.883137 0.502052 0.974660
0.965416 0.502052 0.974660
1.000000 0.502052 0.974660
0.000000 0.720565 0.974660
0.110395 0.720565 0.974660
0.207307 0.720565 0.974660
0.299707 0.720565 0.974660
0.468078 0.720565 0.974660
0.712588 0.720565 0.974660
0.883137 0.720565 0.974660
0.965416 0.720565 0.974660
1.000000 0.720565 0.974660
0.000000 0.885203 0.974660
0.110395 0.885203 0.974660
0.207307 0.885203 0.974660
0.299707 0.885203 0.974660
0.468078 0.885203 0.974660
0.712588 0.885203 0.974660
0.883137 0.885203 0.974660
0.965416 0.885203 0.974660
1.000000 0.885203 0.974660
0.000000 0.972820 0.974660
0.110395 0.972820 0.974660
0.207307 0.972820 0.974660
0.299707 0.972820 0.974660
0.468078 0.972820 0.974660
0.712588 0.972820 0.974660
0.883137 0.972820 0.974660
0.965416 0.972820 0.974660
1.000000 0.972820 0.974660
0.000000 1.000000 0.974660
0.110395 1.000000 0.974660
0.207307 1.000000 0.974660
0.299707 1.000000 0.974660
0.468078 1.000000 0.974660
0.712588 1.000000 0.974660
0.883137 1.000000 0.974660
0.965416 1.000000 0.974660
1.000000 1.000000 0.974660
0.000000 0.000000 1.000000
0.110395 0.000000 1.000000
0.207307 0.000000 1.000000
0.299707 0.000000 1.000000
0.468078 0.000000 1.000000
0.712588 0.000000 1.000000
0.883137 0.000000 1.000000
0.965416 0.000000 1.000000
1.000000 0.000000 1.000000
0.000000 0.110395 1.000000
0.110395 0.110395 1.000000
0.207307 0.110395 1.000000
0.299707 0.110395 1.000000
0.468078 0.110395 1.000000
0.712588 0.110395 1.000000
0.883137 0.110395 1.000000
0.965416 0.110395 1.000000
1.000000 0.110395 1.000000
0.000000 0.229437 1.000000
0.110395 0.229437 1.000000
0.207307 0.229437 1.000000
0.299707 0.229437 1.000000
0.468078 0.229437 1.000000
0.712588 0.229437 1.000000
0.883137 0.229437 1.000000
0.965416 0.229437 1.000000
1.000000 0.229437 1.000000
0.000000 0.335031 1.000000
0.110395 0.335031 1.000000
0.207307 0.335031 1.000000
0.299707 0.335031 1.000000
0.468078 0.335031 1.000000
0.712588 0.335031 1.000000
0.883137 0.335031 1.000000
0.965416 0.335031 1.000000
1.000000 0.335031 1.000000
0.000000 0.502052 1.000000
0.110395 0.502052 1.000000
0.207307 0.502052 1.000000
0.299707 0.502052 1.000000
0.468078 0.502052 1.000000
0.712588 0.502052 1.000000
0.883137 0.502052 1.000000
0.965416 0.502052 1.000000
1.000000 0.502052 1.000000
0.000000 0.720565 1.000000
0.110395 0.720565 1.000000
0.207307 0.720565 1.000000
0.299707 0.720565 1.000000
0.468078 0.720565 1.000000
0.712588 0.720565 1.000000
0.883137 0.720565 1.000000
0.965416 0.720565 1.000000
1.000000 0.720565 1.000000
0.000000 0.885203 1.000000
0.110395 0.885203 1.000000
0.207307 0.885203 1.000000
0.299707 0.885203 1.000000
0.468078 0.885203 1.000000
0.712588 0.885203 1.000000
0.883137 0.885203 1.000000
0.965416 0.885203 1.000000
1.000000 0.885203 1.000000
0.000000 0.972820 1.000000
0.110395 0.972820 1.000000
0.207307 0.972820 1.000000
0.299707 0.972820 1.000000
0.468078 0.972820 1.000000
0.712588 0.972820 1.000000
0.883137 0.972820 1.000000
0.965416 0.972820 1.000000
1.000000 0.972820 1.000000
0.000000 1.000000 1.000000
0.110395 1.000000 1.000000
0.207307 1.000000 1.000000
0.299707 1.000000 1.000000
0.468078 1.000000 1.000000
0.712588 1.000000 1.000000
0.883137 1.000000 1.000000
0.965416 1.000000 1.000000
1.000000 1.000000 1.000000
