luts/life_is_a_lemon.cube
TITLE "Exported LUT"
LUT_3D_SIZE 5
DOMAIN_MIN 0.0 0.0 0.0
DOMAIN_MAX 1.0 1.0 1.0
0.110395 0.239595 0.000000
0.258497 0.195098 0.000000
0.425921 0.151280 0.000000
0.590417 0.110395 0.000000
0.753971 0.000000 0.000000
0.218708 0.328330 0.000000
0.347973 0.292020 0.000000
0.514104 0.249261 0.000000
0.679549 0.207307 0.000000
0.842715 0.151280 0.000000
0.328330 0.445250 0.000000
0.459110 0.410703 0.000000
0.622888 0.366368 0.000000
0.788065 0.321460 0.000000
0.952293 0.275870 0.000000
0.435714 0.562808 0.000000
0.569861 0.525825 0.000000
0.733630 0.481157 0.000000
0.897481 0.440513 0.000000
1.000000 0.394777 0.000000
0.544693 0.676709 0.000000
0.679549 0.641432 0.000000
0.842715 0.597081 0.000000
1.000000 0.552025 0.000000
1.000000 0.510125 0.000000
0.110395 0.410703 0.080560
0.258497 0.372258 0.080560
0.425921 0.328330 0.080560
0.590417 0.284083 0.080560
0.753971 0.239595 0.080560
0.218708 0.502052 0.080560
0.347973 0.468078 0.080560
0.514104 0.425921 0.080560
0.679549 0.378039 0.080560
0.842715 0.335031 0.080560
0.328330 0.619733 0.080560
0.459110 0.583662 0.080560
0.622888 0.537242 0.080560
0.788065 0.493821 0.080560
0.952293 0.449927 0.080560
0.435714 0.733630 0.080560
0.569861 0.699050 0.080560
0.733630 0.653445 0.080560
0.897481 0.610149 0.080560
1.000000 0.566348 0.080560
0.544693 0.849251 0.080560
0.679549 0.813660 0.080560
0.842715 0.768805 0.080560
1.000000 0.725825 0.080560
1.000000 0.679549 0.080560
0.110395 0.622888 0.239595
0.258497 0.587051 0.239595
0.425921 0.544693 0.239595
0.590417 0.497957 0.239595
0.753971 0.454547 0.239595
0.218708 0.715259 0.239595
0.347973 0.679549 0.239595
0.514104 0.635323 0.239595
0.679549 0.593760 0.239595
0.842715 0.548374 0.239595
0.328330 0.831684 0.239595
0.459110 0.795144 0.239595
0.622888 0.751465 0.239595
0.788065 0.707210 0.239595
0.952293 0.662284 0.239595
0.435714 0.946602 0.239595
0.569861 0.909561 0.239595
0.733630 0.866393 0.239595
0.897481 0.822732 0.239595
1.000000 0.778507 0.239595
0.544693 1.000000 0.239595
0.679549 1.000000 0.239595
0.842715 0.980156 0.239595
1.000000 0.937025 0.239595
1.000000 0.893411 0.239595
0.110395 0.836118 0.372258
0.258497 0.799821 0.372258
0.425921 0.756468 0.372258
0.590417 0.712588 0.372258
0.753971 0.668099 0.372258
0.218708 0.929277 0.372258
0.347973 0.893411 0.372258
0.514104 0.849251 0.372258
0.679549 0.804466 0.372258
0.842715 0.761432 0.372258
0.328330 1.000000 0.372258
0.459110 1.000000 0.372258
0.622888 0.963554 0.372258
0.788065 0.919483 0.372258
0.952293 0.874813 0.372258
0.435714 1.000000 0.372258
0.569861 1.000000 0.372258
0.733630 1.000000 0.372258
0.897481 1.000000 0.372258
1.000000 0.991039 0.372258
0.544693 1.000000 0.372258
0.679549 1.000000 0.372258
0.842715 1.000000 0.372258
1.000000 1.000000 0.372258
1.000000 1.000000 0.372258
0.110395 1.000000 0.506108
0.258497 1.000000 0.506108
0.425921 0.969126 0.506108
0.590417 0.925374 0.506108
0.753971 0.881065 0.506108
0.218708 1.000000 0.506108
0.347973 1.000000 0.506108
0.514104 1.000000 0.506108
0.679549 1.000000 0.506108
0.842715 0.972820 0.506108
0.328330 1.000000 0.506108
0.459110 1.000000 0.506108
0.622888 1.000000 0.506108
0.788065 1.000000 0.506108
0.952293 1.000000 0.506108
0.435714 1.000000 0.506108
0.569861 1.000000 0.506108
0.733630 1.000000 0.506108
0.897481 1.000000 0.506108
1.000000 1.000000 0.506108
0.544693 1.000000 0.506108
0.679549 1.000000 0.506108
0.842715 1.000000 0.506108
1.000000 1.000000 0.506108
1.000000 1.000000 0.506108
