luts/life_is_a_lemon.cube
TITLE "Exported LUT"
LUT_3D_SIZE 17
DOMAIN_MIN 0.0 0.0 0.0
DOMAIN_MAX 1.0 1.0 1.0
0.110395 0.239595 0.000000
0.132737 0.239595 0.000000
0.181896 0.218708 0.000000
0.218708 0.207307 0.000000
0.258497 0.195098 0.000000
0.299707 0.195098 0.000000
0.341576 0.181896 0.000000
0.383716 0.167429 0.000000
0.425921 0.151280 0.000000
0.468078 0.151280 0.000000
0.510125 0.132737 0.000000
0.548374 0.110395 0.000000
0.590417 0.110395 0.000000
0.632242 0.080560 0.000000
0.673853 0.080560 0.000000
0.712588 0.080560 0.000000
0.753971 0.000000 0.000000
0.132737 0.239595 0.000000
0.132737 0.239595 0.000000
0.181896 0.229437 0.000000
0.218708 0.218708 0.000000
0.267353 0.207307 0.000000
0.307164 0.195098 0.000000
0.347973 0.181896 0.000000
0.389294 0.167429 0.000000
0.430851 0.167429 0.000000
0.472486 0.151280 0.000000
0.514104 0.132737 0.000000
0.555647 0.132737 0.000000
0.597081 0.110395 0.000000
0.638386 0.110395 0.000000
0.679549 0.080560 0.000000
0.720565 0.080560 0.000000
0.761432 0.080560 0.000000
0.151280 0.275870 0.000000
0.167429 0.267353 0.000000
0.207307 0.258497 0.000000
0.249261 0.249261 0.000000
0.292020 0.239595 0.000000
0.335031 0.229437 0.000000
0.378039 0.218708 0.000000
0.415850 0.207307 0.000000
0.459110 0.195098 0.000000
0.502052 0.181896 0.000000
0.540983 0.167429 0.000000
0.583662 0.151280 0.000000
0.622888 0.151280 0.000000
0.665199 0.132737 0.000000
0.707210 0.110395 0.000000
0.746421 0.110395 0.000000
0.788065 0.080560 0.000000
0.181896 0.299707 0.000000
0.195098 0.299707 0.000000
0.239595 0.292020 0.000000
0.275870 0.275870 0.000000
0.321460 0.267353 0.000000
0.360361 0.258497 0.000000
0.405478 0.239595 0.000000
0.445250 0.229437 0.000000
0.485422 0.218708 0.000000
0.529664 0.207307 0.000000
0.569861 0.195098 0.000000
0.610149 0.181896 0.000000
0.650467 0.181896 0.000000
0.693545 0.167429 0.000000
0.733630 0.151280 0.000000
0.773674 0.132737 0.000000
0.815939 0.132737 0.000000
0.218708 0.328330 0.000000
0.218708 0.328330 0.000000
0.267353 0.314409 0.000000
0.307164 0.307164 0.000000
0.347973 0.292020 0.000000
0.389294 0.284083 0.000000
0.430851 0.275870 0.000000
0.472486 0.258497 0.000000
0.514104 0.249261 0.000000
0.555647 0.239595 0.000000
0.597081 0.229437 0.000000
0.638386 0.218708 0.000000
0.679549 0.207307 0.000000
0.720565 0.195098 0.000000
0.761432 0.181896 0.000000
0.802148 0.167429 0.000000
0.842715 0.151280 0.000000
0.239595 0.360361 0.000000
0.249261 0.360361 0.000000
0.292020 0.347973 0.000000
0.335031 0.335031 0.000000
0.378039 0.321460 0.000000
0.415850 0.314409 0.000000
0.459110 0.299707 0.000000
0.502052 0.292020 0.000000
0.540983 0.275870 0.000000
0.583662 0.267353 0.000000
0.622888 0.258497 0.000000
0.665199 0.249261 0.000000
0.707210 0.239595 0.000000
0.746421 0.218708 0.000000
0.788065 0.207307 0.000000
0.829457 0.195098 0.000000
0.870615 0.195098 0.000000
0.267353 0.389294 0.000000
0.275870 0.389294 0.000000
0.321460 0.378039 0.000000
0.360361 0.366368 0.000000
0.405478 0.354232 0.000000
0.445250 0.341576 0.000000
0.485422 0.328330 0.000000
0.529664 0.321460 0.000000
0.569861 0.307164 0.000000
0.610149 0.299707 0.000000
0.650467 0.284083 0.000000
0.693545 0.275870 0.000000
0.733630 0.267353 0.000000
0.773674 0.249261 0.000000
0.815939 0.239595 0.000000
0.855728 0.229437 0.000000
0.897481 0.218708 0.000000
0.299707 0.415850 0.000000
0.307164 0.415850 0.000000
0.347973 0.405478 0.000000
0.389294 0.394777 0.000000
0.430851 0.383716 0.000000
0.472486 0.372258 0.000000
0.514104 0.360361 0.000000
0.555647 0.347973 0.000000
0.597081 0.335031 0.000000
0.638386 0.328330 0.000000
0.679549 0.314409 0.000000
0.720565 0.307164 0.000000
0.761432 0.292020 0.000000
0.802148 0.284083 0.000000
0.842715 0.267353 0.000000
0.883137 0.258497 0.000000
0.925374 0.249261 0.000000
0.328330 0.445250 0.000000
0.335031 0.445250 0.000000
0.378039 0.435714 0.000000
0.415850 0.420922 0.000000
0.459110 0.410703 0.000000
0.502052 0.400170 0.000000
0.540983 0.389294 0.000000
0.583662 0.378039 0.000000
0.622888 0.366368 0.000000
0.665199 0.354232 0.000000
0.707210 0.347973 0.000000
0.746421 0.335031 0.000000
0.788065 0.321460 0.000000
0.829457 0.314409 0.000000
0.870615 0.299707 0.000000
0.911556 0.292020 0.000000
0.952293 0.275870 0.000000
0.354232 0.476845 0.000000
0.360361 0.472486 0.000000
0.405478 0.463620 0.000000
0.445250 0.449927 0.000000
0.485422 0.440513 0.000000
0.529664 0.430851 0.000000
0.569861 0.415850 0.000000
0.610149 0.405478 0.000000
0.650467 0.394777 0.000000
0.693545 0.383716 0.000000
0.733630 0.372258 0.000000
0.773674 0.360361 0.000000
0.815939 0.354232 0.000000
0.855728 0.341576 0.000000
0.897481 0.328330 0.000000
0.938949 0.321460 0.000000
0.980156 0.307164 0.000000
0.383716 0.506108 0.000000
0.389294 0.502052 0.000000
0.430851 0.489643 0.000000
0.472486 0.481157 0.000000
0.514104 0.468078 0.000000
0.555647 0.459110 0.000000
0.597081 0.445250 0.000000
0.638386 0.435714 0.000000
0.679549 0.425921 0.000000
0.720565 0.415850 0.000000
0.761432 0.400170 0.000000
0.802148 0.389294 0.000000
0.842715 0.378039 0.000000
0.883137 0.372258 0.000000
0.925374 0.360361 0.000000
0.965416 0.347973 0.000000
1.000000 0.335031 0.000000
0.410703 0.533469 0.000000
0.415850 0.529664 0.000000
0.459110 0.521953 0.000000
0.502052 0.510125 0.000000
0.540983 0.497957 0.000000
0.583662 0.485422 0.000000
0.622888 0.476845 0.000000
0.665199 0.463620 0.000000
0.707210 0.454547 0.000000
0.746421 0.440513 0.000000
0.788065 0.430851 0.000000
0.829457 0.420922 0.000000
0.870615 0.410703 0.000000
0.911556 0.400170 0.000000
0.952293 0.389294 0.000000
0.992839 0.378039 0.000000
1.000000 0.366368 0.000000
0.435714 0.562808 0.000000
0.445250 0.559241 0.000000
0.485422 0.548374 0.000000
0.529664 0.537242 0.000000
0.569861 0.525825 0.000000
0.610149 0.514104 0.000000
0.650467 0.506108 0.000000
0.693545 0.493821 0.000000
0.733630 0.481157 0.000000
0.773674 0.472486 0.000000
0.815939 0.459110 0.000000
0.855728 0.449927 0.000000
0.897481 0.440513 0.000000
0.938949 0.425921 0.000000
0.980156 0.415850 0.000000
1.000000 0.405478 0.000000
1.000000 0.394777 0.000000
0.463620 0.590417 0.000000
0.472486 0.587051 0.000000
0.514104 0.576811 0.000000
0.555647 0.566348 0.000000
0.597081 0.555647 0.000000
0.638386 0.544693 0.000000
0.679549 0.533469 0.000000
0.720565 0.521953 0.000000
0.761432 0.510125 0.000000
0.802148 0.502052 0.000000
0.842715 0.489643 0.000000
0.883137 0.476845 0.000000
0.925374 0.468078 0.000000
0.965416 0.454547 0.000000
1.000000 0.445250 0.000000
1.000000 0.435714 0.000000
1.000000 0.420922 0.000000
0.489643 0.619733 0.000000
0.502052 0.616558 0.000000
0.540983 0.606913 0.000000
0.583662 0.593760 0.000000
0.622888 0.583662 0.000000
0.665199 0.573349 0.000000
0.707210 0.562808 0.000000
0.746421 0.552025 0.000000
0.788065 0.540983 0.000000
0.829457 0.529664 0.000000
0.870615 0.518046 0.000000
0.911556 0.506108 0.000000
0.952293 0.497957 0.000000
0.992839 0.485422 0.000000
1.000000 0.472486 0.000000
1.000000 0.463620 0.000000
1.000000 0.449927 0.000000
0.518046 0.647472 0.000000
0.529664 0.647472 0.000000
0.569861 0.635323 0.000000
0.610149 0.622888 0.000000
0.650467 0.613363 0.000000
0.693545 0.603657 0.000000
0.733630 0.590417 0.000000
0.773674 0.580248 0.000000
0.815939 0.569861 0.000000
0.855728 0.559241 0.000000
0.897481 0.548374 0.000000
0.938949 0.537242 0.000000
0.980156 0.525825 0.000000
1.000000 0.514104 0.000000
1.000000 0.502052 0.000000
1.000000 0.489643 0.000000
1.000000 0.481157 0.000000
0.544693 0.676709 0.000000
0.555647 0.673853 0.000000
0.597081 0.665199 0.000000
0.638386 0.653445 0.000000
0.679549 0.641432 0.000000
0.720565 0.632242 0.000000
0.761432 0.619733 0.000000
0.802148 0.610149 0.000000
0.842715 0.597081 0.000000
0.883137 0.587051 0.000000
0.925374 0.576811 0.000000
0.965416 0.566348 0.000000
1.000000 0.552025 0.000000
1.000000 0.540983 0.000000
1.000000 0.529664 0.000000
1.000000 0.521953 0.000000
1.000000 0.510125 0.000000
0.110395 0.249261 0.000000
0.132737 0.249261 0.000000
0.181896 0.239595 0.000000
0.218708 0.229437 0.000000
0.258497 0.218708 0.000000
0.299707 0.207307 0.000000
0.341576 0.195098 0.000000
0.383716 0.181896 0.000000
0.425921 0.167429 0.000000
0.468078 0.151280 0.000000
0.510125 0.151280 0.000000
0.548374 0.132737 0.000000
0.590417 0.110395 0.000000
0.632242 0.110395 0.000000
0.673853 0.080560 0.000000
0.712588 0.080560 0.000000
0.753971 0.080560 0.000000
0.132737 0.258497 0.000000
0.132737 0.249261 0.000000
0.181896 0.239595 0.000000
0.218708 0.229437 0.000000
0.267353 0.218708 0.000000
0.307164 0.207307 0.000000
0.347973 0.195098 0.000000
0.389294 0.181896 0.000000
0.430851 0.167429 0.000000
0.472486 0.167429 0.000000
0.514104 0.151280 0.000000
0.555647 0.132737 0.000000
0.597081 0.132737 0.000000
0.638386 0.110395 0.000000
0.679549 0.110395 0.000000
0.720565 0.080560 0.000000
0.761432 0.080560 0.000000
0.151280 0.284083 0.000000
0.167429 0.284083 0.000000
0.207307 0.267353 0.000000
0.249261 0.258497 0.000000
0.292020 0.249261 0.000000
0.335031 0.239595 0.000000
0.378039 0.229437 0.000000
0.415850 0.218708 0.000000
0.459110 0.207307 0.000000
0.502052 0.195098 0.000000
0.540983 0.181896 0.000000
0.583662 0.167429 0.000000
0.622888 0.151280 0.000000
0.665199 0.151280 0.000000
0.707210 0.132737 0.000000
0.746421 0.110395 0.000000
0.788065 0.110395 0.000000
0.181896 0.314409 0.000000
0.195098 0.314409 0.000000
0.239595 0.299707 0.000000
0.275870 0.292020 0.000000
0.321460 0.275870 0.000000
0.360361 0.267353 0.000000
0.405478 0.258497 0.000000
0.445250 0.249261 0.000000
0.485422 0.229437 0.000000
0.529664 0.218708 0.000000
0.569861 0.207307 0.000000
0.610149 0.195098 0.000000
0.650467 0.181896 0.000000
0.693545 0.181896 0.000000
0.733630 0.167429 0.000000
0.773674 0.151280 0.000000
0.815939 0.132737 0.000000
0.218708 0.341576 0.000000
0.218708 0.341576 0.000000
0.267353 0.328330 0.000000
0.307164 0.321460 0.000000
0.347973 0.307164 0.000000
0.389294 0.299707 0.000000
0.430851 0.284083 0.000000
0.472486 0.275870 0.000000
0.514104 0.258497 0.000000
0.555647 0.249261 0.000000
0.597081 0.239595 0.000000
0.638386 0.229437 0.000000
0.679549 0.218708 0.000000
0.720565 0.207307 0.000000
0.761432 0.195098 0.000000
0.802148 0.181896 0.000000
0.842715 0.167429 0.000000
0.239595 0.372258 0.000000
0.249261 0.372258 0.000000
0.292020 0.360361 0.000000
0.335031 0.347973 0.000000
0.378039 0.335031 0.000000
0.415850 0.328330 0.000000
0.459110 0.314409 0.000000
0.502052 0.299707 0.000000
0.540983 0.292020 0.000000
0.583662 0.284083 0.000000
0.622888 0.267353 0.000000
0.665199 0.258497 0.000000
0.707210 0.249261 0.000000
0.746421 0.239595 0.000000
0.788065 0.229437 0.000000
0.829457 0.207307 0.000000
0.870615 0.207307 0.000000
0.267353 0.400170 0.000000
0.275870 0.400170 0.000000
0.321460 0.389294 0.000000
0.360361 0.378039 0.000000
0.405478 0.366368 0.000000
0.445250 0.354232 0.000000
0.485422 0.341576 0.000000
0.529664 0.335031 0.000000
0.569861 0.321460 0.000000
0.610149 0.307164 0.000000
0.650467 0.299707 0.000000
0.693545 0.284083 0.000000
0.733630 0.275870 0.000000
0.773674 0.267353 0.000000
0.815939 0.249261 0.000000
0.855728 0.239595 0.000000
0.897481 0.229437 0.000000
0.299707 0.430851 0.000000
0.307164 0.425921 0.000000
0.347973 0.415850 0.000000
0.389294 0.405478 0.000000
0.430851 0.394777 0.000000
0.472486 0.383716 0.000000
0.514104 0.372258 0.000000
0.555647 0.360361 0.000000
0.597081 0.347973 0.000000
0.638386 0.341576 0.000000
0.679549 0.328330 0.000000
0.720565 0.314409 0.000000
0.761432 0.307164 0.000000
0.802148 0.292020 0.000000
0.842715 0.284083 0.000000
0.883137 0.275870 0.000000
0.925374 0.258497 0.000000
0.328330 0.459110 0.000000
0.335031 0.454547 0.000000
0.378039 0.445250 0.000000
0.415850 0.435714 0.000000
0.459110 0.420922 0.000000
0.502052 0.410703 0.000000
0.540983 0.400170 0.000000
0.583662 0.389294 0.000000
0.622888 0.378039 0.000000
0.665199 0.366368 0.000000
0.707210 0.354232 0.000000
0.746421 0.347973 0.000000
0.788065 0.335031 0.000000
0.829457 0.321460 0.000000
0.870615 0.314409 0.000000
0.911556 0.299707 0.000000
0.952293 0.292020 0.000000
0.354232 0.489643 0.000000
0.360361 0.485422 0.000000
0.405478 0.472486 0.000000
0.445250 0.463620 0.000000
0.485422 0.449927 0.000000
0.529664 0.440513 0.000000
0.569861 0.430851 0.000000
0.610149 0.420922 0.000000
0.650467 0.405478 0.000000
0.693545 0.394777 0.000000
0.733630 0.383716 0.000000
0.773674 0.372258 0.000000
0.815939 0.360361 0.000000
0.855728 0.354232 0.000000
0.897481 0.341576 0.000000
0.938949 0.328330 0.000000
0.980156 0.321460 0.000000
0.383716 0.518046 0.000000
0.389294 0.514104 0.000000
0.430851 0.502052 0.000000
0.472486 0.493821 0.000000
0.514104 0.481157 0.000000
0.555647 0.468078 0.000000
0.597081 0.459110 0.000000
0.638386 0.449927 0.000000
0.679549 0.435714 0.000000
0.720565 0.425921 0.000000
0.761432 0.415850 0.000000
0.802148 0.405478 0.000000
0.842715 0.394777 0.000000
0.883137 0.383716 0.000000
0.925374 0.372258 0.000000
0.965416 0.360361 0.000000
1.000000 0.347973 0.000000
0.410703 0.544693 0.000000
0.415850 0.540983 0.000000
0.459110 0.533469 0.000000
0.502052 0.521953 0.000000
0.540983 0.510125 0.000000
0.583662 0.497957 0.000000
0.622888 0.485422 0.000000
0.665199 0.476845 0.000000
0.707210 0.463620 0.000000
0.746421 0.454547 0.000000
0.788065 0.445250 0.000000
0.829457 0.430851 0.000000
0.870615 0.420922 0.000000
0.911556 0.410703 0.000000
0.952293 0.400170 0.000000
0.992839 0.389294 0.000000
1.000000 0.378039 0.000000
0.435714 0.573349 0.000000
0.445250 0.569861 0.000000
0.485422 0.559241 0.000000
0.529664 0.548374 0.000000
0.569861 0.537242 0.000000
0.610149 0.525825 0.000000
0.650467 0.518046 0.000000
0.693545 0.506108 0.000000
0.733630 0.493821 0.000000
0.773674 0.481157 0.000000
0.815939 0.472486 0.000000
0.855728 0.459110 0.000000
0.897481 0.449927 0.000000
0.938949 0.440513 0.000000
0.980156 0.425921 0.000000
1.000000 0.415850 0.000000
1.000000 0.405478 0.000000
0.463620 0.603657 0.000000
0.472486 0.600380 0.000000
0.514104 0.590417 0.000000
0.555647 0.576811 0.000000
0.597081 0.566348 0.000000
0.638386 0.555647 0.000000
0.679549 0.544693 0.000000
0.720565 0.533469 0.000000
0.761432 0.521953 0.000000
0.802148 0.510125 0.000000
0.842715 0.502052 0.000000
0.883137 0.489643 0.000000
0.925374 0.476845 0.000000
0.965416 0.468078 0.000000
1.000000 0.454547 0.000000
1.000000 0.445250 0.000000
1.000000 0.435714 0.000000
0.489643 0.632242 0.000000
0.502052 0.629142 0.000000
0.540983 0.616558 0.000000
0.583662 0.606913 0.000000
0.622888 0.597081 0.000000
0.665199 0.583662 0.000000
0.707210 0.573349 0.000000
0.746421 0.562808 0.000000
0.788065 0.552025 0.000000
0.829457 0.540983 0.000000
0.870615 0.529664 0.000000
0.911556 0.518046 0.000000
0.952293 0.506108 0.000000
0.992839 0.497957 0.000000
1.000000 0.485422 0.000000
1.000000 0.472486 0.000000
1.000000 0.463620 0.000000
0.518046 0.659353 0.000000
0.529664 0.656407 0.000000
0.569861 0.647472 0.000000
0.610149 0.635323 0.000000
0.650467 0.626025 0.000000
0.693545 0.613363 0.000000
0.733630 0.603657 0.000000
0.773674 0.590417 0.000000
0.815939 0.580248 0.000000
0.855728 0.569861 0.000000
0.897481 0.559241 0.000000
0.938949 0.548374 0.000000
0.980156 0.537242 0.000000
1.000000 0.525825 0.000000
1.000000 0.514104 0.000000
1.000000 0.502052 0.000000
1.000000 0.493821 0.000000
0.544693 0.687988 0.000000
0.555647 0.685189 0.000000
0.597081 0.676709 0.000000
0.638386 0.665199 0.000000
0.679549 0.653445 0.000000
0.720565 0.641432 0.000000
0.761432 0.632242 0.000000
0.802148 0.619733 0.000000
0.842715 0.610149 0.000000
0.883137 0.597081 0.000000
0.925374 0.587051 0.000000
0.965416 0.576811 0.000000
1.000000 0.566348 0.000000
1.000000 0.555647 0.000000
1.000000 0.544693 0.000000
1.000000 0.533469 0.000000
1.000000 0.521953 0.000000
0.110395 0.299707 0.000000
0.132737 0.299707 0.000000
0.181896 0.292020 0.000000
0.218708 0.275870 0.000000
0.258497 0.267353 0.000000
0.299707 0.258497 0.000000
0.341576 0.249261 0.000000
0.383716 0.229437 0.000000
0.425921 0.218708 0.000000
0.468078 0.207307 0.000000
0.510125 0.195098 0.000000
0.548374 0.181896 0.000000
0.590417 0.181896 0.000000
0.632242 0.167429 0.000000
0.673853 0.151280 0.000000
0.712588 0.132737 0.000000
0.753971 0.132737 0.000000
0.132737 0.307164 0.000000
0.132737 0.307164 0.000000
0.181896 0.299707 0.000000
0.218708 0.284083 0.000000
0.267353 0.275870 0.000000
0.307164 0.258497 0.000000
0.347973 0.249261 0.000000
0.389294 0.239595 0.000000
0.430851 0.229437 0.000000
0.472486 0.218708 0.000000
0.514104 0.207307 0.000000
0.555647 0.195098 0.000000
0.597081 0.181896 0.000000
0.638386 0.167429 0.000000
0.679549 0.167429 0.000000
0.720565 0.151280 0.000000
0.761432 0.132737 0.000000
0.151280 0.341576 0.000000
0.167429 0.335031 0.000000
0.207307 0.328330 0.000000
0.249261 0.314409 0.000000
0.292020 0.299707 0.000000
0.335031 0.292020 0.000000
0.378039 0.284083 0.000000
0.415850 0.267353 0.000000
0.459110 0.258497 0.000000
0.502052 0.249261 0.000000
0.540983 0.239595 0.000000
0.583662 0.229437 0.000000
0.622888 0.207307 0.000000
0.665199 0.207307 0.000000
0.707210 0.195098 0.000000
0.746421 0.181896 0.000000
0.788065 0.167429 0.000000
0.181896 0.366368 0.000000
0.195098 0.366368 0.000000
0.239595 0.354232 0.000000
0.275870 0.341576 0.000000
0.321460 0.335031 0.000000
0.360361 0.321460 0.000000
0.405478 0.307164 0.000000
0.445250 0.299707 0.000000
0.485422 0.284083 0.000000
0.529664 0.275870 0.000000
0.569861 0.267353 0.000000
0.610149 0.249261 0.000000
0.650467 0.239595 0.000000
0.693545 0.229437 0.000000
0.733630 0.218708 0.000000
0.773674 0.207307 0.000000
0.815939 0.195098 0.000000
0.218708 0.394777 0.000000
0.218708 0.394777 0.000000
0.267353 0.383716 0.000000
0.307164 0.372258 0.000000
0.347973 0.360361 0.000000
0.389294 0.347973 0.000000
0.430851 0.341576 0.000000
0.472486 0.328330 0.000000
0.514104 0.314409 0.000000
0.555647 0.307164 0.000000
0.597081 0.292020 0.000000
0.638386 0.284083 0.000000
0.679549 0.275870 0.000000
0.720565 0.258497 0.000000
0.761432 0.249261 0.000000
0.802148 0.239595 0.000000
0.842715 0.229437 0.000000
0.239595 0.425921 0.000000
0.249261 0.420922 0.000000
0.292020 0.410703 0.000000
0.335031 0.400170 0.000000
0.378039 0.389294 0.000000
0.415850 0.378039 0.000000
0.459110 0.366368 0.000000
0.502052 0.354232 0.000000
0.540983 0.347973 0.000000
0.583662 0.335031 0.000000
0.622888 0.321460 0.000000
0.665199 0.314409 0.000000
0.707210 0.299707 0.000000
0.746421 0.292020 0.000000
0.788065 0.275870 0.000000
0.829457 0.267353 0.000000
0.870615 0.258497 0.000000
0.267353 0.454547 0.000000
0.275870 0.449927 0.000000
0.321460 0.440513 0.000000
0.360361 0.430851 0.000000
0.405478 0.420922 0.000000
0.445250 0.405478 0.000000
0.485422 0.394777 0.000000
0.529664 0.383716 0.000000
0.569861 0.372258 0.000000
0.610149 0.360361 0.000000
0.650467 0.354232 0.000000
0.693545 0.341576 0.000000
0.733630 0.328330 0.000000
0.773674 0.321460 0.000000
0.815939 0.307164 0.000000
0.855728 0.299707 0.000000
0.897481 0.284083 0.000000
0.299707 0.481157 0.000000
0.307164 0.481157 0.000000
0.347973 0.468078 0.000000
0.389294 0.459110 0.000000
0.430851 0.449927 0.000000
0.472486 0.435714 0.000000
0.514104 0.425921 0.000000
0.555647 0.415850 0.000000
0.597081 0.405478 0.000000
0.638386 0.394777 0.000000
0.679549 0.383716 0.000000
0.720565 0.372258 0.000000
0.761432 0.360361 0.000000
0.802148 0.347973 0.000000
0.842715 0.335031 0.000000
0.883137 0.328330 0.000000
0.925374 0.314409 0.000000
0.328330 0.510125 0.000000
0.335031 0.510125 0.000000
0.378039 0.497957 0.000000
0.415850 0.485422 0.000000
0.459110 0.476845 0.000000
0.502052 0.463620 0.000000
0.540983 0.454547 0.000000
0.583662 0.445250 0.000000
0.622888 0.430851 0.000000
0.665199 0.420922 0.000000
0.707210 0.410703 0.000000
0.746421 0.400170 0.000000
0.788065 0.389294 0.000000
0.829457 0.378039 0.000000
0.870615 0.366368 0.000000
0.911556 0.354232 0.000000
0.952293 0.341576 0.000000
0.354232 0.540983 0.000000
0.360361 0.537242 0.000000
0.405478 0.525825 0.000000
0.445250 0.518046 0.000000
0.485422 0.506108 0.000000
0.529664 0.493821 0.000000
0.569861 0.481157 0.000000
0.610149 0.472486 0.000000
0.650467 0.459110 0.000000
0.693545 0.449927 0.000000
0.733630 0.440513 0.000000
0.773674 0.425921 0.000000
0.815939 0.415850 0.000000
0.855728 0.405478 0.000000
0.897481 0.394777 0.000000
0.938949 0.383716 0.000000
0.980156 0.372258 0.000000
0.383716 0.569861 0.000000
0.389294 0.566348 0.000000
0.430851 0.555647 0.000000
0.472486 0.544693 0.000000
0.514104 0.533469 0.000000
0.555647 0.521953 0.000000
0.597081 0.510125 0.000000
0.638386 0.502052 0.000000
0.679549 0.489643 0.000000
0.720565 0.476845 0.000000
0.761432 0.468078 0.000000
0.802148 0.454547 0.000000
0.842715 0.445250 0.000000
0.883137 0.435714 0.000000
0.925374 0.425921 0.000000
0.965416 0.410703 0.000000
1.000000 0.400170 0.000000
0.410703 0.597081 0.000000
0.415850 0.597081 0.000000
0.459110 0.583662 0.000000
0.502052 0.573349 0.000000
0.540983 0.562808 0.000000
0.583662 0.552025 0.000000
0.622888 0.540983 0.000000
0.665199 0.529664 0.000000
0.707210 0.518046 0.000000
0.746421 0.506108 0.000000
0.788065 0.497957 0.000000
0.829457 0.485422 0.000000
0.870615 0.472486 0.000000
0.911556 0.463620 0.000000
0.952293 0.454547 0.000000
0.992839 0.440513 0.000000
1.000000 0.430851 0.000000
0.435714 0.626025 0.000000
0.445250 0.626025 0.000000
0.485422 0.613363 0.000000
0.529664 0.603657 0.000000
0.569861 0.590417 0.000000
0.610149 0.580248 0.000000
0.650467 0.569861 0.000000
0.693545 0.559241 0.000000
0.733630 0.548374 0.000000
0.773674 0.537242 0.000000
0.815939 0.525825 0.000000
0.855728 0.514104 0.000000
0.897481 0.502052 0.000000
0.938949 0.493821 0.000000
0.980156 0.481157 0.000000
1.000000 0.468078 0.000000
1.000000 0.459110 0.000000
0.463620 0.656407 0.000000
0.472486 0.653445 0.000000
0.514104 0.641432 0.000000
0.555647 0.632242 0.000000
0.597081 0.619733 0.000000
0.638386 0.610149 0.000000
0.679549 0.597081 0.000000
0.720565 0.587051 0.000000
0.761432 0.576811 0.000000
0.802148 0.566348 0.000000
0.842715 0.555647 0.000000
0.883137 0.544693 0.000000
0.925374 0.533469 0.000000
0.965416 0.521953 0.000000
1.000000 0.510125 0.000000
1.000000 0.497957 0.000000
1.000000 0.489643 0.000000
0.489643 0.685189 0.000000
0.502052 0.682376 0.000000
0.540983 0.670983 0.000000
0.583662 0.659353 0.000000
0.622888 0.650467 0.000000
0.665199 0.638386 0.000000
0.707210 0.626025 0.000000
0.746421 0.616558 0.000000
0.788065 0.603657 0.000000
0.829457 0.593760 0.000000
0.870615 0.583662 0.000000
0.911556 0.573349 0.000000
0.952293 0.559241 0.000000
0.992839 0.548374 0.000000
1.000000 0.537242 0.000000
1.000000 0.525825 0.000000
1.000000 0.518046 0.000000
0.518046 0.712588 0.000000
0.529664 0.709905 0.000000
0.569861 0.699050 0.000000
0.610149 0.687988 0.000000
0.650467 0.676709 0.000000
0.693545 0.668099 0.000000
0.733630 0.656407 0.000000
0.773674 0.644460 0.000000
0.815939 0.632242 0.000000
0.855728 0.622888 0.000000
0.897481 0.610149 0.000000
0.938949 0.600380 0.000000
0.980156 0.590417 0.000000
1.000000 0.580248 0.000000
1.000000 0.566348 0.000000
1.000000 0.555647 0.000000
1.000000 0.544693 0.000000
0.544693 0.741336 0.000000
0.555647 0.738778 0.000000
0.597081 0.728438 0.000000
0.638386 0.717918 0.000000
0.679549 0.707210 0.000000
0.720565 0.696304 0.000000
0.761432 0.685189 0.000000
0.802148 0.673853 0.000000
0.842715 0.662284 0.000000
0.883137 0.650467 0.000000
0.925374 0.641432 0.000000
0.965416 0.629142 0.000000
1.000000 0.619733 0.000000
1.000000 0.606913 0.000000
1.000000 0.597081 0.000000
1.000000 0.583662 0.000000
1.000000 0.573349 0.000000
0.110395 0.354232 0.000000
0.132737 0.354232 0.000000
0.181896 0.341576 0.000000
0.218708 0.335031 0.000000
0.258497 0.321460 0.000000
0.299707 0.307164 0.000000
0.341576 0.299707 0.000000
0.383716 0.284083 0.000000
0.425921 0.275870 0.000000
0.468078 0.267353 0.000000
0.510125 0.258497 0.000000
0.548374 0.239595 0.000000
0.590417 0.229437 0.000000
0.632242 0.218708 0.000000
0.673853 0.207307 0.000000
0.712588 0.195098 0.000000
0.753971 0.181896 0.000000
0.132737 0.366368 0.000000
