luts/life_is_a_lemon.cube
TITLE "Exported LUT"
LUT_3D_SIZE 9
DOMAIN_MIN 0.0 0.0 0.0
DOMAIN_MAX 1.0 1.0 1.0
0.110395 0.239595 0.000000
0.181896 0.218708 0.000000
0.258497 0.195098 0.000000
0.341576 0.181896 0.000000
0.425921 0.151280 0.000000
0.510125 0.132737 0.000000
0.590417 0.110395 0.000000
0.673853 0.080560 0.000000
0.753971 0.000000 0.000000
0.151280 0.275870 0.000000
0.207307 0.258497 0.000000
0.292020 0.239595 0.000000
0.378039 0.218708 0.000000
0.459110 0.195098 0.000000
0.540983 0.167429 0.000000
0.622888 0.151280 0.000000
0.707210 0.110395 0.000000
0.788065 0.080560 0.000000
0.218708 0.328330 0.000000
0.267353 0.314409 0.000000
0.347973 0.292020 0.000000
0.430851 0.275870 0.000000
0.514104 0.249261 0.000000
0.597081 0.229437 0.000000
0.679549 0.207307 0.000000
0.761432 0.181896 0.000000
0.842715 0.151280 0.000000
0.267353 0.389294 0.000000
0.321460 0.378039 0.000000
0.405478 0.354232 0.000000
0.485422 0.328330 0.000000
0.569861 0.307164 0.000000
0.650467 0.284083 0.000000
0.733630 0.267353 0.000000
0.815939 0.239595 0.000000
0.897481 0.218708 0.000000
0.328330 0.445250 0.000000
0.378039 0.435714 0.000000
0.459110 0.410703 0.000000
0.540983 0.389294 0.000000
0.622888 0.366368 0.000000
0.707210 0.347973 0.000000
0.788065 0.321460 0.000000
0.870615 0.299707 0.000000
0.952293 0.275870 0.000000
0.383716 0.506108 0.000000
0.430851 0.489643 0.000000
0.514104 0.468078 0.000000
0.597081 0.445250 0.000000
0.679549 0.425921 0.000000
0.761432 0.400170 0.000000
0.842715 0.378039 0.000000
0.925374 0.360361 0.000000
1.000000 0.335031 0.000000
0.435714 0.562808 0.000000
0.485422 0.548374 0.000000
0.569861 0.525825 0.000000
0.650467 0.506108 0.000000
0.733630 0.481157 0.000000
0.815939 0.459110 0.000000
0.897481 0.440513 0.000000
0.980156 0.415850 0.000000
1.000000 0.394777 0.000000
0.489643 0.619733 0.000000
0.540983 0.606913 0.000000
0.622888 0.583662 0.000000
0.707210 0.562808 0.000000
0.788065 0.540983 0.000000
0.870615 0.518046 0.000000
0.952293 0.497957 0.000000
1.000000 0.472486 0.000000
1.000000 0.449927 0.000000
0.544693 0.676709 0.000000
0.597081 0.665199 0.000000
0.679549 0.641432 0.000000
0.761432 0.619733 0.000000
0.842715 0.597081 0.000000
0.925374 0.576811 0.000000
1.000000 0.552025 0.000000
1.000000 0.529664 0.000000
1.000000 0.510125 0.000000
0.110395 0.299707 0.000000
0.181896 0.292020 0.000000
0.258497 0.267353 0.000000
0.341576 0.249261 0.000000
0.425921 0.218708 0.000000
0.510125 0.195098 0.000000
0.590417 0.181896 0.000000
0.673853 0.151280 0.000000
0.753971 0.132737 0.000000
0.151280 0.341576 0.000000
0.207307 0.328330 0.000000
0.292020 0.299707 0.000000
0.378039 0.284083 0.000000
0.459110 0.258497 0.000000
0.540983 0.239595 0.000000
0.622888 0.207307 0.000000
0.707210 0.195098 0.000000
0.788065 0.167429 0.000000
0.218708 0.394777 0.000000
0.267353 0.383716 0.000000
0.347973 0.360361 0.000000
0.430851 0.341576 0.000000
0.514104 0.314409 0.000000
0.597081 0.292020 0.000000
0.679549 0.275870 0.000000
0.761432 0.249261 0.000000
0.842715 0.229437 0.000000
0.267353 0.454547 0.000000
0.321460 0.440513 0.000000
0.405478 0.420922 0.000000
0.485422 0.394777 0.000000
0.569861 0.372258 0.000000
0.650467 0.354232 0.000000
0.733630 0.328330 0.000000
0.815939 0.307164 0.000000
0.897481 0.284083 0.000000
0.328330 0.510125 0.000000
0.378039 0.497957 0.000000
0.459110 0.476845 0.000000
0.540983 0.454547 0.000000
0.622888 0.430851 0.000000
0.707210 0.410703 0.000000
0.788065 0.389294 0.000000
0.870615 0.366368 0.000000
0.952293 0.341576 0.000000
0.383716 0.569861 0.000000
0.430851 0.555647 0.000000
0.514104 0.533469 0.000000
0.597081 0.510125 0.000000
0.679549 0.489643 0.000000
0.761432 0.468078 0.000000
0.842715 0.445250 0.000000
0.925374 0.425921 0.000000
1.000000 0.400170 0.000000
0.435714 0.626025 0.000000
0.485422 0.613363 0.000000
0.569861 0.590417 0.000000
0.650467 0.569861 0.000000
0.733630 0.548374 0.000000
0.815939 0.525825 0.000000
0.897481 0.502052 0.000000
0.980156 0.481157 0.000000
1.000000 0.459110 0.000000
0.489643 0.685189 0.000000
0.540983 0.670983 0.000000
0.622888 0.650467 0.000000
0.707210 0.626025 0.000000
0.788065 0.603657 0.000000
0.870615 0.583662 0.000000
0.952293 0.559241 0.000000
1.000000 0.537242 0.000000
1.000000 0.518046 0.000000
0.544693 0.741336 0.000000
0.597081 0.728438 0.000000
0.679549 0.707210 0.000000
0.761432 0.685189 0.000000
0.842715 0.662284 0.000000
0.925374 0.641432 0.000000
1.000000 0.619733 0.000000
1.000000 0.597081 0.000000
1.000000 0.573349 0.000000
0.110395 0.410703 0.080560
0.181896 0.394777 0.080560
0.258497 0.372258 0.080560
0.341576 0.354232 0.080560
0.425921 0.328330 0.080560
0.510125 0.307164 0.080560
0.590417 0.284083 0.080560
0.673853 0.267353 0.080560
0.753971 0.239595 0.080560
0.151280 0.445250 0.080560
0.207307 0.430851 0.080560
0.292020 0.410703 0.080560
0.378039 0.389294 0.080560
0.459110 0.366368 0.080560
0.540983 0.341576 0.080560
0.622888 0.321460 0.080560
0.707210 0.299707 0.080560
0.788065 0.275870 0.080560
0.218708 0.502052 0.080560
0.267353 0.489643 0.080560
0.347973 0.468078 0.080560
0.430851 0.445250 0.080560
0.514104 0.425921 0.080560
0.597081 0.400170 0.080560
0.679549 0.378039 0.080560
0.761432 0.354232 0.080560
0.842715 0.335031 0.080560
0.267353 0.559241 0.080560
0.321460 0.548374 0.080560
0.405478 0.525825 0.080560
0.485422 0.502052 0.080560
0.569861 0.481157 0.080560
0.650467 0.459110 0.080560
0.733630 0.435714 0.080560
0.815939 0.415850 0.080560
0.897481 0.394777 0.080560
0.328330 0.619733 0.080560
0.378039 0.603657 0.080560
0.459110 0.583662 0.080560
0.540983 0.559241 0.080560
0.622888 0.537242 0.080560
0.707210 0.518046 0.080560
0.788065 0.493821 0.080560
0.870615 0.472486 0.080560
0.952293 0.449927 0.080560
0.383716 0.676709 0.080560
0.430851 0.662284 0.080560
0.514104 0.641432 0.080560
0.597081 0.619733 0.080560
0.679549 0.597081 0.080560
0.761432 0.573349 0.080560
0.842715 0.552025 0.080560
0.925374 0.529664 0.080560
1.000000 0.506108 0.080560
0.435714 0.733630 0.080560
0.485422 0.720565 0.080560
0.569861 0.699050 0.080560
0.650467 0.676709 0.080560
0.733630 0.653445 0.080560
0.815939 0.632242 0.080560
0.897481 0.610149 0.080560
0.980156 0.587051 0.080560
1.000000 0.566348 0.080560
0.489643 0.790433 0.080560
0.540983 0.778507 0.080560
0.622888 0.756468 0.080560
0.707210 0.733630 0.080560
0.788065 0.712588 0.080560
0.870615 0.687988 0.080560
0.952293 0.668099 0.080560
1.000000 0.644460 0.080560
1.000000 0.622888 0.080560
0.544693 0.849251 0.080560
0.597081 0.833905 0.080560
0.679549 0.813660 0.080560
0.761432 0.790433 0.080560
0.842715 0.768805 0.080560
0.925374 0.746421 0.080560
1.000000 0.725825 0.080560
1.000000 0.701783 0.080560
1.000000 0.679549 0.080560
0.110395 0.518046 0.167429
0.181896 0.502052 0.167429
0.258497 0.481157 0.167429
0.341576 0.459110 0.167429
0.425921 0.435714 0.167429
0.510125 0.415850 0.167429
0.590417 0.394777 0.167429
0.673853 0.372258 0.167429
0.753971 0.347973 0.167429
0.151280 0.552025 0.167429
0.207307 0.537242 0.167429
0.292020 0.518046 0.167429
0.378039 0.493821 0.167429
0.459110 0.472486 0.167429
0.540983 0.449927 0.167429
0.622888 0.425921 0.167429
0.707210 0.405478 0.167429
0.788065 0.383716 0.167429
0.218708 0.610149 0.167429
0.267353 0.597081 0.167429
0.347973 0.573349 0.167429
0.430851 0.552025 0.167429
0.514104 0.529664 0.167429
0.597081 0.506108 0.167429
0.679549 0.485422 0.167429
0.761432 0.463620 0.167429
0.842715 0.440513 0.167429
0.267353 0.668099 0.167429
0.321460 0.653445 0.167429
0.405478 0.632242 0.167429
0.485422 0.610149 0.167429
0.569861 0.587051 0.167429
0.650467 0.566348 0.167429
0.733630 0.544693 0.167429
0.815939 0.521953 0.167429
0.897481 0.497957 0.167429
0.328330 0.725825 0.167429
0.378039 0.712588 0.167429
0.459110 0.687988 0.167429
0.540983 0.668099 0.167429
0.622888 0.644460 0.167429
0.707210 0.622888 0.167429
0.788065 0.600380 0.167429
0.870615 0.580248 0.167429
0.952293 0.555647 0.167429
0.383716 0.783303 0.167429
0.430851 0.768805 0.167429
0.514104 0.746421 0.167429
0.597081 0.725825 0.167429
0.679549 0.701783 0.167429
0.761432 0.679549 0.167429
0.842715 0.659353 0.167429
0.925374 0.635323 0.167429
1.000000 0.613363 0.167429
0.435714 0.840523 0.167429
0.485422 0.827223 0.167429
0.569861 0.804466 0.167429
0.650467 0.780909 0.167429
0.733630 0.758955 0.167429
0.815939 0.738778 0.167429
0.897481 0.715259 0.167429
0.980156 0.693545 0.167429
1.000000 0.670983 0.167429
0.489643 0.897481 0.167429
0.540983 0.883137 0.167429
0.622888 0.862146 0.167429
0.707210 0.840523 0.167429
0.788065 0.818211 0.167429
0.870615 0.795144 0.167429
0.952293 0.773674 0.167429
1.000000 0.751465 0.167429
1.000000 0.728438 0.167429
0.544693 0.954181 0.167429
0.597081 0.940870 0.167429
0.679549 0.919483 0.167429
0.761432 0.897481 0.167429
0.842715 0.874813 0.167429
0.925374 0.853576 0.167429
1.000000 0.831684 0.167429
1.000000 0.809079 0.167429
1.000000 0.785689 0.167429
0.110395 0.622888 0.239595
0.181896 0.610149 0.239595
0.258497 0.587051 0.239595
0.341576 0.566348 0.239595
0.425921 0.544693 0.239595
0.510125 0.521953 0.239595
0.590417 0.497957 0.239595
0.673853 0.476845 0.239595
0.753971 0.454547 0.239595
0.151280 0.659353 0.239595
0.207307 0.644460 0.239595
0.292020 0.622888 0.239595
0.378039 0.600380 0.239595
0.459110 0.580248 0.239595
0.540983 0.555647 0.239595
0.622888 0.533469 0.239595
0.707210 0.514104 0.239595
0.788065 0.489643 0.239595
0.218708 0.715259 0.239595
0.267353 0.701783 0.239595
0.347973 0.679549 0.239595
0.430851 0.659353 0.239595
0.514104 0.635323 0.239595
0.597081 0.613363 0.239595
0.679549 0.593760 0.239595
0.761432 0.569861 0.239595
0.842715 0.548374 0.239595
0.267353 0.773674 0.239595
0.321460 0.758955 0.239595
0.405478 0.738778 0.239595
0.485422 0.715259 0.239595
0.569861 0.693545 0.239595
0.650467 0.670983 0.239595
0.733630 0.650467 0.239595
0.815939 0.629142 0.239595
0.897481 0.606913 0.239595
0.328330 0.831684 0.239595
0.378039 0.818211 0.239595
0.459110 0.795144 0.239595
0.540983 0.773674 0.239595
0.622888 0.751465 0.239595
0.707210 0.728438 0.239595
0.788065 0.707210 0.239595
0.870615 0.685189 0.239595
0.952293 0.662284 0.239595
0.383716 0.889319 0.239595
0.430851 0.874813 0.239595
0.514104 0.853576 0.239595
0.597081 0.831684 0.239595
0.679549 0.809079 0.239595
0.761432 0.785689 0.239595
0.842715 0.763899 0.239595
0.925374 0.743884 0.239595
1.000000 0.720565 0.239595
0.435714 0.946602 0.239595
0.485422 0.933160 0.239595
0.569861 0.909561 0.239595
0.650467 0.887264 0.239595
0.733630 0.866393 0.239595
0.815939 0.844901 0.239595
0.897481 0.822732 0.239595
0.980156 0.799821 0.239595
1.000000 0.778507 0.239595
0.489643 1.000000 0.239595
0.540983 0.989235 0.239595
0.622888 0.967273 0.239595
0.707210 0.944696 0.239595
0.788065 0.923415 0.239595
0.870615 0.901529 0.239595
0.952293 0.878987 0.239595
1.000000 0.857874 0.239595
1.000000 0.836118 0.239595
0.544693 1.000000 0.239595
0.597081 1.000000 0.239595
0.679549 1.000000 0.239595
0.761432 1.000000 0.239595
0.842715 0.980156 0.239595
0.925374 0.959818 0.239595
1.000000 0.937025 0.239595
1.000000 0.915529 0.239595
1.000000 0.893411 0.239595
0.110395 0.731039 0.307164
0.181896 0.715259 0.307164
0.258497 0.693545 0.307164
0.341576 0.670983 0.307164
0.425921 0.650467 0.307164
0.510125 0.629142 0.307164
0.590417 0.606913 0.307164
0.673853 0.583662 0.307164
0.753971 0.562808 0.307164
0.151280 0.763899 0.307164
0.207307 0.751465 0.307164
0.292020 0.728438 0.307164
0.378039 0.707210 0.307164
0.459110 0.685189 0.307164
0.540983 0.662284 0.307164
0.622888 0.641432 0.307164
0.707210 0.619733 0.307164
0.788065 0.597081 0.307164
0.218708 0.822732 0.307164
0.267353 0.809079 0.307164
0.347973 0.785689 0.307164
0.430851 0.763899 0.307164
0.514104 0.743884 0.307164
0.597081 0.720565 0.307164
0.679549 0.699050 0.307164
0.761432 0.676709 0.307164
0.842715 0.653445 0.307164
0.267353 0.878987 0.307164
0.321460 0.866393 0.307164
0.405478 0.844901 0.307164
0.485422 0.822732 0.307164
0.569861 0.799821 0.307164
0.650467 0.778507 0.307164
0.733630 0.756468 0.307164
0.815939 0.733630 0.307164
0.897481 0.712588 0.307164
0.328330 0.937025 0.307164
0.378039 0.923415 0.307164
0.459110 0.901529 0.307164
0.540983 0.878987 0.307164
0.622888 0.857874 0.307164
0.707210 0.836118 0.307164
0.788065 0.813660 0.307164
0.870615 0.790433 0.307164
0.952293 0.768805 0.307164
0.383716 0.994635 0.307164
0.430851 0.980156 0.307164
0.514104 0.959818 0.307164
0.597081 0.937025 0.307164
0.679549 0.915529 0.307164
0.761432 0.893411 0.307164
0.842715 0.870615 0.307164
0.925374 0.849251 0.307164
1.000000 0.827223 0.307164
0.435714 1.000000 0.307164
0.485422 1.000000 0.307164
0.569861 1.000000 0.307164
0.650467 0.994635 0.307164
0.733630 0.972820 0.307164
0.815939 0.950400 0.307164
0.897481 0.927328 0.307164
0.980156 0.905556 0.307164
1.000000 0.885203 0.307164
0.489643 1.000000 0.307164
0.540983 1.000000 0.307164
0.622888 1.000000 0.307164
0.707210 1.000000 0.307164
0.788065 1.000000 0.307164
0.870615 1.000000 0.307164
0.952293 0.985616 0.307164
1.000000 0.963554 0.307164
1.000000 0.940870 0.307164
0.544693 1.000000 0.307164
0.597081 1.000000 0.307164
0.679549 1.000000 0.307164
0.761432 1.000000 0.307164
0.842715 1.000000 0.307164
0.925374 1.000000 0.307164
1.000000 1.000000 0.307164
1.000000 1.000000 0.307164
1.000000 0.998216 0.307164
0.110395 0.836118 0.372258
0.181896 0.822732 0.372258
0.258497 0.799821 0.372258
0.341576 0.778507 0.372258
0.425921 0.756468 0.372258
0.510125 0.733630 0.372258
0.590417 0.712588 0.372258
0.673853 0.690773 0.372258
0.753971 0.668099 0.372258
0.151280 0.870615 0.372258
0.207307 0.857874 0.372258
0.292020 0.836118 0.372258
0.378039 0.813660 0.372258
0.459110 0.790433 0.372258
0.540983 0.768805 0.372258
0.622888 0.746421 0.372258
0.707210 0.725825 0.372258
0.788065 0.704503 0.372258
0.218708 0.929277 0.372258
0.267353 0.915529 0.372258
0.347973 0.893411 0.372258
0.430851 0.870615 0.372258
0.514104 0.849251 0.372258
0.597081 0.827223 0.372258
0.679549 0.804466 0.372258
0.761432 0.783303 0.372258
0.842715 0.761432 0.372258
0.267353 0.985616 0.372258
0.321460 0.972820 0.372258
0.405478 0.950400 0.372258
0.485422 0.927328 0.372258
0.569861 0.905556 0.372258
0.650467 0.885203 0.372258
0.733630 0.862146 0.372258
0.815939 0.840523 0.372258
0.897481 0.818211 0.372258
0.328330 1.000000 0.372258
0.378039 1.000000 0.372258
0.459110 1.000000 0.372258
0.540983 0.985616 0.372258
0.622888 0.963554 0.372258
0.707210 0.940870 0.372258
0.788065 0.919483 0.372258
0.870615 0.897481 0.372258
0.952293 0.874813 0.372258
0.383716 1.000000 0.372258
0.430851 1.000000 0.372258
0.514104 1.000000 0.372258
0.597081 1.000000 0.372258
0.679549 1.000000 0.372258
0.761432 0.998216 0.372258
0.842715 0.976496 0.372258
0.925374 0.954181 0.372258
1.000000 0.933160 0.372258
0.435714 1.000000 0.372258
0.485422 1.000000 0.372258
0.569861 1.000000 0.372258
0.650467 1.000000 0.372258
0.733630 1.000000 0.372258
0.815939 1.000000 0.372258
0.897481 1.000000 0.372258
0.980156 1.000000 0.372258
1.000000 0.991039 0.372258
0.489643 1.000000 0.372258
0.540983 1.000000 0.372258
0.622888 1.000000 0.372258
0.707210 1.000000 0.372258
0.788065 1.000000 0.372258
0.870615 1.000000 0.372258
0.952293 1.000000 0.372258
1.000000 1.000000 0.372258
1.000000 1.000000 0.372258
0.544693 1.000000 0.372258
0.597081 1.000000 0.372258
0.679549 1.000000 0.372258
0.761432 1.000000 0.372258
0.842715 1.000000 0.372258
0.925374 1.000000 0.372258
1.000000 1.000000 0.372258
1.000000 1.000000 0.372258
1.000000 1.000000 0.372258
0.110395 0.942785 0.440513
0.181896 0.929277 0.440513
0.258497 0.907561 0.440513
0.341576 0.885203 0.440513
0.425921 0.862146 0.440513
0.510125 0.840523 0.440513
0.590417 0.818211 0.440513
0.673853 0.797487 0.440513
0.753971 0.773674 0.440513
0.151280 0.976496 0.440513
0.207307 0.963554 0.440513
0.292020 0.940870 0.440513
0.378039 0.919483 0.440513
0.459110 0.897481 0.440513
0.540983 0.874813 0.440513
0.622888 0.853576 0.440513
0.707210 0.831684 0.440513
0.788065 0.809079 0.440513
0.218708 1.000000 0.440513
0.267353 1.000000 0.440513
0.347973 0.998216 0.440513
0.430851 0.976496 0.440513
0.514104 0.954181 0.440513
0.597081 0.933160 0.440513
0.679549 0.911556 0.440513
0.761432 0.889319 0.440513
0.842715 0.866393 0.440513
0.267353 1.000000 0.440513
0.321460 1.000000 0.440513
0.405478 1.000000 0.440513
0.485422 1.000000 0.440513
0.569861 1.000000 0.440513
0.650467 0.991039 0.440513
0.733630 0.969126 0.440513
0.815939 0.946602 0.440513
0.897481 0.923415 0.440513
0.328330 1.000000 0.440513
0.378039 1.000000 0.440513
0.459110 1.000000 0.440513
0.540983 1.000000 0.440513
0.622888 1.000000 0.440513
0.707210 1.000000 0.440513
0.788065 1.000000 0.440513
0.870615 1.000000 0.440513
0.952293 0.981980 0.440513
0.383716 1.000000 0.440513
0.430851 1.000000 0.440513
0.514104 1.000000 0.440513
0.597081 1.000000 0.440513
0.679549 1.000000 0.440513
0.761432 1.000000 0.440513
0.842715 1.000000 0.440513
0.925374 1.000000 0.440513
1.000000 1.000000 0.440513
0.435714 1.000000 0.440513
0.485422 1.000000 0.440513
0.569861 1.000000 0.440513
0.650467 1.000000 0.440513
0.733630 1.000000 0.440513
0.815939 1.000000 0.440513
0.897481 1.000000 0.440513
0.980156 1.000000 0.440513
1.000000 1.000000 0.440513
0.489643 1.000000 0.440513
0.540983 1.000000 0.440513
0.622888 1.000000 0.440513
0.707210 1.000000 0.440513
0.788065 1.000000 0.440513
0.870615 1.000000 0.440513
0.952293 1.000000 0.440513
1.000000 1.000000 0.440513
1.000000 1.000000 0.440513
0.544693 1.000000 0.440513
0.597081 1.000000 0.440513
0.679549 1.000000 0.440513
0.761432 1.000000 0.440513
0.842715 1.000000 0.440513
0.925374 1.000000 0.440513
1.000000 1.000000 0.440513
1.000000 1.000000 0.440513
1.000000 1.000000 0.440513
0.110395 1.000000 0.506108
0.181896 1.000000 0.506108
0.258497 1.000000 0.506108
0.341576 0.991039 0.506108
0.425921 0.969126 0.506108
0.510125 0.946602 0.506108
0.590417 0.925374 0.506108
0.673853 0.903545 0.506108
0.753971 0.881065 0.506108
0.151280 1.000000 0.506108
0.207307 1.000000 0.506108
0.292020 1.000000 0.506108
0.378039 1.000000 0.506108
0.459110 1.000000 0.506108
0.540983 0.981980 0.506108
0.622888 0.959818 0.506108
0.707210 0.937025 0.506108
0.788065 0.915529 0.506108
0.218708 1.000000 0.506108
0.267353 1.000000 0.506108
0.347973 1.000000 0.506108
0.430851 1.000000 0.506108
0.514104 1.000000 0.506108
0.597081 1.000000 0.506108
0.679549 1.000000 0.506108
0.761432 0.994635 0.506108
0.842715 0.972820 0.506108
0.267353 1.000000 0.506108
0.321460 1.000000 0.506108
0.405478 1.000000 0.506108
0.485422 1.000000 0.506108
0.569861 1.000000 0.506108
0.650467 1.000000 0.506108
0.733630 1.000000 0.506108
0.815939 1.000000 0.506108
0.897481 1.000000 0.506108
0.328330 1.000000 0.506108
0.378039 1.000000 0.506108
0.459110 1.000000 0.506108
0.540983 1.000000 0.506108
0.622888 1.000000 0.506108
0.707210 1.000000 0.506108
0.788065 1.000000 0.506108
0.870615 1.000000 0.506108
0.952293 1.000000 0.506108
0.383716 1.000000 0.506108
0.430851 1.000000 0.506108
0.514104 1.000000 0.506108
0.597081 1.000000 0.506108
0.679549 1.000000 0.506108
0.761432 1.000000 0.506108
0.842715 1.000000 0.506108
0.925374 1.000000 0.506108
1.000000 1.000000 0.506108
0.435714 1.000000 0.506108
0.485422 1.000000 0.506108
0.569861 1.000000 0.506108
0.650467 1.000000 0.506108
0.733630 1.000000 0.506108
0.815939 1.000000 0.506108
0.897481 1.000000 0.506108
0.980156 1.000000 0.506108
1.000000 1.000000 0.506108
0.489643 1.000000 0.506108
0.540983 1.000000 0.506108
0.622888 1.000000 0.506108
0.707210 1.000000 0.506108
0.788065 1.000000 0.506108
0.870615 1.000000 0.506108
0.952293 1.000000 0.506108
1.000000 1.000000 0.506108
1.000000 1.000000 0.506108
0.544693 1.000000 0.506108
0.597081 1.000000 0.506108
0.679549 1.000000 0.506108
0.761432 1.000000 0.506108
0.842715 1.000000 0.506108
0.925374 1.000000 0.506108
1.000000 1.000000 0.506108
1.000000 1.000000 0.506108
1.000000 1.000000 0.506108
