luts/Log3G10RWG_StrongFilmD55wKc_Rec709.cube
# Created with Image Science
LUT_3D_SIZE 9
0.00118279 0.00112133 0.00102582
0.00381938 0.00225127 0.00153044
0.155696 0 0
0.390889 0 0
0.605919 0 0
0.730345 0 0
0.75088 0 0
0.756333 0 0
0.756263 0 0
0.00216834 0.00417905 0.00238721
0.00828411 0.00698957 0.00139017
0.165484 0 0
0.393184 0 0
0.610582 0 0
0.729305 0 0
0.754596 0 0
0.786292 0 0
0.789638 0 0
0 0.144167 0
0 0.135866 0
0.171593 0.140712 0
0.449847 0.0977994 0
0.68184 0 0
0.803207 0 0
0.832497 0 0
0.862447 0 0
0.86522 0 0
0 0.324361 0
0 0.319521 0
0 0.357361 0
0.475004 0.388789 0
0.766319 0.347687 0
0.888773 0.243741 0
0.912832 0.24655 0
0.944422 0.379997 0
0.947242 0.392595 0
0 0.458764 0
0 0.470614 0
0 0.551396 0
0.439949 0.623246 0
0.806664 0.64708 0
0.97386 0.604634 0
1 0.599765 0
1 0.660097 0
1 0.666704 0
0 0.502547 0
0 0.518027 0
0 0.612519 0
0.361065 0.71079 0
0.788316 0.783725 0
1 0.789528 0
1 0.789902 0
1 0.804872 0
1 0.806765 0
0 0.535507 0
0 0.565615 0
0 0.658411 0
0.455797 0.735471 0
0.817935 0.796938 0
1 0.823304 0
1 0.830649 0
1 0.832184 0
1 0.832729 0
0 0.562843 0
0 0.616944 0
0 0.698456 0
0.613991 0.769433 0
0.859146 0.808368 0
1 0.827803 0
1 0.830717 0
1 0.832712 0
1 0.833087 0
0 0.564261 0
0 0.620283 0
0.0458916 0.701081 0
0.628104 0.771848 0
0.864011 0.809309 0
1 0.828245 0
1 0.830461 0
1 0.832184 0
1 0.832439 0
0.000967252 0.000918828 0.00130778
0.0027648 0.0020751 0.00240578
0.139005 0 0
0.372364 0 0
0.59365 0 0
0.72437 0 0
0.750376 0 0
0.757323 0 0
0.757427 0 0
0.00208606 0.00334246 0.0044197
0.00889487 0.00785643 0.00655839
0.170831 0 0
0.390145 0 0
0.605235 0 0
0.719937 0 0
0.75173 0 0
0.784149 0 0
0.787163 0 0
0 0.136534 0
0 0.144337 0
0.178441 0.147718 0
0.448629 0.0901975 0
0.672142 0 0
0.797363 0 0
0.829226 0 0
0.864922 0 0
0.868134 0 0
0 0.313638 0
0 0.322483 0
0 0.356068 0
0.476072 0.389652 0
0.757429 0.334653 0
0.881383 0.212887 0
0.909456 0.216619 0
0.945266 0.376961 0
0.948824 0.390493 0
0 0.454703 0
0 0.466907 0
0 0.544306 0
0.421622 0.616202 0
0.799588 0.640552 0
0.967261 0.593576 0
0.997525 0.588658 0
1 0.665175 0
1 0.673983 0
0 0.49969 0
0 0.507002 0
0 0.603993 0
0.32115 0.704229 0
0.772574 0.780865 0
1 0.787176 0
1 0.787331 0
1 0.80378 0
1 0.805963 0
0 0.533809 0
0 0.554657 0
0 0.651028 0
0.42331 0.731996 0
0.803472 0.795343 0
1 0.82283 0
1 0.830359 0
1 0.831637 0
1 0.832115 0
0 0.56673 0
0 0.619207 0
0 0.702905 0
0.589145 0.780276 0
0.844228 0.815767 0
1 0.833777 0
1 0.837173 0
1 0.839654 0
1 0.840813 0
0 0.567987 0
0 0.622195 0
0 0.706243 0
0.603655 0.784389 0
0.84833 0.817093 0
1 0.834931 0
1 0.838 0
1 0.840437 0
1 0.840421 0
0.000260513 0 0.0590963
0.00150028 0 0.0535718
0.0998311 0 0.0675433
0.332136 0 0
0.56922 0 0
0.72018 0 0
0.754631 0 0
0.763684 0 0
0.76391 0 0
0 0 0.0771557
0.00123315 0 0.0870125
0.112917 0 0.0777159
0.338386 0 0
0.574865 0 0
0.717186 0 0
0.755117 0 0
0.781015 0 0
0.783383 0 0
0 0.12051 0.144143
0 0.129993 0.149834
0.162101 0.154414 0.142358
0.508561 0.0540348 0
0.70536 0 0
0.79963 0 0
0.826409 0 0
0.86996 0 0
0.874071 0 0
0 0.295927 0.110695
0 0.296898 0.088953
0 0.421778 0
0.549417 0.459042 0
0.793034 0.353118 0
0.887914 0.198436 0
0.910262 0.177156 0
0.948739 0.369552 0
0.952241 0.385895 0
0 0.441815 0
0 0.45115 0
0 0.559338 0
0.425203 0.657842 0
0.836126 0.68271 0
0.980533 0.609523 0
1 0.592644 0
1 0.669634 0
1 0.678488 0
0 0.492442 0
0 0.494374 0
0 0.593923 0
0.251498 0.710115 0
0.784458 0.789075 0
1 0.798166 0
1 0.788487 0
1 0.80453 0
1 0.806798 0
0 0.53598 0
0 0.55173 0
0 0.645523 0
0.302547 0.739104 0
0.778508 0.805061 0
0.984547 0.828399 0
1 0.832541 0
1 0.848764 0
1 0.850294 0
0 0.588887 0.29231
0 0.641727 0.270127
0 0.728029 0.114254
0.513973 0.806057 0
0.830565 0.842132 0
0.968663 0.859308 0
1 0.867264 0
1 0.870042 0
1 0.872895 0
0 0.592785 0.314363
0 0.648404 0.292687
0 0.734906 0.167517
0.531568 0.810658 0
0.836731 0.846246 0
0.96809 0.862323 0
1 0.870315 0
1 0.873186 0
1 0.87322 0
0.0106551 0 0.246804
0.00918282 0 0.236109
0.0784084 0 0.246608
0.34512 0 0.297595
0.553821 0 0.226129
0.717411 0 0.121644
0.765544 0 0.075827
0.767683 0 0.211832
0.767457 0 0.220764
0.013118 0.00126598 0.262905
0.0121768 0 0.256921
0.0745921 0 0.255301
0.348425 0 0.295125
0.550803 0 0.218108
0.714108 0 0.0915291
0.76551 0 0
0.788244 0 0.236204
0.79119 0 0.249885
0 0.124869 0.32374
0 0.11663 0.322975
0 0.112326 0.416993
0.487599 0 0.416392
0.673451 0 0.280789
0.783993 0 0.108586
0.822142 0 0.033963
0.880905 0 0.313232
0.886074 0 0.330345
0 0.289653 0.355673
0 0.289699 0.354587
0 0.399903 0.429626
0.468995 0.447319 0.413929
0.81074 0.377192 0.310355
0.903172 0.22439 0.145985
0.915917 0.172218 0
0.951645 0.390337 0.299929
0.955728 0.409461 0.318807
0 0.472616 0.343814
0 0.468733 0.332969
0 0.555989 0.341486
0.313017 0.717758 0.318623
0.843941 0.73787 0
0.970947 0.673212 0
0.999793 0.619102 0
1 0.703316 0.0739044
1 0.713956 0.178716
0 0.538217 0.326677
0 0.533614 0.310112
0 0.604488 0.300793
0 0.763846 0.231821
0.807038 0.829883 0
1 0.831529 0
1 0.808361 0
1 0.844548 0
1 0.848253 0
0 0.574068 0.4021
0 0.582162 0.395077
0 0.666225 0.406313
0 0.789083 0.374204
0.758868 0.843397 0
0.958658 0.860388 0
1 0.861124 0
1 0.890861 0
1 0.893539 0.226458
0 0.61753 0.473624
0 0.667966 0.51487
0 0.765272 0.584784
0.448975 0.836034 0.554293
0.804184 0.875044 0.50691
0.94686 0.893769 0.450373
1 0.898769 0.3974
1 0.90143 0.388026
1 0.902796 0.426392
0 0.620402 0.481078
0 0.67391 0.528918
0 0.773398 0.597896
0.478582 0.839976 0.567247
0.810738 0.877607 0.525295
0.948142 0.895595 0.480144
1 0.900739 0.441461
1 0.902918 0.433889
1 0.903087 0.433318
0.0471811 0.0214527 0.411951
0.0440232 0.0198334 0.401727
0.0395809 0.0172896 0.386286
0.287548 0 0.459817
0.549727 0 0.462432
0.706408 0 0.432579
0.755534 0 0.395082
0.781862 0 0.46659
0.783149 0 0.475093
0.050379 0.0229518 0.42186
0.048326 0.0220229 0.415687
0.039796 0.0174337 0.387186
0.273619 0 0.456682
0.546018 0 0.456602
0.701987 0 0.419179
0.756593 0 0.382268
0.81326 0 0.482332
0.818972 0 0.493928
0.0442042 0.0975772 0.47132
0.0513429 0.0830345 0.471557
0.0815158 0.0374868 0.528667
0.382656 0 0.588346
0.648812 0 0.570959
0.777004 0 0.466717
0.817475 0 0.432324
0.914031 0 0.589484
0.920675 0 0.603976
0 0.26118 0.535726
0 0.251911 0.530296
0 0.304592 0.600738
0.414436 0.402147 0.723167
0.772908 0.316302 0.701099
0.889433 0.0477717 0.599719
0.917794 0 0.533694
0.953924 0.395131 0.629196
0.958391 0.417163 0.643168
0 0.485807 0.572048
0 0.482392 0.566574
0 0.558939 0.655208
0 0.718936 0.716225
0.775703 0.7399 0.685066
0.944664 0.692011 0.617453
0.992198 0.667982 0.581402
1 0.722828 0.63031
1 0.731275 0.639372
0 0.56633 0.564377
0 0.563431 0.551931
0 0.623134 0.615193
0 0.789298 0.677694
0.736774 0.870752 0.649036
0.958185 0.881332 0.554779
1 0.864129 0.525547
1 0.87359 0.606273
1 0.873407 0.616957
0 0.599446 0.623843
0 0.608562 0.621468
0 0.675894 0.670954
0 0.807018 0.697291
0.738125 0.884755 0.685681
0.939272 0.905663 0.621739
1 0.909017 0.549023
1 0.917483 0.629616
1 0.919203 0.6426
0 0.642256 0.75408
0 0.684534 0.76043
0 0.782445 0.747942
0.356287 0.857297 0.760694
0.779783 0.901158 0.74292
0.928259 0.918698 0.726249
0.993373 0.927766 0.707607
1 0.930601 0.700001
1 0.932609 0.713086
0 0.644442 0.762161
0 0.68937 0.764288
0 0.791535 0.756653
0.405571 0.861536 0.766344
0.785306 0.903397 0.75045
0.92889 0.920566 0.736318
0.991792 0.929316 0.721065
1 0.932574 0.714032
1 0.933069 0.715012
0.0682809 0.0313022 0.480794
0.0675136 0.0309483 0.478206
0.0615882 0.0283518 0.458546
0.21275 0 0.534246
0.511358 0 0.570753
0.694393 0 0.596869
0.76831 0 0.595663
0.792321 0 0.612713
0.794204 0 0.614256
0.0713659 0.0327926 0.4914
0.0703724 0.0322723 0.487615
0.0632956 0.0291514 0.464125
0.188448 0 0.528132
0.502494 0 0.569806
0.689319 0 0.595278
0.766936 0 0.595695
0.825331 0 0.649395
0.829178 0 0.655323
0.0858681 0.040016 0.547856
0.0849335 0.0395097 0.543796
0.0938476 0.0445793 0.585477
0.237953 0 0.642922
0.571931 0 0.662197
0.754195 0 0.653358
0.831241 0 0.660389
0.911828 0 0.761007
0.920233 0 0.771174
0 0.227541 0.632296
0 0.212097 0.623968
0 0.226437 0.670447
0.29954 0.33043 0.783378
0.694998 0.218494 0.791259
0.897565 0 0.793173
0.935016 0 0.785865
0.958054 0.36633 0.798266
0.962506 0.397171 0.800857
0 0.469988 0.727147
0 0.46311 0.723418
0 0.506491 0.745886
0 0.662947 0.812043
0.704615 0.708506 0.81978
0.92908 0.654081 0.815285
0.984296 0.630347 0.806366
0.995348 0.721556 0.806418
0.996707 0.732584 0.80697
0 0.571498 0.751572
0 0.570796 0.749716
0 0.619842 0.767181
0 0.773445 0.805144
0.640067 0.874635 0.823022
0.923971 0.881337 0.815785
0.993774 0.871269 0.80314
1 0.883287 0.815502
1 0.883201 0.816137
0 0.60137 0.763363
0 0.609493 0.76443
0 0.666042 0.778349
0 0.801964 0.809334
0.655994 0.892882 0.826166
0.905253 0.924509 0.831631
0.98982 0.936388 0.816707
1 0.938139 0.840108
1 0.938002 0.842929
0 0.643988 0.772816
0 0.683897 0.784016
0 0.783085 0.808258
0.257833 0.862413 0.822988
0.759951 0.907895 0.833442
0.914425 0.928503 0.847021
0.983053 0.942498 0.859722
1 0.94965 0.865019
1 0.950364 0.868377
0 0.646693 0.773392
0 0.688926 0.785662
0 0.792714 0.811104
0.347025 0.866238 0.822709
0.770806 0.909225 0.834648
0.916335 0.928776 0.848489
0.981419 0.942676 0.863161
1 0.950228 0.869349
1 0.950501 0.869578
0.0846928 0.0393291 0.542758
0.0846509 0.0392894 0.542499
0.0902813 0.0423609 0.568501
0.258198 0 0.612166
0.553104 0 0.647598
0.726869 0 0.655612
0.804657 0 0.648627
0.832792 0 0.672094
0.833911 0 0.673226
0.0860413 0.0401011 0.548555
0.0858111 0.0399778 0.547564
0.0917286 0.0431131 0.574873
0.238859 0 0.61977
0.549312 0 0.654772
0.727886 0 0.6621
0.807169 0 0.653492
0.853239 0 0.702918
0.856341 0 0.707345
0.0891006 0.0702237 0.602941
0.0976191 0.0477696 0.609125
0.103172 0.0527265 0.644233
0.27893 0 0.729233
0.601333 0 0.73508
0.793257 0 0.727921
0.853531 0 0.71235
0.927669 0 0.786165
0.934692 0 0.792568
0 0.261127 0.67988
0 0.247918 0.676375
0 0.275447 0.693373
0.225385 0.360811 0.787036
0.648152 0.306033 0.795698
0.879628 0 0.792311
0.941593 0 0.801505
0.962512 0.386275 0.809349
0.966758 0.418008 0.810982
0 0.472167 0.739621
0 0.468505 0.739148
0 0.508417 0.748867
0 0.627229 0.811389
0.68047 0.703053 0.820664
0.915268 0.655841 0.819178
0.982829 0.601505 0.818475
0.996514 0.719611 0.819502
0.997801 0.732561 0.819715
0 0.572834 0.759998
0 0.572595 0.760182
0 0.634559 0.771024
0 0.76659 0.809239
0.622436 0.868241 0.826556
0.905979 0.872306 0.832588
0.988742 0.858397 0.835283
1 0.88259 0.842804
1 0.882012 0.842706
0 0.608979 0.766411
0 0.618781 0.768236
0 0.665058 0.778876
0 0.786663 0.81105
0.593541 0.887022 0.829629
0.890202 0.924803 0.849237
0.98327 0.937731 0.868042
1 0.943238 0.874786
1 0.943477 0.875072
0 0.655395 0.776132
0 0.685141 0.784765
0 0.785717 0.810458
0.228504 0.862223 0.825613
0.756048 0.9084 0.83701
0.910223 0.929487 0.852915
0.979387 0.945663 0.873658
0.999913 0.952831 0.881748
1 0.952977 0.881895
0 0.657814 0.776827
0 0.689655 0.786133
0 0.796084 0.813527
0.339138 0.866577 0.825166
0.769892 0.909936 0.837719
0.913315 0.929923 0.853498
0.979201 0.94589 0.873767
0.999673 0.952941 0.881871
1 0.953046 0.881925
0.0899051 0.0421781 0.56679
0.0923023 0.043497 0.57753
0.103397 0.0529553 0.646372
0.4444 0 0.720944
0.661443 0 0.733769
0.815949 0 0.738273
0.873175 0 0.737895
0.887904 0 0.745933
0.888888 0 0.746875
0.0962664 0.0466947 0.600138
0.0995051 0.0494118 0.620138
0.108396 0.0579343 0.680727
0.463547 0 0.749893
0.680996 0 0.761129
0.849807 0 0.763165
0.898138 0 0.759205
0.911135 0 0.768567
0.915099 0 0.771837
0.0613547 0.173301 0.651927
0.0564353 0.185141 0.663685
0.0381437 0.224997 0.71264
0.469316 0.263167 0.783017
0.707024 0.227502 0.79137
0.887101 0 0.792409
0.947654 0 0.805338
0.940755 0 0.796962
0.942431 0.0447265 0.797979
0 0.36505 0.713014
0 0.379317 0.716757
0 0.438318 0.756467
0.431879 0.51547 0.8106
0.73163 0.515357 0.813597
0.913561 0.475634 0.813372
0.965631 0.448167 0.813269
0.972196 0.471238 0.814754
0.974837 0.493639 0.816221
0 0.512704 0.748808
0 0.549018 0.755351
0 0.621489 0.785904
0.261934 0.720715 0.820216
0.744767 0.755546 0.820811
0.906625 0.745212 0.819825
0.980505 0.733583 0.819997
0.995891 0.73744 0.820385
0.996672 0.748564 0.820232
0 0.590695 0.7633
0 0.630717 0.769739
0 0.71291 0.791453
0 0.835084 0.82346
0.727004 0.878356 0.827917
0.917793 0.885456 0.836466
0.983351 0.886653 0.841635
1 0.885525 0.844151
1 0.885789 0.844319
0 0.62734 0.76961
0 0.657234 0.776569
0 0.741707 0.798991
0 0.853056 0.825276
0.727051 0.903049 0.834365
0.91009 0.926675 0.851025
0.979075 0.938206 0.868672
1 0.944469 0.875777
1 0.945136 0.876146
0 0.656621 0.776367
0 0.688328 0.785544
0 0.788658 0.811688
0.239597 0.862573 0.825743
0.75164 0.908015 0.836882
0.906644 0.929269 0.853152
0.977267 0.945689 0.874641
0.999632 0.953248 0.88226
0.999977 0.953388 0.882385
0 0.658973 0.777305
0 0.692762 0.786796
0 0.799144 0.814539
0.339848 0.866619 0.8253
0.765506 0.909536 0.837613
0.910013 0.929714 0.853711
0.976379 0.945585 0.874562
0.999334 0.953259 0.882284
0.999507 0.953372 0.882397
0.0903099 0.0423874 0.568631
0.0930037 0.0439715 0.581202
0.104383 0.0539219 0.652857
0.456209 0 0.726958
0.671867 0 0.740073
0.819949 0 0.74436
0.87809 0 0.745692
0.893688 0 0.753111
0.894832 0 0.753612
0.0970374 0.0472818 0.605637
0.101089 0.0508637 0.630049
0.109146 0.0589815 0.688181
0.477894 0 0.756357
0.691323 0 0.768075
0.859012 0 0.770439
0.906994 0 0.76728
0.918871 0 0.77579
0.919576 0 0.776266
0.0572825 0.180299 0.655323
0.0459482 0.197629 0.668677
0.00244045 0.241011 0.720004
0.483588 0.286069 0.786319
0.715816 0.260425 0.794192
0.893166 0.0757112 0.794383
0.937134 0 0.795822
0.942781 0.121704 0.79866
0.943227 0.128275 0.798832
0 0.373972 0.715034
0 0.390805 0.719588
0 0.45245 0.763004
0.446768 0.530646 0.812083
0.743578 0.532378 0.814459
0.916546 0.499504 0.81469
0.968649 0.476993 0.81459
0.974763 0.497975 0.816327
0.9754 0.499449 0.816513
0 0.516263 0.749679
0 0.558119 0.757244
0 0.635468 0.790658
0.298406 0.730678 0.82077
0.755945 0.764141 0.820681
0.9061 0.756409 0.819773
0.978833 0.748383 0.819776
0.995458 0.752504 0.819719
0.996254 0.750143 0.820061
0 0.592325 0.763689
0 0.634752 0.770549
0 0.722277 0.794114
0 0.839956 0.823702
0.7417 0.880769 0.828547
0.919616 0.887109 0.836859
0.983569 0.889436 0.842687
1 0.888442 0.845207
1 0.885851 0.844418
0 0.629189 0.769606
0 0.659845 0.777544
0 0.751086 0.800956
0 0.857191 0.824943
0.744407 0.905126 0.834605
0.912775 0.926685 0.851239
0.978175 0.938272 0.868866
1 0.944873 0.876093
1 0.945013 0.876255
0 0.656992 0.776464
0 0.690901 0.786363
0 0.797409 0.814144
0.329658 0.866069 0.825206
0.764913 0.909367 0.837655
0.909803 0.929585 0.853906
0.978074 0.946082 0.875384
0.999862 0.953376 0.882588
1 0.95354 0.882606
0 0.658233 0.776887
0 0.692827 0.786809
0 0.799374 0.814661
0.33977 0.866637 0.825388
0.765093 0.909463 0.83768
0.909825 0.929669 0.854042
0.97716 0.946014 0.875301
0.99949 0.953457 0.882606
0.999996 0.953591 0.88262
