luts/Log3G10RWG_StrongFilmD55wKc_Rec709.cube
# Created with Image Science
LUT_3D_SIZE 33
0.00118279 0.00112133 0.00102582
0.0013478 0.00129802 0.00109198
0.0016489 0.00152322 0.00117058
0.00215567 0.00190061 0.00129016
0.00381938 0.00225127 0.00153044
0.0168495 0 0
0.060858 0 0
0.109365 0 0
0.155696 0 0
0.214513 0 0
0.284649 0 0
0.319842 0 0
0.390889 0 0
0.45509 0 0
0.508649 0 0
0.558724 0 0
0.605919 0 0
0.649552 0 0
0.68658 0 0
0.714419 0 0
0.730345 0 0
0.739132 0 0
0.743989 0 0
0.747547 0 0
0.75088 0 0
0.753658 0 0
0.754717 0 0
0.755759 0 0
0.756333 0 0
0.756263 0 0
0.756263 0 0
0.756263 0 0
0.756263 0 0
0.00133465 0.00135971 0.0012287
0.00153639 0.00148608 0.00126703
0.00184633 0.00174461 0.00132051
0.00230791 0.00206389 0.00146294
0.00407977 0.0024005 0.00159283
0.0170533 0 0
0.0607007 0 0
0.10947 0 0
0.156447 0 0
0.214766 0 0
0.283485 0 0
0.316104 0 0
0.387917 0 0
0.452768 0 0
0.506375 0 0
0.556501 0 0
0.604007 0 0
0.64775 0 0
0.685131 0 0
0.713416 0 0
0.729825 0 0
0.738821 0 0
0.743834 0 0
0.74753 0 0
0.750914 0 0
0.753727 0 0
0.754926 0 0
0.75668 0 0
0.757984 0 0
0.757931 0 0
0.757931 0 0
0.757931 0 0
0.757931 0 0
0.00161125 0.00175256 0.00148366
0.00180469 0.00188194 0.0015335
0.00212254 0.0020709 0.0016073
0.00257896 0.00231971 0.00171533
0.00465434 0.00268606 0.00171551
0.0181377 0 0
0.0617457 0 0
0.110068 0 0
0.157534 0 0
0.216225 0 0
0.284033 0 0
0.330701 0 0
0.38531 0 0
0.451499 0 0
0.505549 0 0
0.555331 0 0
0.602316 0 0
0.645449 0 0
0.682787 0 0
0.711635 0 0
0.728907 0 0
0.738422 0 0
0.74366 0 0
0.747599 0 0
0.751105 0 0
0.75404 0 0
0.75569 0 0
0.758314 0 0
0.761754 0 0
0.762241 0 0
0.762241 0 0
0.762241 0 0
0.762241 0 0
0.00200677 0.00229661 0.00195221
0.00216881 0.00236606 0.00194175
0.00247989 0.00255892 0.00199441
0.00310001 0.00291488 0.00207548
0.00609898 0.00329973 0.0017557
0.0214805 0 0
0.0670485 0 0
0.112855 0 0
0.160516 0 0
0.218967 0 0
0.285482 0 0
0.349897 0 0
0.385212 0 0
0.453303 0 0
0.50966 0 0
0.559861 0 0
0.604724 0 0
0.644762 0 0
0.679651 0 0
0.708315 0 0
0.727071 0 0
0.737901 0 0
0.743435 0 0
0.747599 0 0
0.751469 0 0
0.754665 0 0
0.757166 0 0
0.762571 0 0
0.77017 0 0
0.772015 0 0
0.772015 0 0
0.772015 0 0
0.772015 0 0
0.00216834 0.00417905 0.00238721
0.00239834 0.00431847 0.00231924
0.00269892 0.00467792 0.00230635
0.0034196 0.00568155 0.00226365
0.00828411 0.00698957 0.00139017
0.0270162 0.00594173 0
0.0748411 0 0
0.116894 0 0
0.165484 0 0
0.221429 0 0
0.287941 0 0
0.360719 0 0
0.393184 0 0
0.46002 0 0
0.515493 0 0
0.565193 0 0
0.610582 0 0
0.649964 0 0
0.683253 0 0
0.710251 0 0
0.729305 0 0
0.740589 0 0
0.746765 0 0
0.750966 0 0
0.754596 0 0
0.758053 0 0
0.763354 0 0
0.773145 0 0
0.786292 0 0
0.789638 0 0
0.789638 0 0
0.789638 0 0
0.789638 0 0
0 0.0161868 0
0 0.0159783 0
0 0.016378 0
0 0.0179358 0
0 0.0196061 0
0.0322437 0.0200129 0
0.0817616 0.00998613 0
0.125705 0.0151917 0
0.169058 0.0337209 0
0.218428 0.040638 0
0.284098 0 0
0.365543 0 0
0.422605 0 0
0.472489 0 0
0.527074 0 0
0.576668 0 0
0.623169 0 0
0.665035 0 0
0.701128 0 0
0.728612 0 0
0.744284 0 0
0.753536 0 0
0.758245 0 0
0.762119 0 0
0.767753 0 0
0.775722 0 0
0.784933 0 0
0.795915 0 0
0.81047 0 0
0.813963 0 0
0.813963 0 0
0.813963 0 0
0.813963 0 0
0 0.0486732 0
0 0.0474715 0
0 0.0466014 0
0 0.0472208 0
0 0.0469836 0
0.0179561 0.0491589 0
0.0848531 0.0532407 0
0.12865 0.0644002 0
0.166882 0.0739292 0
0.218444 0.0798943 0
0.286069 0.0718219 0
0.363612 0 0
0.442037 0 0
0.484632 0 0
0.541315 0 0
0.593496 0 0
0.642584 0 0
0.687132 0 0
0.72385 0 0
0.749091 0 0
0.763354 0 0
0.772363 0 0
0.777671 0 0
0.783261 0 0
0.79112 0 0
0.800031 0 0
0.80848 0 0
0.81786 0 0
0.829751 0 0
0.832708 0 0
0.832708 0 0
0.832708 0 0
0.832708 0 0
0 0.102846 0
0 0.101447 0
0 0.0994222 0
0 0.0972195 0
0 0.0939922 0
0 0.0947051 0
0.0800763 0.0958023 0
0.128837 0.101299 0
0.169477 0.107419 0
0.22283 0.108759 0
0.292333 0.102246 0
0.368784 0.0789827 0
0.442377 0 0
0.517401 0 0
0.556382 0 0
0.611318 0 0
0.662697 0 0
0.71013 0 0
0.748189 0 0
0.772694 0 0
0.784794 0 0
0.79309 0 0
0.80038 0 0
0.807414 0 0
0.814767 0 0
0.821723 0 0
0.827459 0 0
0.834826 0 0
0.845842 0 0
0.848785 0 0
0.848785 0 0
0.848785 0 0
0.848785 0 0
0 0.144167 0
0 0.14355 0
0 0.142131 0
0 0.139311 0
0 0.135866 0
0 0.135595 0
0.0521288 0.134429 0
0.122906 0.137532 0
0.171593 0.140712 0
0.228674 0.141397 0
0.299518 0.137625 0
0.37608 0.125507 0
0.449847 0.0977994 0
0.515762 0 0
0.58379 0 0
0.629162 0 0
0.68184 0 0
0.729548 0 0
0.767631 0 0
0.791015 0 0
0.803207 0 0
0.811972 0 0
0.81966 0 0
0.826375 0 0
0.832497 0 0
0.838082 0 0
0.843196 0 0
0.850767 0 0
0.862447 0 0
0.86522 0 0
0.86522 0 0
0.86522 0 0
0.86522 0 0
0 0.180637 0
0 0.1795 0
0 0.17816 0
0 0.17531 0
0 0.172083 0
0 0.173347 0
0 0.177214 0
0.098342 0.178938 0
0.162964 0.182872 0
0.231424 0.184705 0
0.305368 0.183187 0
0.383453 0.176703 0
0.458186 0.162288 0
0.52771 0.133854 0
0.59309 0.065451 0
0.652201 0 0
0.725704 0 0
0.748675 0 0
0.784847 0 0
0.808636 0 0
0.821688 0 0
0.830293 0 0
0.837434 0 0
0.843511 0 0
0.849084 0 0
0.854658 0 0
0.860499 0 0
0.868819 0 0
0.885708 0 0
0.888341 0 0
0.888341 0 0
0.888341 0 0
0.888341 0 0
0 0.221301 0
0 0.219242 0
0 0.217155 0
0 0.214464 0
0 0.212885 0
0 0.215765 0
0 0.222353 0
0 0.229613 0
0.133222 0.235582 0
0.220899 0.239934 0
0.307358 0.242155 0
0.388406 0.240817 0
0.465835 0.234629 0
0.539755 0.219729 0
0.60937 0.194335 0
0.670516 0.154522 0
0.725727 0.0734675 0
0.771955 0 0
0.809409 0 0
0.827792 0 0
0.841619 0 0
0.849837 0 0
0.856395 0 0
0.862096 0 0
0.86773 0 0
0.883797 0 0
0.883888 0 0
0.892825 0 0
0.904191 0.148088 0
0.906965 0.176514 0
0.906965 0.176514 0
0.906965 0.176514 0
0.906965 0.176514 0
0 0.271111 0
0 0.26866 0
0 0.265592 0
0 0.262812 0
0 0.263172 0
0 0.267802 0
0 0.277005 0
0 0.287168 0
0 0.296906 0
0.190018 0.305299 0
0.296708 0.310746 0
0.389254 0.314084 0
0.471759 0.313406 0
0.551721 0.305971 0
0.625397 0.291849 0
0.689726 0.270982 0
0.746436 0.242664 0
0.790897 0.206144 0
0.825188 0.157129 0
0.849995 0.0713821 0
0.866215 0 0
0.875701 0 0
0.881733 0 0
0.886958 0 0
0.892108 0 0
0.897875 0.091068 0
0.904384 0.155092 0
0.912221 0.219196 0
0.923995 0.285323 0
0.926887 0.300558 0
0.926886 0.300577 0
0.926886 0.300577 0
0.926886 0.300577 0
0 0.324361 0
0 0.322193 0
0 0.319949 0
0 0.318042 0
0 0.319521 0
0 0.323384 0
0 0.332584 0
0 0.34533 0
0 0.357361 0
0.123845 0.368293 0
0.275754 0.378089 0
0.383712 0.385238 0
0.475004 0.388789 0
0.56194 0.385859 0
0.641141 0.37775 0
0.709201 0.364745 0
0.766319 0.347687 0
0.809364 0.327027 0
0.843643 0.301993 0
0.87081 0.271112 0
0.888773 0.243741 0
0.899627 0.224948 0
0.904985 0.220458 0
0.908656 0.227968 0
0.912832 0.24655 0
0.918012 0.269342 0
0.924439 0.293663 0
0.93313 0.329684 0
0.944422 0.379997 0
0.947242 0.392595 0
0.947242 0.392595 0
0.947242 0.392595 0
0.947242 0.392595 0
0 0.37104 0
0 0.369019 0
0 0.367786 0
0 0.368433 0
0 0.370438 0
0 0.374143 0
0 0.38391 0
0 0.400396 0
0 0.414568 0
0 0.427562 0
0.248048 0.437929 0
0.374412 0.447587 0
0.47457 0.454735 0
0.568686 0.456353 0
0.653267 0.452905 0
0.724919 0.445313 0
0.782143 0.43454 0
0.827223 0.420632 0
0.864928 0.402074 0
0.894034 0.379937 0
0.911606 0.360554 0
0.921683 0.346921 0
0.926831 0.342317 0
0.931407 0.345651 0
0.93586 0.357095 0
0.940777 0.371864 0
0.946357 0.390424 0
0.954442 0.41822 0
0.966316 0.459946 0
0.96955 0.470647 0
0.96955 0.470647 0
0.96955 0.470647 0
0.96955 0.470647 0
0 0.41046 0
0 0.408874 0
0 0.408641 0
0 0.411736 0
0 0.414755 0
0 0.420064 0
0 0.430665 0
0 0.448047 0
0 0.466234 0
0 0.481515 0
0.206012 0.493728 0
0.360558 0.50473 0
0.470872 0.514486 0
0.570727 0.519805 0
0.660987 0.5202 0
0.735778 0.516566 0
0.79406 0.510455 0
0.843968 0.500187 0
0.884201 0.486073 0
0.914251 0.469064 0
0.933879 0.452984 0
0.943972 0.441545 0
0.949462 0.43687 0
0.953865 0.438911 0
0.95848 0.447649 0
0.963573 0.459245 0
0.969244 0.473388 0
0.976311 0.496605 0
0.986418 0.533491 0
0.988929 0.543402 0
0.988929 0.543402 0
0.988929 0.543402 0
0.988929 0.543402 0
0 0.437944 0
0 0.436835 0
0 0.43696 0
0 0.441476 0
0 0.446936 0
0 0.457226 0
0 0.472249 0
0 0.492319 0
0 0.513642 0
0 0.530861 0
0.118286 0.545113 0
0.337749 0.557831 0
0.460507 0.57004 0
0.566834 0.579438 0
0.661761 0.583989 0
0.739825 0.583939 0
0.802374 0.580123 0
0.85613 0.572498 0
0.899194 0.561085 0
0.932735 0.546384 0
0.95447 0.532414 0
0.966589 0.522054 0
0.971426 0.518016 0
0.975528 0.519905 0
0.980165 0.527575 0
0.985056 0.537605 0
0.990176 0.550111 0
0.996389 0.57033 0
1 0.60139 0
1 0.610599 0
1 0.610599 0
1 0.610599 0
1 0.610599 0
0 0.458764 0
0 0.458025 0
0 0.45801 0
0 0.462403 0
0 0.470614 0
0 0.486806 0
0 0.505865 0
0 0.527466 0
0 0.551396 0
0 0.572773 0
0 0.590359 0
0.300408 0.60687 0
0.439949 0.623246 0
0.554906 0.637681 0
0.656368 0.646041 0
0.737601 0.648784 0
0.806664 0.64708 0
0.864475 0.640848 0
0.911887 0.630565 0
0.949416 0.617319 0
0.97386 0.604634 0
0.986521 0.595203 0
0.992001 0.591826 0
0.995863 0.593178 0
1 0.599765 0
1 0.608354 0
1 0.619308 0
1 0.636302 0
1 0.660097 0
1 0.666704 0
1 0.666704 0
1 0.666704 0
1 0.666704 0
0 0.473412 0
0 0.472925 0
0 0.472799 0
0 0.475533 0
0 0.486065 0
0 0.506844 0
0 0.527689 0
0 0.549058 0
0 0.573699 0
0 0.599414 0
0 0.622757 0
0.243246 0.645533 0
0.410339 0.666789 0
0.535228 0.684606 0
0.643898 0.69685 0
0.731229 0.703484 0
0.805217 0.703732 0
0.869025 0.699105 0
0.922589 0.689289 0
0.967763 0.676646 0
0.99351 0.665031 0
1 0.657091 0
1 0.654553 0
1 0.65613 0
1 0.660952 0
1 0.667392 0
1 0.676671 0
1 0.691557 0
1 0.71168 0
1 0.716831 0
1 0.716831 0
1 0.716831 0
1 0.716831 0
0 0.484001 0
0 0.483576 0
0 0.483387 0
0 0.485008 0
0 0.497165 0
0 0.519642 0
0 0.540098 0
0 0.560995 0
0 0.585274 0
0 0.611412 0
0 0.63844 0
0.177521 0.666164 0
0.381073 0.689927 0
0.513409 0.711675 0
0.627425 0.728577 0
0.720289 0.741166 0
0.799643 0.747267 0
0.869151 0.747657 0
0.928658 0.741049 0
0.980525 0.728708 0
1 0.717584 0
1 0.709866 0
1 0.708126 0
1 0.710164 0
1 0.714436 0
1 0.720274 0
1 0.728248 0
1 0.738867 0
1 0.752949 0
1 0.757634 0
1 0.757634 0
1 0.757634 0
1 0.757634 0
0 0.493266 0
0 0.492871 0
0 0.492666 0
0 0.493928 0
0 0.507224 0
0 0.529576 0
0 0.550584 0
0 0.573762 0
0 0.597733 0
0 0.622532 0
0 0.648791 0
0.117723 0.676305 0
0.359685 0.701345 0
0.495596 0.725332 0
0.611993 0.745398 0
0.70806 0.761842 0
0.790804 0.772238 0
0.865053 0.777193 0
0.931905 0.776192 0
0.986881 0.769451 0
1 0.760764 0
1 0.755449 0
1 0.75484 0
1 0.756371 0
1 0.759239 0
1 0.762688 0
1 0.767369 0
1 0.775248 0
1 0.784428 0
1 0.787177 0
1 0.787177 0
1 0.787177 0
1 0.787177 0
0 0.502547 0
0 0.50231 0
0 0.502231 0
0 0.503778 0
0 0.518027 0
0 0.540098 0
0 0.564612 0
0 0.589557 0
0 0.612519 0
0 0.636349 0
0 0.661557 0
0.136678 0.685983 0
0.361065 0.71079 0
0.495346 0.734864 0
0.610737 0.756042 0
0.706398 0.772734 0
0.788316 0.783725 0
0.860675 0.790884 0
0.928695 0.794482 0
0.987797 0.793343 0
1 0.789528 0
1 0.787039 0
1 0.786903 0
1 0.788162 0
1 0.789902 0
1 0.791513 0
1 0.793883 0
1 0.798387 0
1 0.804872 0
1 0.806765 0
1 0.806765 0
1 0.806765 0
1 0.806765 0
0 0.511475 0
0 0.511633 0
0 0.511981 0
0 0.514117 0
0 0.529227 0
0 0.552668 0
0 0.579813 0
0 0.603336 0
0 0.624844 0
0 0.647632 0
0 0.672241 0
0.193343 0.694664 0
0.377457 0.718184 0
0.506848 0.740892 0
0.619558 0.762957 0
0.713767 0.779875 0
0.792478 0.790702 0
0.860045 0.79895 0
0.924282 0.804096 0
0.983153 0.806191 0
1 0.806099 0
1 0.805793 0
1 0.806099 0
1 0.807736 0
1 0.809976 0
1 0.81187 0
1 0.813189 0
1 0.815141 0
1 0.819478 0
1 0.820809 0
1 0.820809 0
1 0.820809 0
1 0.820809 0
0 0.519975 0
0 0.520798 0
0 0.522128 0
0 0.524534 0
0 0.540225 0
0 0.567574 0
0 0.593619 0
0 0.614972 0
0 0.635706 0
0 0.657203 0
0 0.679718 0
0.240847 0.700971 0
0.398644 0.723239 0
0.522772 0.744713 0
0.632828 0.766293 0
0.724226 0.782594 0
0.799766 0.793436 0
0.861809 0.803022 0
0.920408 0.809306 0
0.975597 0.813376 0
1 0.815496 0
1 0.817033 0
1 0.817695 0
1 0.819495 0
1 0.821933 0
1 0.823877 0
1 0.824696 0
1 0.825092 0
1 0.827341 0
1 0.828262 0
1 0.828262 0
1 0.828262 0
1 0.828262 0
0 0.527816 0
0 0.529417 0
0 0.532177 0
0 0.535459 0
0 0.551141 0
0 0.581234 0
0 0.605467 0
0 0.626304 0
0 0.646923 0
0 0.667722 0
0 0.687785 0
0.284284 0.707669 0
0.424341 0.728893 0
0.543438 0.749261 0
0.650934 0.769278 0
0.738017 0.78434 0
0.808034 0.795133 0
0.864541 0.804629 0
0.916972 0.811786 0
0.969014 0.817196 0
1 0.820891 0
1 0.824048 0
1 0.825127 0
1 0.826478 0
1 0.828586 0
1 0.83012 0
1 0.83041 0
1 0.829882 0
1 0.831348 0
1 0.832081 0
1 0.832081 0
1 0.832081 0
1 0.832081 0
0 0.535507 0
0 0.538351 0
0 0.543034 0
0 0.548565 0
0 0.565615 0
0 0.593459 0
0 0.61616 0
0 0.637925 0
0 0.658411 0
0 0.678153 0
0.122581 0.696556 0
0.329394 0.715656 0
0.455797 0.735471 0
0.570025 0.755319 0
0.67229 0.77345 0
0.753158 0.786567 0
0.817935 0.796938 0
0.868562 0.805682 0
0.91591 0.812856 0
0.964733 0.818783 0
1 0.823304 0
1 0.826866 0
1 0.828143 0
1 0.829336 0
1 0.830649 0
1 0.831962 0
1 0.832217 0
1 0.831449 0
1 0.832184 0
1 0.832729 0
1 0.832729 0
1 0.832729 0
1 0.832729 0
0 0.54243 0
0 0.547469 0
0 0.553781 0
0 0.562652 0
0 0.579414 0
0 0.60465 0
0 0.627188 0
0 0.648679 0
0 0.668786 0
0 0.687506 0
0.218274 0.704666 0
0.369554 0.723455 0
0.488194 0.741832 0
0.597783 0.761689 0
0.692158 0.778164 0
0.766446 0.789678 0
0.825102 0.798988 0
0.872785 0.806997 0
0.917389 0.813939 0
0.964144 0.819872 0
1 0.824536 0
1 0.828109 0
1 0.829149 0
1 0.829984 0
1 0.830751 0
1 0.831348 0
1 0.831604 0
1 0.831177 0
1 0.831705 0
1 0.832098 0
1 0.832098 0
1 0.832098 0
1 0.832098 0
0 0.548041 0
0 0.55496 0
0 0.563416 0
0 0.574623 0
0 0.590213 0
0 0.614074 0
0 0.636654 0
0 0.657783 0
0 0.677296 0
0 0.695153 0
0.27332 0.712365 0
0.40585 0.730814 0
0.519151 0.74907 0
0.624966 0.767884 0
0.710486 0.782662 0
0.778871 0.792781 0
0.831415 0.801854 0
0.876464 0.808919 0
0.92162 0.815585 0
0.96754 0.820992 0
1 0.825278 0
1 0.828347 0
1 0.829149 0
1 0.829796 0
1 0.830325 0
1 0.830751 0
1 0.830989 0
1 0.83099 0
1 0.83186 0
1 0.8322 0
1 0.8322 0
1 0.8322 0
1 0.8322 0
0 0.55496 0
0 0.564101 0
0 0.57456 0
0 0.587432 0
0 0.602376 0
0 0.625436 0
0 0.647616 0
0 0.667851 0
0 0.686625 0
