luts/Log3G10RWG_StrongFilmD55wKc_Rec709.cube
# Created with Image Science
LUT_3D_SIZE 5
0.00118279 0.00112133 0.00102582
0.155696 0 0
0.605919 0 0
0.75088 0 0
0.756263 0 0
0 0.144167 0
0.171593 0.140712 0
0.68184 0 0
0.832497 0 0
0.86522 0 0
0 0.458764 0
0 0.551396 0
0.806664 0.64708 0
1 0.599765 0
1 0.666704 0
0 0.535507 0
0 0.658411 0
0.817935 0.796938 0
1 0.830649 0
1 0.832729 0
0 0.564261 0
0.0458916 0.701081 0
0.864011 0.809309 0
1 0.830461 0
1 0.832439 0
0.000260513 0 0.0590963
0.0998311 0 0.0675433
0.56922 0 0
0.754631 0 0
0.76391 0 0
0 0.12051 0.144143
0.162101 0.154414 0.142358
0.70536 0 0
0.826409 0 0
0.874071 0 0
0 0.441815 0
0 0.559338 0
0.836126 0.68271 0
1 0.592644 0
1 0.678488 0
0 0.53598 0
0 0.645523 0
0.778508 0.805061 0
1 0.832541 0
1 0.850294 0
0 0.592785 0.314363
0 0.734906 0.167517
0.836731 0.846246 0
1 0.870315 0
1 0.87322 0
0.0471811 0.0214527 0.411951
0.0395809 0.0172896 0.386286
0.549727 0 0.462432
0.755534 0 0.395082
0.783149 0 0.475093
0.0442042 0.0975772 0.47132
0.0815158 0.0374868 0.528667
0.648812 0 0.570959
0.817475 0 0.432324
0.920675 0 0.603976
0 0.485807 0.572048
0 0.558939 0.655208
0.775703 0.7399 0.685066
0.992198 0.667982 0.581402
1 0.731275 0.639372
0 0.599446 0.623843
0 0.675894 0.670954
0.738125 0.884755 0.685681
1 0.909017 0.549023
1 0.919203 0.6426
0 0.644442 0.762161
0 0.791535 0.756653
0.785306 0.903397 0.75045
0.991792 0.929316 0.721065
1 0.933069 0.715012
0.0846928 0.0393291 0.542758
0.0902813 0.0423609 0.568501
0.553104 0 0.647598
0.804657 0 0.648627
0.833911 0 0.673226
0.0891006 0.0702237 0.602941
0.103172 0.0527265 0.644233
0.601333 0 0.73508
0.853531 0 0.71235
0.934692 0 0.792568
0 0.472167 0.739621
0 0.508417 0.748867
0.68047 0.703053 0.820664
0.982829 0.601505 0.818475
0.997801 0.732561 0.819715
0 0.608979 0.766411
0 0.665058 0.778876
0.593541 0.887022 0.829629
0.98327 0.937731 0.868042
1 0.943477 0.875072
0 0.657814 0.776827
0 0.796084 0.813527
0.769892 0.909936 0.837719
0.979201 0.94589 0.873767
1 0.953046 0.881925
0.0903099 0.0423874 0.568631
0.104383 0.0539219 0.652857
0.671867 0 0.740073
0.87809 0 0.745692
0.894832 0 0.753612
0.0572825 0.180299 0.655323
0.00244045 0.241011 0.720004
0.715816 0.260425 0.794192
0.937134 0 0.795822
0.943227 0.128275 0.798832
0 0.516263 0.749679
0 0.635468 0.790658
0.755945 0.764141 0.820681
0.978833 0.748383 0.819776
0.996254 0.750143 0.820061
0 0.629189 0.769606
0 0.751086 0.800956
0.744407 0.905126 0.834605
0.978175 0.938272 0.868866
1 0.945013 0.876255
0 0.658233 0.776887
0 0.799374 0.814661
0.765093 0.909463 0.83768
0.97716 0.946014 0.875301
0.999996 0.953591 0.88262
