Luts/only_blue.cube
TITLE "Exported LUT"
LUT_3D_SIZE 17
DOMAIN_MIN 0.0 0.0 0.0
DOMAIN_MAX 1.0 1.0 1.0
0.000000 0.000000 0.000000
0.000000 0.000000 0.000000
0.000000 0.000000 0.000000
0.000000 0.000000 0.000000
0.000000 0.000000 0.000000
0.000000 0.000000 0.000000
0.000000 0.000000 0.000000
0.000000 0.000000 0.000000
0.000000 0.000000 0.000000
0.000000 0.000000 0.000000
0.000000 0.000000 0.000000
0.000000 0.000000 0.000000
0.000000 0.000000 0.000000
0.000000 0.000000 0.000000
0.000000 0.000000 0.000000
0.000000 0.000000 0.000000
0.000000 0.000000 0.000000
0.000000 0.000000 0.000000
0.000000 0.000000 0.000000
0.000000 0.000000 0.000000
0.000000 0.000000 0.000000
0.000000 0.000000 0.000000
0.000000 0.000000 0.000000
0.000000 0.000000 0.000000
0.000000 0.000000 0.000000
0.000000 0.000000 0.000000
0.000000 0.000000 0.000000
0.000000 0.000000 0.000000
0.000000 0.000000 0.000000
0.000000 0.000000 0.000000
0.000000 0.000000 0.000000
0.000000 0.000000 0.000000
0.000000 0.000000 0.000000
0.000000 0.000000 0.000000
0.000000 0.000000 0.000000
0.000000 0.000000 0.000000
0.000000 0.000000 0.000000
0.000000 0.000000 0.000000
0.000000 0.000000 0.000000
0.000000 0.000000 0.000000
0.000000 0.000000 0.000000
0.000000 0.000000 0.000000
0.000000 0.000000 0.000000
0.000000 0.000000 0.000000
0.000000 0.000000 0.000000
0.000000 0.000000 0.000000
0.000000 0.000000 0.000000
0.000000 0.000000 0.000000
0.000000 0.000000 0.000000
0.000000 0.000000 0.000000
0.000000 0.000000 0.000000
0.000000 0.000000 0.000000
0.000000 0.000000 0.000000
0.000000 0.000000 0.000000
0.000000 0.000000 0.000000
0.000000 0.000000 0.000000
0.000000 0.000000 0.000000
0.000000 0.000000 0.000000
0.000000 0.000000 0.000000
0.000000 0.000000 0.000000
0.000000 0.000000 0.000000
0.000000 0.000000 0.000000
0.000000 0.000000 0.000000
0.000000 0.000000 0.000000
0.000000 0.000000 0.000000
0.000000 0.000000 0.000000
0.000000 0.000000 0.000000
0.000000 0.000000 0.000000
0.000000 0.000000 0.000000
0.000000 0.000000 0.000000
0.000000 0.000000 0.000000
0.000000 0.000000 0.000000
0.000000 0.000000 0.000000
0.000000 0.000000 0.000000
0.000000 0.000000 0.000000
0.000000 0.000000 0.000000
0.000000 0.000000 0.000000
0.000000 0.000000 0.000000
0.000000 0.000000 0.000000
0.000000 0.000000 0.000000
0.000000 0.000000 0.000000
0.000000 0.000000 0.000000
0.000000 0.000000 0.000000
0.000000 0.000000 0.000000
0.000000 0.000000 0.000000
0.000000 0.000000 0.000000
0.000000 0.000000 0.000000
0.000000 0.000000 0.000000
0.000000 0.000000 0.000000
0.000000 0.000000 0.000000
0.000000 0.000000 0.000000
0.000000 0.000000 0.000000
0.000000 0.000000 0.000000
0.000000 0.000000 0.000000
0.000000 0.000000 0.000000
0.000000 0.000000 0.000000
0.000000 0.000000 0.000000
0.000000 0.000000 0.000000
0.000000 0.000000 0.000000
0.000000 0.000000 0.000000
0.000000 0.000000 0.000000
0.000000 0.000000 0.000000
0.000000 0.000000 0.000000
0.000000 0.000000 0.000000
0.000000 0.000000 0.000000
0.000000 0.000000 0.000000
0.000000 0.000000 0.000000
0.000000 0.000000 0.000000
0.000000 0.000000 0.000000
0.000000 0.000000 0.000000
0.000000 0.000000 0.000000
0.000000 0.000000 0.000000
0.000000 0.000000 0.000000
0.000000 0.000000 0.000000
0.000000 0.000000 0.000000
0.000000 0.000000 0.000000
0.000000 0.000000 0.000000
0.000000 0.000000 0.000000
0.000000 0.000000 0.000000
0.000000 0.000000 0.000000
0.000000 0.000000 0.000000
0.000000 0.000000 0.000000
0.000000 0.000000 0.000000
0.000000 0.000000 0.000000
0.000000 0.000000 0.000000
0.000000 0.000000 0.000000
0.000000 0.000000 0.000000
0.000000 0.000000 0.000000
0.000000 0.000000 0.000000
0.000000 0.000000 0.000000
0.000000 0.000000 0.000000
0.000000 0.000000 0.000000
0.000000 0.000000 0.000000
0.000000 0.000000 0.000000
0.000000 0.000000 0.000000
0.000000 0.000000 0.000000
0.000000 0.000000 0.000000
0.000000 0.000000 0.000000
0.000000 0.000000 0.000000
0.000000 0.000000 0.000000
0.000000 0.000000 0.000000
0.000000 0.000000 0.000000
0.000000 0.000000 0.000000
0.000000 0.000000 0.000000
0.000000 0.000000 0.000000
0.000000 0.000000 0.000000
0.000000 0.000000 0.000000
0.000000 0.000000 0.000000
0.000000 0.000000 0.000000
0.000000 0.000000 0.000000
0.000000 0.000000 0.000000
0.000000 0.000000 0.000000
0.000000 0.000000 0.000000
0.000000 0.000000 0.000000
0.000000 0.000000 0.000000
0.000000 0.000000 0.000000
0.000000 0.000000 0.000000
0.000000 0.000000 0.000000
0.000000 0.000000 0.000000
0.000000 0.000000 0.000000
0.000000 0.000000 0.000000
0.000000 0.000000 0.000000
0.000000 0.000000 0.000000
0.000000 0.000000 0.000000
0.000000 0.000000 0.000000
0.000000 0.000000 0.000000
0.000000 0.000000 0.000000
0.000000 0.000000 0.000000
0.000000 0.000000 0.000000
0.000000 0.000000 0.000000
0.000000 0.000000 0.000000
0.000000 0.000000 0.000000
0.000000 0.000000 0.000000
0.000000 0.000000 0.000000
0.000000 0.000000 0.000000
0.000000 0.000000 0.000000
0.000000 0.000000 0.000000
0.000000 0.000000 0.000000
0.000000 0.000000 0.000000
0.000000 0.000000 0.000000
0.000000 0.000000 0.000000
0.000000 0.000000 0.000000
0.000000 0.000000 0.000000
0.000000 0.000000 0.000000
0.000000 0.000000 0.000000
0.000000 0.000000 0.000000
0.000000 0.000000 0.000000
0.000000 0.000000 0.000000
0.000000 0.000000 0.000000
0.000000 0.000000 0.000000
0.000000 0.000000 0.000000
0.000000 0.000000 0.000000
0.000000 0.000000 0.000000
0.000000 0.000000 0.000000
0.000000 0.000000 0.000000
0.000000 0.000000 0.000000
0.000000 0.000000 0.000000
0.000000 0.000000 0.000000
0.000000 0.000000 0.000000
0.000000 0.000000 0.000000
0.000000 0.000000 0.000000
0.000000 0.000000 0.000000
0.000000 0.000000 0.000000
0.000000 0.000000 0.000000
0.000000 0.000000 0.000000
0.000000 0.000000 0.000000
0.000000 0.000000 0.000000
0.000000 0.000000 0.000000
0.000000 0.000000 0.000000
0.000000 0.000000 0.000000
0.000000 0.000000 0.000000
0.000000 0.000000 0.000000
0.000000 0.000000 0.000000
0.000000 0.000000 0.000000
0.000000 0.000000 0.000000
0.000000 0.000000 0.000000
0.000000 0.000000 0.000000
0.000000 0.000000 0.000000
0.000000 0.000000 0.000000
0.000000 0.000000 0.000000
0.000000 0.000000 0.000000
0.000000 0.000000 0.000000
0.000000 0.000000 0.000000
0.000000 0.000000 0.000000
0.000000 0.000000 0.000000
0.000000 0.000000 0.000000
0.000000 0.000000 0.000000
0.000000 0.000000 0.000000
0.000000 0.000000 0.000000
0.000000 0.000000 0.000000
0.000000 0.000000 0.000000
0.000000 0.000000 0.000000
0.000000 0.000000 0.000000
0.000000 0.000000 0.000000
0.000000 0.000000 0.000000
0.000000 0.000000 0.000000
0.000000 0.000000 0.000000
0.000000 0.000000 0.000000
0.000000 0.000000 0.000000
0.000000 0.000000 0.000000
0.000000 0.000000 0.000000
0.000000 0.000000 0.000000
0.000000 0.000000 0.000000
0.000000 0.000000 0.000000
0.000000 0.000000 0.000000
0.000000 0.000000 0.000000
0.000000 0.000000 0.000000
0.000000 0.000000 0.000000
0.000000 0.000000 0.000000
0.000000 0.000000 0.000000
0.000000 0.000000 0.000000
0.000000 0.000000 0.000000
0.000000 0.000000 0.000000
0.000000 0.000000 0.000000
0.000000 0.000000 0.000000
0.000000 0.000000 0.000000
0.000000 0.000000 0.000000
0.000000 0.000000 0.000000
0.000000 0.000000 0.000000
0.000000 0.000000 0.000000
0.000000 0.000000 0.000000
0.000000 0.000000 0.000000
0.000000 0.000000 0.000000
0.000000 0.000000 0.000000
0.000000 0.000000 0.000000
0.000000 0.000000 0.000000
0.000000 0.000000 0.000000
0.000000 0.000000 0.000000
0.000000 0.000000 0.000000
0.000000 0.000000 0.000000
0.000000 0.000000 0.000000
0.000000 0.000000 0.000000
0.000000 0.000000 0.000000
0.000000 0.000000 0.000000
0.000000 0.000000 0.000000
0.000000 0.000000 0.000000
0.000000 0.000000 0.000000
0.000000 0.000000 0.000000
0.000000 0.000000 0.000000
0.000000 0.000000 0.000000
0.000000 0.000000 0.000000
0.000000 0.000000 0.000000
0.000000 0.000000 0.000000
0.000000 0.000000 0.000000
0.000000 0.000000 0.000000
0.000000 0.000000 0.000000
0.000000 0.000000 0.000000
0.000000 0.000000 0.000000
0.000000 0.000000 0.000000
0.000000 0.000000 0.000000
0.000000 0.000000 0.000000
0.000000 0.000000 0.000000
0.000000 0.000000 0.000000
0.000000 0.000000 0.000000
0.000000 0.000000 0.000000
0.000000 0.000000 0.000000
0.000000 0.000000 0.000000
0.000000 0.000000 0.000000
0.000000 0.000000 0.000000
0.000000 0.000000 0.000000
0.000000 0.000000 0.000000
0.000000 0.000000 0.000000
0.000000 0.000000 0.000000
0.000000 0.000000 0.000000
0.000000 0.000000 0.000000
0.000000 0.000000 0.000000
0.000000 0.000000 0.000000
0.000000 0.000000 0.000000
0.000000 0.000000 0.000000
0.000000 0.000000 0.000000
0.000000 0.000000 0.000000
0.000000 0.000000 0.000000
0.000000 0.000000 0.000000
0.000000 0.000000 0.000000
0.000000 0.000000 0.000000
0.000000 0.000000 0.000000
0.000000 0.000000 0.000000
0.000000 0.000000 0.000000
0.000000 0.000000 0.000000
0.000000 0.000000 0.000000
0.000000 0.000000 0.000000
0.000000 0.000000 0.000000
0.000000 0.000000 0.000000
0.000000 0.000000 0.000000
0.000000 0.000000 0.000000
0.000000 0.000000 0.000000
0.000000 0.000000 0.000000
0.000000 0.000000 0.000000
0.000000 0.000000 0.000000
0.000000 0.000000 0.000000
0.000000 0.000000 0.000000
0.000000 0.000000 0.000000
0.000000 0.000000 0.000000
0.000000 0.000000 0.000000
0.000000 0.000000 0.000000
0.000000 0.000000 0.000000
0.000000 0.000000 0.000000
0.000000 0.000000 0.000000
0.000000 0.000000 0.000000
0.000000 0.000000 0.000000
0.000000 0.000000 0.000000
0.000000 0.000000 0.000000
0.000000 0.000000 0.000000
0.000000 0.000000 0.000000
0.000000 0.000000 0.000000
0.000000 0.000000 0.000000
0.000000 0.000000 0.000000
0.000000 0.000000 0.000000
0.000000 0.000000 0.000000
0.000000 0.000000 0.000000
0.000000 0.000000 0.000000
0.000000 0.000000 0.000000
0.000000 0.000000 0.000000
0.000000 0.000000 0.000000
0.000000 0.000000 0.000000
0.000000 0.000000 0.000000
0.000000 0.000000 0.000000
0.000000 0.000000 0.000000
0.000000 0.000000 0.000000
0.000000 0.000000 0.000000
0.000000 0.000000 0.000000
0.000000 0.000000 0.000000
0.000000 0.000000 0.000000
0.000000 0.000000 0.000000
0.000000 0.000000 0.000000
0.000000 0.000000 0.000000
0.000000 0.000000 0.000000
0.000000 0.000000 0.000000
0.000000 0.000000 0.000000
0.000000 0.000000 0.000000
0.000000 0.000000 0.000000
0.000000 0.000000 0.000000
0.000000 0.000000 0.000000
0.000000 0.000000 0.000000
0.000000 0.000000 0.000000
0.000000 0.000000 0.000000
0.000000 0.000000 0.000000
0.000000 0.000000 0.000000
0.000000 0.000000 0.000000
0.000000 0.000000 0.000000
0.000000 0.000000 0.000000
0.000000 0.000000 0.000000
0.000000 0.000000 0.000000
0.000000 0.000000 0.000000
0.000000 0.000000 0.000000
0.000000 0.000000 0.000000
0.000000 0.000000 0.000000
0.000000 0.000000 0.000000
0.000000 0.000000 0.000000
0.000000 0.000000 0.000000
0.000000 0.000000 0.000000
0.000000 0.000000 0.000000
0.000000 0.000000 0.000000
0.000000 0.000000 0.000000
0.000000 0.000000 0.000000
0.000000 0.000000 0.000000
0.000000 0.000000 0.000000
0.000000 0.000000 0.000000
0.000000 0.000000 0.000000
0.000000 0.000000 0.000000
0.000000 0.000000 0.000000
0.000000 0.000000 0.000000
0.000000 0.000000 0.000000
0.000000 0.000000 0.000000
0.000000 0.000000 0.000000
0.000000 0.000000 0.000000
0.000000 0.000000 0.000000
0.000000 0.000000 0.000000
0.000000 0.000000 0.000000
0.000000 0.000000 0.000000
0.000000 0.000000 0.000000
0.000000 0.000000 0.000000
0.000000 0.000000 0.000000
0.000000 0.000000 0.000000
0.000000 0.000000 0.000000
0.000000 0.000000 0.000000
0.000000 0.000000 0.000000
0.000000 0.000000 0.000000
0.000000 0.000000 0.000000
0.000000 0.000000 0.000000
0.000000 0.000000 0.000000
0.000000 0.000000 0.000000
0.000000 0.000000 0.000000
0.000000 0.000000 0.000000
0.000000 0.000000 0.000000
0.000000 0.000000 0.000000
0.000000 0.000000 0.000000
0.000000 0.000000 0.000000
0.000000 0.000000 0.000000
0.000000 0.000000 0.000000
0.000000 0.000000 0.000000
0.000000 0.000000 0.000000
0.000000 0.000000 0.000000
0.000000 0.000000 0.000000
0.000000 0.000000 0.000000
0.000000 0.000000 0.000000
0.000000 0.000000 0.000000
0.000000 0.000000 0.000000
0.000000 0.000000 0.000000
0.000000 0.000000 0.000000
0.000000 0.000000 0.000000
0.000000 0.000000 0.000000
0.000000 0.000000 0.000000
0.000000 0.000000 0.000000
0.000000 0.000000 0.000000
0.000000 0.000000 0.000000
0.000000 0.000000 0.000000
0.000000 0.000000 0.000000
0.000000 0.000000 0.000000
0.000000 0.000000 0.000000
0.000000 0.000000 0.000000
0.000000 0.000000 0.000000
0.000000 0.000000 0.000000
0.000000 0.000000 0.000000
0.000000 0.000000 0.000000
0.000000 0.000000 0.000000
0.000000 0.000000 0.000000
0.000000 0.000000 0.000000
0.000000 0.000000 0.000000
0.000000 0.000000 0.000000
0.000000 0.000000 0.000000
0.000000 0.000000 0.000000
0.000000 0.000000 0.000000
0.000000 0.000000 0.000000
0.000000 0.000000 0.000000
0.000000 0.000000 0.000000
0.000000 0.000000 0.000000
0.000000 0.000000 0.000000
0.000000 0.000000 0.000000
0.000000 0.000000 0.000000
0.000000 0.000000 0.000000
0.000000 0.000000 0.000000
0.000000 0.000000 0.000000
0.000000 0.000000 0.000000
0.000000 0.000000 0.000000
0.000000 0.000000 0.000000
0.000000 0.000000 0.000000
0.000000 0.000000 0.000000
0.000000 0.000000 0.000000
0.000000 0.000000 0.000000
0.000000 0.000000 0.000000
0.000000 0.000000 0.000000
0.000000 0.000000 0.000000
0.000000 0.000000 0.000000
0.000000 0.000000 0.000000
0.000000 0.000000 0.000000
0.000000 0.000000 0.000000
0.000000 0.000000 0.000000
0.000000 0.000000 0.000000
0.000000 0.000000 0.000000
0.000000 0.000000 0.000000
0.000000 0.000000 0.000000
0.000000 0.000000 0.000000
0.000000 0.000000 0.000000
0.000000 0.000000 0.000000
0.000000 0.000000 0.000000
0.000000 0.000000 0.000000
0.000000 0.000000 0.000000
0.000000 0.000000 0.000000
0.000000 0.000000 0.000000
0.000000 0.000000 0.000000
0.000000 0.000000 0.000000
0.000000 0.000000 0.000000
0.000000 0.000000 0.000000
0.000000 0.000000 0.000000
0.000000 0.000000 0.000000
0.000000 0.000000 0.000000
0.000000 0.000000 0.000000
0.000000 0.000000 0.000000
0.000000 0.000000 0.000000
0.000000 0.000000 0.000000
0.000000 0.000000 0.000000
0.000000 0.000000 0.000000
0.000000 0.000000 0.000000
0.000000 0.000000 0.000000
0.000000 0.000000 0.000000
0.000000 0.000000 0.000000
0.000000 0.000000 0.000000
0.000000 0.000000 0.000000
0.000000 0.000000 0.000000
0.000000 0.000000 0.000000
0.000000 0.000000 0.000000
0.000000 0.000000 0.000000
0.000000 0.000000 0.000000
0.000000 0.000000 0.000000
0.000000 0.000000 0.000000
0.000000 0.000000 0.000000
0.000000 0.000000 0.000000
0.000000 0.000000 0.000000
0.000000 0.000000 0.000000
0.000000 0.000000 0.000000
0.000000 0.000000 0.000000
0.000000 0.000000 0.000000
0.000000 0.000000 0.000000
0.000000 0.000000 0.000000
0.000000 0.000000 0.000000
0.000000 0.000000 0.000000
0.000000 0.000000 0.000000
0.000000 0.000000 0.000000
0.000000 0.000000 0.000000
0.000000 0.000000 0.000000
0.000000 0.000000 0.000000
0.000000 0.000000 0.000000
0.000000 0.000000 0.000000
0.000000 0.000000 0.000000
0.000000 0.000000 0.000000
0.000000 0.000000 0.000000
0.000000 0.000000 0.000000
0.000000 0.000000 0.000000
0.000000 0.000000 0.000000
0.000000 0.000000 0.000000
0.000000 0.000000 0.000000
0.000000 0.000000 0.000000
0.000000 0.000000 0.000000
0.000000 0.000000 0.000000
0.000000 0.000000 0.000000
0.000000 0.000000 0.000000
0.000000 0.000000 0.000000
0.000000 0.000000 0.000000
0.000000 0.000000 0.000000
0.000000 0.000000 0.000000
0.000000 0.000000 0.000000
0.000000 0.000000 0.000000
0.000000 0.000000 0.000000
0.000000 0.000000 0.000000
0.000000 0.000000 0.000000
0.000000 0.000000 0.000000
0.000000 0.000000 0.000000
0.000000 0.000000 0.000000
0.000000 0.000000 0.000000
0.000000 0.000000 0.000000
0.000000 0.000000 0.000000
0.000000 0.000000 0.000000
0.000000 0.000000 0.000000
0.000000 0.000000 0.000000
0.000000 0.000000 0.000000
0.000000 0.000000 0.000000
0.000000 0.000000 0.000000
0.000000 0.000000 0.110395
0.000000 0.000000 0.110395
0.000000 0.000000 0.110395
0.000000 0.000000 0.110395
0.000000 0.000000 0.110395
0.000000 0.000000 0.110395
0.000000 0.000000 0.110395
0.000000 0.000000 0.110395
0.000000 0.000000 0.110395
0.000000 0.000000 0.110395
0.000000 0.000000 0.110395
0.000000 0.000000 0.110395
0.000000 0.000000 0.110395
0.000000 0.000000 0.110395
0.000000 0.000000 0.110395
0.000000 0.000000 0.110395
0.000000 0.000000 0.110395
0.000000 0.000000 0.110395
0.000000 0.000000 0.110395
0.000000 0.000000 0.110395
0.000000 0.000000 0.110395
0.000000 0.000000 0.110395
0.000000 0.000000 0.110395
0.000000 0.000000 0.110395
0.000000 0.000000 0.110395
0.000000 0.000000 0.110395
0.000000 0.000000 0.110395
0.000000 0.000000 0.110395
0.000000 0.000000 0.110395
0.000000 0.000000 0.110395
0.000000 0.000000 0.110395
0.000000 0.000000 0.110395
0.000000 0.000000 0.110395
0.000000 0.000000 0.110395
0.000000 0.000000 0.110395
0.000000 0.000000 0.110395
0.000000 0.000000 0.110395
0.000000 0.000000 0.110395
0.000000 0.000000 0.110395
0.000000 0.000000 0.110395
0.000000 0.000000 0.110395
0.000000 0.000000 0.110395
0.000000 0.000000 0.110395
0.000000 0.000000 0.110395
0.000000 0.000000 0.110395
0.000000 0.000000 0.110395
0.000000 0.000000 0.110395
0.000000 0.000000 0.110395
0.000000 0.000000 0.110395
0.000000 0.000000 0.110395
0.000000 0.000000 0.110395
0.000000 0.000000 0.110395
0.000000 0.000000 0.110395
0.000000 0.000000 0.110395
0.000000 0.000000 0.110395
0.000000 0.000000 0.110395
0.000000 0.000000 0.110395
0.000000 0.000000 0.110395
0.000000 0.000000 0.110395
0.000000 0.000000 0.110395
0.000000 0.000000 0.110395
0.000000 0.000000 0.110395
0.000000 0.000000 0.110395
0.000000 0.000000 0.110395
0.000000 0.000000 0.110395
0.000000 0.000000 0.110395
0.000000 0.000000 0.110395
0.000000 0.000000 0.110395
0.000000 0.000000 0.110395
0.000000 0.000000 0.110395
0.000000 0.000000 0.110395
0.000000 0.000000 0.110395
0.000000 0.000000 0.110395
0.000000 0.000000 0.110395
0.000000 0.000000 0.110395
0.000000 0.000000 0.110395
0.000000 0.000000 0.110395
0.000000 0.000000 0.110395
0.000000 0.000000 0.110395
0.000000 0.000000 0.110395
0.000000 0.000000 0.110395
0.000000 0.000000 0.110395
0.000000 0.000000 0.110395
0.000000 0.000000 0.110395
0.000000 0.000000 0.110395
0.000000 0.000000 0.110395
0.000000 0.000000 0.110395
0.000000 0.000000 0.110395
0.000000 0.000000 0.110395
0.000000 0.000000 0.110395
0.000000 0.000000 0.110395
0.000000 0.000000 0.110395
0.000000 0.000000 0.110395
0.000000 0.000000 0.110395
0.000000 0.000000 0.110395
0.000000 0.000000 0.110395
0.000000 0.000000 0.110395
0.000000 0.000000 0.110395
0.000000 0.000000 0.110395
0.000000 0.000000 0.110395
0.000000 0.000000 0.110395
0.000000 0.000000 0.110395
0.000000 0.000000 0.110395
0.000000 0.000000 0.110395
0.000000 0.000000 0.110395
0.000000 0.000000 0.110395
0.000000 0.000000 0.110395
0.000000 0.000000 0.110395
0.000000 0.000000 0.110395
0.000000 0.000000 0.110395
0.000000 0.000000 0.110395
0.000000 0.000000 0.110395
0.000000 0.000000 0.110395
0.000000 0.000000 0.110395
0.000000 0.000000 0.110395
0.000000 0.000000 0.110395
0.000000 0.000000 0.110395
0.000000 0.000000 0.110395
0.000000 0.000000 0.110395
0.000000 0.000000 0.110395
0.000000 0.000000 0.110395
0.000000 0.000000 0.110395
0.000000 0.000000 0.110395
0.000000 0.000000 0.110395
0.000000 0.000000 0.110395
0.000000 0.000000 0.110395
0.000000 0.000000 0.110395
0.000000 0.000000 0.110395
0.000000 0.000000 0.110395
0.000000 0.000000 0.110395
0.000000 0.000000 0.110395
0.000000 0.000000 0.110395
0.000000 0.000000 0.110395
0.000000 0.000000 0.110395
0.000000 0.000000 0.110395
0.000000 0.000000 0.110395
0.000000 0.000000 0.110395
0.000000 0.000000 0.110395
0.000000 0.000000 0.110395
0.000000 0.000000 0.110395
0.000000 0.000000 0.110395
0.000000 0.000000 0.110395
0.000000 0.000000 0.110395
0.000000 0.000000 0.110395
0.000000 0.000000 0.110395
0.000000 0.000000 0.110395
0.000000 0.000000 0.110395
0.000000 0.000000 0.110395
0.000000 0.000000 0.110395
0.000000 0.000000 0.110395
0.000000 0.000000 0.110395
0.000000 0.000000 0.110395
0.000000 0.000000 0.110395
0.000000 0.000000 0.110395
0.000000 0.000000 0.110395
0.000000 0.000000 0.110395
0.000000 0.000000 0.110395
0.000000 0.000000 0.110395
0.000000 0.000000 0.110395
0.000000 0.000000 0.110395
0.000000 0.000000 0.110395
0.000000 0.000000 0.110395
0.000000 0.000000 0.110395
0.000000 0.000000 0.110395
0.000000 0.000000 0.110395
0.000000 0.000000 0.110395
0.000000 0.000000 0.110395
0.000000 0.000000 0.110395
0.000000 0.000000 0.110395
0.000000 0.000000 0.110395
0.000000 0.000000 0.110395
0.000000 0.000000 0.110395
0.000000 0.000000 0.110395
0.000000 0.000000 0.110395
0.000000 0.000000 0.110395
0.000000 0.000000 0.110395
0.000000 0.000000 0.110395
0.000000 0.000000 0.110395
0.000000 0.000000 0.110395
0.000000 0.000000 0.110395
0.000000 0.000000 0.110395
0.000000 0.000000 0.110395
0.000000 0.000000 0.110395
0.000000 0.000000 0.110395
0.000000 0.000000 0.110395
0.000000 0.000000 0.110395
0.000000 0.000000 0.110395
0.000000 0.000000 0.110395
0.000000 0.000000 0.110395
0.000000 0.000000 0.110395
0.000000 0.000000 0.110395
0.000000 0.000000 0.110395
0.000000 0.000000 0.110395
0.000000 0.000000 0.110395
0.000000 0.000000 0.110395
0.000000 0.000000 0.110395
0.000000 0.000000 0.110395
0.000000 0.000000 0.110395
0.000000 0.000000 0.110395
0.000000 0.000000 0.110395
0.000000 0.000000 0.110395
0.000000 0.000000 0.110395
0.000000 0.000000 0.110395
0.000000 0.000000 0.110395
0.000000 0.000000 0.110395
0.000000 0.000000 0.110395
0.000000 0.000000 0.110395
0.000000 0.000000 0.110395
0.000000 0.000000 0.110395
0.000000 0.000000 0.110395
0.000000 0.000000 0.110395
0.000000 0.000000 0.110395
0.000000 0.000000 0.110395
0.000000 0.000000 0.110395
0.000000 0.000000 0.110395
0.000000 0.000000 0.110395
0.000000 0.000000 0.110395
0.000000 0.000000 0.110395
0.000000 0.000000 0.110395
0.000000 0.000000 0.110395
0.000000 0.000000 0.110395
0.000000 0.000000 0.110395
0.000000 0.000000 0.110395
0.000000 0.000000 0.110395
0.000000 0.000000 0.110395
0.000000 0.000000 0.110395
0.000000 0.000000 0.110395
0.000000 0.000000 0.110395
0.000000 0.000000 0.110395
0.000000 0.000000 0.110395
0.000000 0.000000 0.110395
0.000000 0.000000 0.110395
0.000000 0.000000 0.110395
0.000000 0.000000 0.110395
0.000000 0.000000 0.110395
0.000000 0.000000 0.110395
0.000000 0.000000 0.110395
0.000000 0.000000 0.110395
0.000000 0.000000 0.110395
0.000000 0.000000 0.110395
0.000000 0.000000 0.110395
0.000000 0.000000 0.110395
0.000000 0.000000 0.110395
0.000000 0.000000 0.110395
0.000000 0.000000 0.110395
0.000000 0.000000 0.110395
0.000000 0.000000 0.110395
0.000000 0.000000 0.110395
0.000000 0.000000 0.110395
0.000000 0.000000 0.110395
0.000000 0.000000 0.110395
0.000000 0.000000 0.110395
0.000000 0.000000 0.110395
0.000000 0.000000 0.110395
0.000000 0.000000 0.110395
0.000000 0.000000 0.110395
0.000000 0.000000 0.110395
0.000000 0.000000 0.110395
0.000000 0.000000 0.110395
0.000000 0.000000 0.110395
0.000000 0.000000 0.110395
0.000000 0.000000 0.110395
0.000000 0.000000 0.110395
0.000000 0.000000 0.110395
0.000000 0.000000 0.110395
0.000000 0.000000 0.110395
0.000000 0.000000 0.110395
0.000000 0.000000 0.110395
0.000000 0.000000 0.110395
0.000000 0.000000 0.110395
0.000000 0.000000 0.110395
0.000000 0.000000 0.110395
0.000000 0.000000 0.110395
0.000000 0.000000 0.110395
0.000000 0.000000 0.110395
0.000000 0.000000 0.110395
0.000000 0.000000 0.110395
0.000000 0.000000 0.110395
0.000000 0.000000 0.110395
0.000000 0.000000 0.110395
0.000000 0.000000 0.110395
0.000000 0.000000 0.110395
0.000000 0.000000 0.110395
0.000000 0.000000 0.110395
0.000000 0.000000 0.110395
0.000000 0.000000 0.110395
0.000000 0.000000 0.110395
0.000000 0.000000 0.110395
0.000000 0.000000 0.110395
0.000000 0.000000 0.181896
0.000000 0.000000 0.181896
0.000000 0.000000 0.181896
0.000000 0.000000 0.181896
0.000000 0.000000 0.181896
0.000000 0.000000 0.181896
0.000000 0.000000 0.181896
0.000000 0.000000 0.181896
0.000000 0.000000 0.181896
0.000000 0.000000 0.181896
0.000000 0.000000 0.181896
0.000000 0.000000 0.181896
0.000000 0.000000 0.181896
0.000000 0.000000 0.181896
0.000000 0.000000 0.181896
0.000000 0.000000 0.181896
0.000000 0.000000 0.181896
0.000000 0.000000 0.181896
