Luts/only_red.cube
TITLE "Exported LUT"
LUT_3D_SIZE 17
DOMAIN_MIN 0.0 0.0 0.0
DOMAIN_MAX 1.0 1.0 1.0
0.000000 0.000000 0.000000
0.000000 0.000000 0.000000
0.110395 0.000000 0.000000
0.181896 0.000000 0.000000
0.249261 0.000000 0.000000
0.307164 0.000000 0.000000
0.366368 0.000000 0.000000
0.430851 0.000000 0.000000
0.493821 0.000000 0.000000
0.555647 0.000000 0.000000
0.619733 0.000000 0.000000
0.679549 0.000000 0.000000
0.738778 0.000000 0.000000
0.804466 0.000000 0.000000
0.864273 0.000000 0.000000
0.927328 0.000000 0.000000
0.981980 0.000000 0.000000
0.000000 0.000000 0.000000
0.000000 0.000000 0.000000
0.110395 0.000000 0.000000
0.181896 0.000000 0.000000
0.249261 0.000000 0.000000
0.307164 0.000000 0.000000
0.366368 0.000000 0.000000
0.430851 0.000000 0.000000
0.493821 0.000000 0.000000
0.555647 0.000000 0.000000
0.619733 0.000000 0.000000
0.679549 0.000000 0.000000
0.738778 0.000000 0.000000
0.804466 0.000000 0.000000
0.864273 0.000000 0.000000
0.927328 0.000000 0.000000
0.981980 0.000000 0.000000
0.000000 0.000000 0.000000
0.000000 0.000000 0.000000
0.110395 0.000000 0.000000
0.181896 0.000000 0.000000
0.249261 0.000000 0.000000
0.307164 0.000000 0.000000
0.366368 0.000000 0.000000
0.430851 0.000000 0.000000
0.493821 0.000000 0.000000
0.555647 0.000000 0.000000
0.619733 0.000000 0.000000
0.679549 0.000000 0.000000
0.738778 0.000000 0.000000
0.804466 0.000000 0.000000
0.864273 0.000000 0.000000
0.927328 0.000000 0.000000
0.981980 0.000000 0.000000
0.000000 0.000000 0.000000
0.000000 0.000000 0.000000
0.110395 0.000000 0.000000
0.181896 0.000000 0.000000
0.249261 0.000000 0.000000
0.307164 0.000000 0.000000
0.366368 0.000000 0.000000
0.430851 0.000000 0.000000
0.493821 0.000000 0.000000
0.555647 0.000000 0.000000
0.619733 0.000000 0.000000
0.679549 0.000000 0.000000
0.738778 0.000000 0.000000
0.804466 0.000000 0.000000
0.864273 0.000000 0.000000
0.927328 0.000000 0.000000
0.981980 0.000000 0.000000
0.000000 0.000000 0.000000
0.000000 0.000000 0.000000
0.110395 0.000000 0.000000
0.181896 0.000000 0.000000
0.249261 0.000000 0.000000
0.307164 0.000000 0.000000
0.366368 0.000000 0.000000
0.430851 0.000000 0.000000
0.493821 0.000000 0.000000
0.555647 0.000000 0.000000
0.619733 0.000000 0.000000
0.679549 0.000000 0.000000
0.738778 0.000000 0.000000
0.804466 0.000000 0.000000
0.864273 0.000000 0.000000
0.927328 0.000000 0.000000
0.981980 0.000000 0.000000
0.000000 0.000000 0.000000
0.000000 0.000000 0.000000
0.110395 0.000000 0.000000
0.181896 0.000000 0.000000
0.249261 0.000000 0.000000
0.307164 0.000000 0.000000
0.366368 0.000000 0.000000
0.430851 0.000000 0.000000
0.493821 0.000000 0.000000
0.555647 0.000000 0.000000
0.619733 0.000000 0.000000
0.679549 0.000000 0.000000
0.738778 0.000000 0.000000
0.804466 0.000000 0.000000
0.864273 0.000000 0.000000
0.927328 0.000000 0.000000
0.981980 0.000000 0.000000
0.000000 0.000000 0.000000
0.000000 0.000000 0.000000
0.110395 0.000000 0.000000
0.181896 0.000000 0.000000
0.249261 0.000000 0.000000
0.307164 0.000000 0.000000
0.366368 0.000000 0.000000
0.430851 0.000000 0.000000
0.493821 0.000000 0.000000
0.555647 0.000000 0.000000
0.619733 0.000000 0.000000
0.679549 0.000000 0.000000
0.738778 0.000000 0.000000
0.804466 0.000000 0.000000
0.864273 0.000000 0.000000
0.927328 0.000000 0.000000
0.981980 0.000000 0.000000
0.000000 0.000000 0.000000
0.000000 0.000000 0.000000
0.110395 0.000000 0.000000
0.181896 0.000000 0.000000
0.249261 0.000000 0.000000
0.307164 0.000000 0.000000
0.366368 0.000000 0.000000
0.430851 0.000000 0.000000
0.493821 0.000000 0.000000
0.555647 0.000000 0.000000
0.619733 0.000000 0.000000
0.679549 0.000000 0.000000
0.738778 0.000000 0.000000
0.804466 0.000000 0.000000
0.864273 0.000000 0.000000
0.927328 0.000000 0.000000
0.981980 0.000000 0.000000
0.000000 0.000000 0.000000
0.000000 0.000000 0.000000
0.110395 0.000000 0.000000
0.181896 0.000000 0.000000
0.249261 0.000000 0.000000
0.307164 0.000000 0.000000
0.366368 0.000000 0.000000
0.430851 0.000000 0.000000
0.493821 0.000000 0.000000
0.555647 0.000000 0.000000
0.619733 0.000000 0.000000
0.679549 0.000000 0.000000
0.738778 0.000000 0.000000
0.804466 0.000000 0.000000
0.864273 0.000000 0.000000
0.927328 0.000000 0.000000
0.981980 0.000000 0.000000
0.000000 0.000000 0.000000
0.000000 0.000000 0.000000
0.110395 0.000000 0.000000
0.181896 0.000000 0.000000
0.249261 0.000000 0.000000
0.307164 0.000000 0.000000
0.366368 0.000000 0.000000
0.430851 0.000000 0.000000
0.493821 0.000000 0.000000
0.555647 0.000000 0.000000
0.619733 0.000000 0.000000
0.679549 0.000000 0.000000
0.738778 0.000000 0.000000
0.804466 0.000000 0.000000
0.864273 0.000000 0.000000
0.927328 0.000000 0.000000
0.981980 0.000000 0.000000
0.000000 0.000000 0.000000
0.000000 0.000000 0.000000
0.110395 0.000000 0.000000
0.181896 0.000000 0.000000
0.249261 0.000000 0.000000
0.307164 0.000000 0.000000
0.366368 0.000000 0.000000
0.430851 0.000000 0.000000
0.493821 0.000000 0.000000
0.555647 0.000000 0.000000
0.619733 0.000000 0.000000
0.679549 0.000000 0.000000
0.738778 0.000000 0.000000
0.804466 0.000000 0.000000
0.864273 0.000000 0.000000
0.927328 0.000000 0.000000
0.981980 0.000000 0.000000
0.000000 0.000000 0.000000
0.000000 0.000000 0.000000
0.110395 0.000000 0.000000
0.181896 0.000000 0.000000
0.249261 0.000000 0.000000
0.307164 0.000000 0.000000
0.366368 0.000000 0.000000
0.430851 0.000000 0.000000
0.493821 0.000000 0.000000
0.555647 0.000000 0.000000
0.619733 0.000000 0.000000
0.679549 0.000000 0.000000
0.738778 0.000000 0.000000
0.804466 0.000000 0.000000
0.864273 0.000000 0.000000
0.927328 0.000000 0.000000
0.981980 0.000000 0.000000
0.000000 0.000000 0.000000
0.000000 0.000000 0.000000
0.110395 0.000000 0.000000
0.181896 0.000000 0.000000
0.249261 0.000000 0.000000
0.307164 0.000000 0.000000
0.366368 0.000000 0.000000
0.430851 0.000000 0.000000
0.493821 0.000000 0.000000
0.555647 0.000000 0.000000
0.619733 0.000000 0.000000
0.679549 0.000000 0.000000
0.738778 0.000000 0.000000
0.804466 0.000000 0.000000
0.864273 0.000000 0.000000
0.927328 0.000000 0.000000
0.981980 0.000000 0.000000
0.000000 0.000000 0.000000
0.000000 0.000000 0.000000
0.110395 0.000000 0.000000
0.181896 0.000000 0.000000
0.249261 0.000000 0.000000
0.307164 0.000000 0.000000
0.366368 0.000000 0.000000
0.430851 0.000000 0.000000
0.493821 0.000000 0.000000
0.555647 0.000000 0.000000
0.619733 0.000000 0.000000
0.679549 0.000000 0.000000
0.738778 0.000000 0.000000
0.804466 0.000000 0.000000
0.864273 0.000000 0.000000
0.927328 0.000000 0.000000
0.981980 0.000000 0.000000
0.000000 0.000000 0.000000
0.000000 0.000000 0.000000
0.110395 0.000000 0.000000
0.181896 0.000000 0.000000
0.249261 0.000000 0.000000
0.307164 0.000000 0.000000
0.366368 0.000000 0.000000
0.430851 0.000000 0.000000
0.493821 0.000000 0.000000
0.555647 0.000000 0.000000
0.619733 0.000000 0.000000
0.679549 0.000000 0.000000
0.738778 0.000000 0.000000
0.804466 0.000000 0.000000
0.864273 0.000000 0.000000
0.927328 0.000000 0.000000
0.981980 0.000000 0.000000
0.000000 0.000000 0.000000
0.000000 0.000000 0.000000
0.110395 0.000000 0.000000
0.181896 0.000000 0.000000
0.249261 0.000000 0.000000
0.307164 0.000000 0.000000
0.366368 0.000000 0.000000
0.430851 0.000000 0.000000
0.493821 0.000000 0.000000
0.555647 0.000000 0.000000
0.619733 0.000000 0.000000
0.679549 0.000000 0.000000
0.738778 0.000000 0.000000
0.804466 0.000000 0.000000
0.864273 0.000000 0.000000
0.927328 0.000000 0.000000
0.981980 0.000000 0.000000
0.000000 0.000000 0.000000
0.000000 0.000000 0.000000
0.110395 0.000000 0.000000
0.181896 0.000000 0.000000
0.249261 0.000000 0.000000
0.307164 0.000000 0.000000
0.366368 0.000000 0.000000
0.430851 0.000000 0.000000
0.493821 0.000000 0.000000
0.555647 0.000000 0.000000
0.619733 0.000000 0.000000
0.679549 0.000000 0.000000
0.738778 0.000000 0.000000
0.804466 0.000000 0.000000
0.864273 0.000000 0.000000
0.927328 0.000000 0.000000
0.981980 0.000000 0.000000
0.000000 0.000000 0.000000
0.000000 0.000000 0.000000
0.110395 0.000000 0.000000
0.181896 0.000000 0.000000
0.249261 0.000000 0.000000
0.307164 0.000000 0.000000
0.366368 0.000000 0.000000
0.430851 0.000000 0.000000
0.493821 0.000000 0.000000
0.555647 0.000000 0.000000
0.619733 0.000000 0.000000
0.679549 0.000000 0.000000
0.738778 0.000000 0.000000
0.804466 0.000000 0.000000
0.864273 0.000000 0.000000
0.927328 0.000000 0.000000
0.981980 0.000000 0.000000
0.000000 0.000000 0.000000
0.000000 0.000000 0.000000
0.110395 0.000000 0.000000
0.181896 0.000000 0.000000
0.249261 0.000000 0.000000
0.307164 0.000000 0.000000
0.366368 0.000000 0.000000
0.430851 0.000000 0.000000
0.493821 0.000000 0.000000
0.555647 0.000000 0.000000
0.619733 0.000000 0.000000
0.679549 0.000000 0.000000
0.738778 0.000000 0.000000
0.804466 0.000000 0.000000
0.864273 0.000000 0.000000
0.927328 0.000000 0.000000
0.981980 0.000000 0.000000
0.000000 0.000000 0.000000
0.000000 0.000000 0.000000
0.110395 0.000000 0.000000
0.181896 0.000000 0.000000
0.249261 0.000000 0.000000
0.307164 0.000000 0.000000
0.366368 0.000000 0.000000
0.430851 0.000000 0.000000
0.493821 0.000000 0.000000
0.555647 0.000000 0.000000
0.619733 0.000000 0.000000
0.679549 0.000000 0.000000
0.738778 0.000000 0.000000
0.804466 0.000000 0.000000
0.864273 0.000000 0.000000
0.927328 0.000000 0.000000
0.981980 0.000000 0.000000
0.000000 0.000000 0.000000
0.000000 0.000000 0.000000
0.110395 0.000000 0.000000
0.181896 0.000000 0.000000
0.249261 0.000000 0.000000
0.307164 0.000000 0.000000
0.366368 0.000000 0.000000
0.430851 0.000000 0.000000
0.493821 0.000000 0.000000
0.555647 0.000000 0.000000
0.619733 0.000000 0.000000
0.679549 0.000000 0.000000
0.738778 0.000000 0.000000
0.804466 0.000000 0.000000
0.864273 0.000000 0.000000
0.927328 0.000000 0.000000
0.981980 0.000000 0.000000
0.000000 0.000000 0.000000
0.000000 0.000000 0.000000
0.110395 0.000000 0.000000
0.181896 0.000000 0.000000
0.249261 0.000000 0.000000
0.307164 0.000000 0.000000
0.366368 0.000000 0.000000
0.430851 0.000000 0.000000
0.493821 0.000000 0.000000
0.555647 0.000000 0.000000
0.619733 0.000000 0.000000
0.679549 0.000000 0.000000
0.738778 0.000000 0.000000
0.804466 0.000000 0.000000
0.864273 0.000000 0.000000
0.927328 0.000000 0.000000
0.981980 0.000000 0.000000
0.000000 0.000000 0.000000
0.000000 0.000000 0.000000
0.110395 0.000000 0.000000
0.181896 0.000000 0.000000
0.249261 0.000000 0.000000
0.307164 0.000000 0.000000
0.366368 0.000000 0.000000
0.430851 0.000000 0.000000
0.493821 0.000000 0.000000
0.555647 0.000000 0.000000
0.619733 0.000000 0.000000
0.679549 0.000000 0.000000
0.738778 0.000000 0.000000
0.804466 0.000000 0.000000
0.864273 0.000000 0.000000
0.927328 0.000000 0.000000
0.981980 0.000000 0.000000
0.000000 0.000000 0.000000
0.000000 0.000000 0.000000
0.110395 0.000000 0.000000
0.181896 0.000000 0.000000
0.249261 0.000000 0.000000
0.307164 0.000000 0.000000
0.366368 0.000000 0.000000
0.430851 0.000000 0.000000
0.493821 0.000000 0.000000
0.555647 0.000000 0.000000
0.619733 0.000000 0.000000
0.679549 0.000000 0.000000
0.738778 0.000000 0.000000
0.804466 0.000000 0.000000
0.864273 0.000000 0.000000
0.927328 0.000000 0.000000
0.981980 0.000000 0.000000
0.000000 0.000000 0.000000
0.000000 0.000000 0.000000
0.110395 0.000000 0.000000
0.181896 0.000000 0.000000
0.249261 0.000000 0.000000
0.307164 0.000000 0.000000
0.366368 0.000000 0.000000
0.430851 0.000000 0.000000
0.493821 0.000000 0.000000
0.555647 0.000000 0.000000
0.619733 0.000000 0.000000
0.679549 0.000000 0.000000
0.738778 0.000000 0.000000
0.804466 0.000000 0.000000
0.864273 0.000000 0.000000
0.927328 0.000000 0.000000
0.981980 0.000000 0.000000
0.000000 0.000000 0.000000
0.000000 0.000000 0.000000
0.110395 0.000000 0.000000
0.181896 0.000000 0.000000
0.249261 0.000000 0.000000
0.307164 0.000000 0.000000
0.366368 0.000000 0.000000
0.430851 0.000000 0.000000
0.493821 0.000000 0.000000
0.555647 0.000000 0.000000
0.619733 0.000000 0.000000
0.679549 0.000000 0.000000
0.738778 0.000000 0.000000
0.804466 0.000000 0.000000
0.864273 0.000000 0.000000
0.927328 0.000000 0.000000
0.981980 0.000000 0.000000
0.000000 0.000000 0.000000
0.000000 0.000000 0.000000
0.110395 0.000000 0.000000
0.181896 0.000000 0.000000
0.249261 0.000000 0.000000
0.307164 0.000000 0.000000
0.366368 0.000000 0.000000
0.430851 0.000000 0.000000
0.493821 0.000000 0.000000
0.555647 0.000000 0.000000
0.619733 0.000000 0.000000
0.679549 0.000000 0.000000
0.738778 0.000000 0.000000
0.804466 0.000000 0.000000
0.864273 0.000000 0.000000
0.927328 0.000000 0.000000
0.981980 0.000000 0.000000
0.000000 0.000000 0.000000
0.000000 0.000000 0.000000
0.110395 0.000000 0.000000
0.181896 0.000000 0.000000
0.249261 0.000000 0.000000
0.307164 0.000000 0.000000
0.366368 0.000000 0.000000
0.430851 0.000000 0.000000
0.493821 0.000000 0.000000
0.555647 0.000000 0.000000
0.619733 0.000000 0.000000
0.679549 0.000000 0.000000
0.738778 0.000000 0.000000
0.804466 0.000000 0.000000
0.864273 0.000000 0.000000
0.927328 0.000000 0.000000
0.981980 0.000000 0.000000
0.000000 0.000000 0.000000
0.000000 0.000000 0.000000
0.110395 0.000000 0.000000
0.181896 0.000000 0.000000
0.249261 0.000000 0.000000
0.307164 0.000000 0.000000
0.366368 0.000000 0.000000
0.430851 0.000000 0.000000
0.493821 0.000000 0.000000
0.555647 0.000000 0.000000
0.619733 0.000000 0.000000
0.679549 0.000000 0.000000
0.738778 0.000000 0.000000
0.804466 0.000000 0.000000
0.864273 0.000000 0.000000
0.927328 0.000000 0.000000
0.981980 0.000000 0.000000
0.000000 0.000000 0.000000
0.000000 0.000000 0.000000
0.110395 0.000000 0.000000
0.181896 0.000000 0.000000
0.249261 0.000000 0.000000
0.307164 0.000000 0.000000
0.366368 0.000000 0.000000
0.430851 0.000000 0.000000
0.493821 0.000000 0.000000
0.555647 0.000000 0.000000
0.619733 0.000000 0.000000
0.679549 0.000000 0.000000
0.738778 0.000000 0.000000
0.804466 0.000000 0.000000
0.864273 0.000000 0.000000
0.927328 0.000000 0.000000
0.981980 0.000000 0.000000
0.000000 0.000000 0.000000
0.000000 0.000000 0.000000
0.110395 0.000000 0.000000
0.181896 0.000000 0.000000
0.249261 0.000000 0.000000
0.307164 0.000000 0.000000
0.366368 0.000000 0.000000
0.430851 0.000000 0.000000
0.493821 0.000000 0.000000
0.555647 0.000000 0.000000
0.619733 0.000000 0.000000
0.679549 0.000000 0.000000
0.738778 0.000000 0.000000
0.804466 0.000000 0.000000
0.864273 0.000000 0.000000
0.927328 0.000000 0.000000
0.981980 0.000000 0.000000
0.000000 0.000000 0.000000
0.000000 0.000000 0.000000
0.110395 0.000000 0.000000
0.181896 0.000000 0.000000
0.249261 0.000000 0.000000
0.307164 0.000000 0.000000
0.366368 0.000000 0.000000
0.430851 0.000000 0.000000
0.493821 0.000000 0.000000
0.555647 0.000000 0.000000
0.619733 0.000000 0.000000
0.679549 0.000000 0.000000
0.738778 0.000000 0.000000
0.804466 0.000000 0.000000
0.864273 0.000000 0.000000
0.927328 0.000000 0.000000
0.981980 0.000000 0.000000
0.000000 0.000000 0.000000
0.000000 0.000000 0.000000
0.110395 0.000000 0.000000
0.181896 0.000000 0.000000
0.249261 0.000000 0.000000
0.307164 0.000000 0.000000
0.366368 0.000000 0.000000
0.430851 0.000000 0.000000
0.493821 0.000000 0.000000
0.555647 0.000000 0.000000
0.619733 0.000000 0.000000
0.679549 0.000000 0.000000
0.738778 0.000000 0.000000
0.804466 0.000000 0.000000
0.864273 0.000000 0.000000
0.927328 0.000000 0.000000
0.981980 0.000000 0.000000
0.000000 0.000000 0.000000
0.000000 0.000000 0.000000
0.110395 0.000000 0.000000
0.181896 0.000000 0.000000
0.249261 0.000000 0.000000
0.307164 0.000000 0.000000
0.366368 0.000000 0.000000
0.430851 0.000000 0.000000
0.493821 0.000000 0.000000
0.555647 0.000000 0.000000
0.619733 0.000000 0.000000
0.679549 0.000000 0.000000
0.738778 0.000000 0.000000
0.804466 0.000000 0.000000
0.864273 0.000000 0.000000
0.927328 0.000000 0.000000
0.981980 0.000000 0.000000
0.000000 0.000000 0.000000
0.000000 0.000000 0.000000
0.110395 0.000000 0.000000
0.181896 0.000000 0.000000
0.249261 0.000000 0.000000
0.307164 0.000000 0.000000
0.366368 0.000000 0.000000
0.430851 0.000000 0.000000
0.493821 0.000000 0.000000
0.555647 0.000000 0.000000
0.619733 0.000000 0.000000
0.679549 0.000000 0.000000
0.738778 0.000000 0.000000
0.804466 0.000000 0.000000
0.864273 0.000000 0.000000
0.927328 0.000000 0.000000
0.981980 0.000000 0.000000
0.000000 0.000000 0.000000
0.000000 0.000000 0.000000
0.110395 0.000000 0.000000
0.181896 0.000000 0.000000
0.249261 0.000000 0.000000
0.307164 0.000000 0.000000
0.366368 0.000000 0.000000
0.430851 0.000000 0.000000
0.493821 0.000000 0.000000
0.555647 0.000000 0.000000
0.619733 0.000000 0.000000
0.679549 0.000000 0.000000
0.738778 0.000000 0.000000
0.804466 0.000000 0.000000
0.864273 0.000000 0.000000
0.927328 0.000000 0.000000
0.981980 0.000000 0.000000
0.000000 0.000000 0.000000
0.000000 0.000000 0.000000
0.110395 0.000000 0.000000
0.181896 0.000000 0.000000
0.249261 0.000000 0.000000
0.307164 0.000000 0.000000
0.366368 0.000000 0.000000
0.430851 0.000000 0.000000
0.493821 0.000000 0.000000
0.555647 0.000000 0.000000
0.619733 0.000000 0.000000
0.679549 0.000000 0.000000
0.738778 0.000000 0.000000
0.804466 0.000000 0.000000
0.864273 0.000000 0.000000
0.927328 0.000000 0.000000
0.981980 0.000000 0.000000
0.000000 0.000000 0.000000
0.000000 0.000000 0.000000
0.110395 0.000000 0.000000
0.181896 0.000000 0.000000
0.249261 0.000000 0.000000
0.307164 0.000000 0.000000
0.366368 0.000000 0.000000
0.430851 0.000000 0.000000
0.493821 0.000000 0.000000
0.555647 0.000000 0.000000
0.619733 0.000000 0.000000
0.679549 0.000000 0.000000
0.738778 0.000000 0.000000
0.804466 0.000000 0.000000
0.864273 0.000000 0.000000
0.927328 0.000000 0.000000
0.981980 0.000000 0.000000
0.000000 0.000000 0.000000
0.000000 0.000000 0.000000
0.110395 0.000000 0.000000
0.181896 0.000000 0.000000
0.249261 0.000000 0.000000
0.307164 0.000000 0.000000
0.366368 0.000000 0.000000
0.430851 0.000000 0.000000
0.493821 0.000000 0.000000
0.555647 0.000000 0.000000
0.619733 0.000000 0.000000
0.679549 0.000000 0.000000
0.738778 0.000000 0.000000
0.804466 0.000000 0.000000
0.864273 0.000000 0.000000
0.927328 0.000000 0.000000
0.981980 0.000000 0.000000
0.000000 0.000000 0.000000
0.000000 0.000000 0.000000
0.110395 0.000000 0.000000
0.181896 0.000000 0.000000
0.249261 0.000000 0.000000
0.307164 0.000000 0.000000
0.366368 0.000000 0.000000
0.430851 0.000000 0.000000
0.493821 0.000000 0.000000
0.555647 0.000000 0.000000
0.619733 0.000000 0.000000
0.679549 0.000000 0.000000
0.738778 0.000000 0.000000
0.804466 0.000000 0.000000
0.864273 0.000000 0.000000
0.927328 0.000000 0.000000
0.981980 0.000000 0.000000
0.000000 0.000000 0.000000
0.000000 0.000000 0.000000
0.110395 0.000000 0.000000
0.181896 0.000000 0.000000
0.249261 0.000000 0.000000
0.307164 0.000000 0.000000
0.366368 0.000000 0.000000
0.430851 0.000000 0.000000
0.493821 0.000000 0.000000
0.555647 0.000000 0.000000
0.619733 0.000000 0.000000
0.679549 0.000000 0.000000
0.738778 0.000000 0.000000
0.804466 0.000000 0.000000
0.864273 0.000000 0.000000
0.927328 0.000000 0.000000
0.981980 0.000000 0.000000
0.000000 0.000000 0.000000
0.000000 0.000000 0.000000
0.110395 0.000000 0.000000
0.181896 0.000000 0.000000
0.249261 0.000000 0.000000
0.307164 0.000000 0.000000
0.366368 0.000000 0.000000
0.430851 0.000000 0.000000
0.493821 0.000000 0.000000
0.555647 0.000000 0.000000
0.619733 0.000000 0.000000
0.679549 0.000000 0.000000
0.738778 0.000000 0.000000
0.804466 0.000000 0.000000
0.864273 0.000000 0.000000
0.927328 0.000000 0.000000
0.981980 0.000000 0.000000
0.000000 0.000000 0.000000
0.000000 0.000000 0.000000
0.110395 0.000000 0.000000
0.181896 0.000000 0.000000
0.249261 0.000000 0.000000
0.307164 0.000000 0.000000
0.366368 0.000000 0.000000
0.430851 0.000000 0.000000
0.493821 0.000000 0.000000
0.555647 0.000000 0.000000
0.619733 0.000000 0.000000
0.679549 0.000000 0.000000
0.738778 0.000000 0.000000
0.804466 0.000000 0.000000
0.864273 0.000000 0.000000
0.927328 0.000000 0.000000
0.981980 0.000000 0.000000
0.000000 0.000000 0.000000
0.000000 0.000000 0.000000
0.110395 0.000000 0.000000
0.181896 0.000000 0.000000
0.249261 0.000000 0.000000
0.307164 0.000000 0.000000
0.366368 0.000000 0.000000
0.430851 0.000000 0.000000
0.493821 0.000000 0.000000
0.555647 0.000000 0.000000
0.619733 0.000000 0.000000
0.679549 0.000000 0.000000
0.738778 0.000000 0.000000
0.804466 0.000000 0.000000
0.864273 0.000000 0.000000
0.927328 0.000000 0.000000
0.981980 0.000000 0.000000
0.000000 0.000000 0.000000
0.000000 0.000000 0.000000
0.110395 0.000000 0.000000
0.181896 0.000000 0.000000
0.249261 0.000000 0.000000
0.307164 0.000000 0.000000
0.366368 0.000000 0.000000
0.430851 0.000000 0.000000
0.493821 0.000000 0.000000
0.555647 0.000000 0.000000
0.619733 0.000000 0.000000
0.679549 0.000000 0.000000
0.738778 0.000000 0.000000
0.804466 0.000000 0.000000
0.864273 0.000000 0.000000
0.927328 0.000000 0.000000
0.981980 0.000000 0.000000
0.000000 0.000000 0.000000
0.000000 0.000000 0.000000
0.110395 0.000000 0.000000
0.181896 0.000000 0.000000
0.249261 0.000000 0.000000
0.307164 0.000000 0.000000
0.366368 0.000000 0.000000
0.430851 0.000000 0.000000
0.493821 0.000000 0.000000
0.555647 0.000000 0.000000
0.619733 0.000000 0.000000
0.679549 0.000000 0.000000
0.738778 0.000000 0.000000
0.804466 0.000000 0.000000
0.864273 0.000000 0.000000
0.927328 0.000000 0.000000
0.981980 0.000000 0.000000
0.000000 0.000000 0.000000
0.000000 0.000000 0.000000
0.110395 0.000000 0.000000
0.181896 0.000000 0.000000
0.249261 0.000000 0.000000
0.307164 0.000000 0.000000
0.366368 0.000000 0.000000
0.430851 0.000000 0.000000
0.493821 0.000000 0.000000
0.555647 0.000000 0.000000
0.619733 0.000000 0.000000
0.679549 0.000000 0.000000
0.738778 0.000000 0.000000
0.804466 0.000000 0.000000
0.864273 0.000000 0.000000
0.927328 0.000000 0.000000
0.981980 0.000000 0.000000
0.000000 0.000000 0.000000
0.000000 0.000000 0.000000
0.110395 0.000000 0.000000
0.181896 0.000000 0.000000
0.249261 0.000000 0.000000
0.307164 0.000000 0.000000
0.366368 0.000000 0.000000
0.430851 0.000000 0.000000
0.493821 0.000000 0.000000
0.555647 0.000000 0.000000
0.619733 0.000000 0.000000
0.679549 0.000000 0.000000
0.738778 0.000000 0.000000
0.804466 0.000000 0.000000
0.864273 0.000000 0.000000
0.927328 0.000000 0.000000
0.981980 0.000000 0.000000
0.000000 0.000000 0.000000
0.000000 0.000000 0.000000
0.110395 0.000000 0.000000
0.181896 0.000000 0.000000
0.249261 0.000000 0.000000
0.307164 0.000000 0.000000
0.366368 0.000000 0.000000
0.430851 0.000000 0.000000
0.493821 0.000000 0.000000
0.555647 0.000000 0.000000
0.619733 0.000000 0.000000
0.679549 0.000000 0.000000
0.738778 0.000000 0.000000
0.804466 0.000000 0.000000
0.864273 0.000000 0.000000
0.927328 0.000000 0.000000
0.981980 0.000000 0.000000
0.000000 0.000000 0.000000
0.000000 0.000000 0.000000
0.110395 0.000000 0.000000
0.181896 0.000000 0.000000
0.249261 0.000000 0.000000
0.307164 0.000000 0.000000
0.366368 0.000000 0.000000
0.430851 0.000000 0.000000
0.493821 0.000000 0.000000
0.555647 0.000000 0.000000
0.619733 0.000000 0.000000
0.679549 0.000000 0.000000
0.738778 0.000000 0.000000
0.804466 0.000000 0.000000
0.864273 0.000000 0.000000
0.927328 0.000000 0.000000
0.981980 0.000000 0.000000
0.000000 0.000000 0.000000
0.000000 0.000000 0.000000
0.110395 0.000000 0.000000
0.181896 0.000000 0.000000
0.249261 0.000000 0.000000
0.307164 0.000000 0.000000
0.366368 0.000000 0.000000
0.430851 0.000000 0.000000
0.493821 0.000000 0.000000
0.555647 0.000000 0.000000
0.619733 0.000000 0.000000
0.679549 0.000000 0.000000
0.738778 0.000000 0.000000
0.804466 0.000000 0.000000
0.864273 0.000000 0.000000
0.927328 0.000000 0.000000
0.981980 0.000000 0.000000
0.000000 0.000000 0.000000
0.000000 0.000000 0.000000
0.110395 0.000000 0.000000
0.181896 0.000000 0.000000
0.249261 0.000000 0.000000
0.307164 0.000000 0.000000
0.366368 0.000000 0.000000
0.430851 0.000000 0.000000
0.493821 0.000000 0.000000
0.555647 0.000000 0.000000
0.619733 0.000000 0.000000
0.679549 0.000000 0.000000
0.738778 0.000000 0.000000
0.804466 0.000000 0.000000
0.864273 0.000000 0.000000
0.927328 0.000000 0.000000
0.981980 0.000000 0.000000
0.000000 0.000000 0.000000
