Luts/only_red.cube
TITLE "Exported LUT"
LUT_3D_SIZE 5
DOMAIN_MIN 0.0 0.0 0.0
DOMAIN_MAX 1.0 1.0 1.0
0.000000 0.000000 0.000000
0.249261 0.000000 0.000000
0.493821 0.000000 0.000000
0.738778 0.000000 0.000000
0.981980 0.000000 0.000000
0.000000 0.000000 0.000000
0.249261 0.000000 0.000000
0.493821 0.000000 0.000000
0.738778 0.000000 0.000000
0.981980 0.000000 0.000000
0.000000 0.000000 0.000000
0.249261 0.000000 0.000000
0.493821 0.000000 0.000000
0.738778 0.000000 0.000000
0.981980 0.000000 0.000000
0.000000 0.000000 0.000000
0.249261 0.000000 0.000000
0.493821 0.000000 0.000000
0.738778 0.000000 0.000000
0.981980 0.000000 0.000000
0.000000 0.000000 0.000000
0.249261 0.000000 0.000000
0.493821 0.000000 0.000000
0.738778 0.000000 0.000000
0.981980 0.000000 0.000000
0.000000 0.000000 0.000000
0.249261 0.000000 0.000000
0.493821 0.000000 0.000000
0.738778 0.000000 0.000000
0.981980 0.000000 0.000000
0.000000 0.000000 0.000000
0.249261 0.000000 0.000000
0.493821 0.000000 0.000000
0.738778 0.000000 0.000000
0.981980 0.000000 0.000000
0.000000 0.000000 0.000000
0.249261 0.000000 0.000000
0.493821 0.000000 0.000000
0.738778 0.000000 0.000000
0.981980 0.000000 0.000000
0.000000 0.000000 0.000000
0.249261 0.000000 0.000000
0.493821 0.000000 0.000000
0.738778 0.000000 0.000000
0.981980 0.000000 0.000000
0.000000 0.000000 0.000000
0.249261 0.000000 0.000000
0.493821 0.000000 0.000000
0.738778 0.000000 0.000000
0.981980 0.000000 0.000000
0.000000 0.000000 0.000000
0.249261 0.000000 0.000000
0.493821 0.000000 0.000000
0.738778 0.000000 0.000000
0.981980 0.000000 0.000000
0.000000 0.000000 0.000000
0.249261 0.000000 0.000000
0.493821 0.000000 0.000000
0.738778 0.000000 0.000000
0.981980 0.000000 0.000000
0.000000 0.000000 0.000000
0.249261 0.000000 0.000000
0.493821 0.000000 0.000000
0.738778 0.000000 0.000000
0.981980 0.000000 0.000000
0.000000 0.000000 0.000000
0.249261 0.000000 0.000000
0.493821 0.000000 0.000000
0.738778 0.000000 0.000000
0.981980 0.000000 0.000000
0.000000 0.000000 0.000000
0.249261 0.000000 0.000000
0.493821 0.000000 0.000000
0.738778 0.000000 0.000000
0.981980 0.000000 0.000000
0.000000 0.000000 0.000000
0.249261 0.000000 0.000000
0.493821 0.000000 0.000000
0.738778 0.000000 0.000000
0.981980 0.000000 0.000000
0.000000 0.000000 0.000000
0.249261 0.000000 0.000000
0.493821 0.000000 0.000000
0.738778 0.000000 0.000000
0.981980 0.000000 0.000000
0.000000 0.000000 0.000000
0.249261 0.000000 0.000000
0.493821 0.000000 0.000000
0.738778 0.000000 0.000000
0.981980 0.000000 0.000000
0.000000 0.000000 0.000000
0.249261 0.000000 0.000000
0.493821 0.000000 0.000000
0.738778 0.000000 0.000000
0.981980 0.000000 0.000000
0.000000 0.000000 0.000000
0.249261 0.000000 0.000000
0.493821 0.000000 0.000000
0.738778 0.000000 0.000000
0.981980 0.000000 0.000000
0.000000 0.000000 0.000000
0.249261 0.000000 0.000000
0.493821 0.000000 0.000000
0.738778 0.000000 0.000000
0.981980 0.000000 0.000000
0.000000 0.000000 0.000000
0.249261 0.000000 0.000000
0.493821 0.000000 0.000000
0.738778 0.000000 0.000000
0.981980 0.000000 0.000000
0.000000 0.000000 0.000000
0.249261 0.000000 0.000000
0.493821 0.000000 0.000000
0.738778 0.000000 0.000000
0.981980 0.000000 0.000000
0.000000 0.000000 0.000000
0.249261 0.000000 0.000000
0.493821 0.000000 0.000000
0.738778 0.000000 0.000000
0.981980 0.000000 0.000000
0.000000 0.000000 0.000000
0.249261 0.000000 0.000000
0.493821 0.000000 0.000000
0.738778 0.000000 0.000000
0.981980 0.000000 0.000000
