luts_tmp/bubblegum_dream.cube
TITLE "Exported LUT"
LUT_3D_SIZE 17
DOMAIN_MIN 0.0 0.0 0.0
DOMAIN_MAX 1.0 1.0 1.0
0.000000 0.229437 0.151280
0.000000 0.229437 0.151280
0.000000 0.229437 0.151280
0.000000 0.229437 0.151280
0.110395 0.207307 0.151280
0.207307 0.195098 0.151280
0.307164 0.195098 0.167429
0.410703 0.167429 0.167429
0.493821 0.167429 0.167429
0.537242 0.132737 0.181896
0.559241 0.132737 0.181896
0.590417 0.110395 0.181896
0.673853 0.110395 0.195098
0.792793 0.110395 0.195098
0.847080 0.110395 0.195098
0.847080 0.110395 0.195098
0.847080 0.110395 0.195098
0.000000 0.229437 0.151280
0.000000 0.229437 0.151280
0.000000 0.229437 0.151280
0.000000 0.229437 0.151280
0.110395 0.207307 0.151280
0.207307 0.195098 0.151280
0.307164 0.195098 0.167429
0.410703 0.167429 0.167429
0.493821 0.167429 0.167429
0.537242 0.132737 0.181896
0.559241 0.132737 0.181896
0.590417 0.110395 0.181896
0.673853 0.110395 0.195098
0.792793 0.110395 0.195098
0.847080 0.110395 0.195098
0.847080 0.110395 0.195098
0.847080 0.110395 0.195098
0.000000 0.229437 0.151280
0.000000 0.229437 0.151280
0.000000 0.229437 0.151280
0.000000 0.229437 0.151280
0.110395 0.207307 0.151280
0.207307 0.195098 0.151280
0.307164 0.195098 0.167429
0.410703 0.167429 0.167429
0.493821 0.167429 0.167429
0.537242 0.132737 0.181896
0.559241 0.132737 0.181896
0.590417 0.110395 0.181896
0.673853 0.110395 0.195098
0.792793 0.110395 0.195098
0.847080 0.110395 0.195098
0.847080 0.110395 0.195098
0.847080 0.110395 0.195098
0.000000 0.239595 0.167429
0.000000 0.239595 0.167429
0.000000 0.239595 0.167429
0.000000 0.239595 0.167429
0.110395 0.229437 0.167429
0.207307 0.229437 0.167429
0.307164 0.207307 0.181896
0.410703 0.195098 0.181896
0.493821 0.195098 0.181896
0.537242 0.167429 0.181896
0.559241 0.167429 0.195098
0.590417 0.132737 0.195098
0.673853 0.132737 0.207307
0.792793 0.110395 0.207307
0.847080 0.110395 0.207307
0.847080 0.110395 0.207307
0.847080 0.110395 0.207307
0.000000 0.275870 0.181896
0.000000 0.275870 0.181896
0.000000 0.275870 0.181896
0.000000 0.275870 0.181896
0.110395 0.258497 0.181896
0.207307 0.239595 0.181896
0.307164 0.229437 0.181896
0.410703 0.229437 0.195098
0.493821 0.207307 0.195098
0.537242 0.195098 0.207307
0.559241 0.195098 0.207307
0.590417 0.167429 0.218708
0.673853 0.167429 0.218708
0.792793 0.132737 0.229437
0.847080 0.132737 0.229437
0.847080 0.132737 0.229437
0.847080 0.132737 0.229437
0.000000 0.299707 0.181896
0.000000 0.299707 0.181896
0.000000 0.299707 0.181896
0.000000 0.299707 0.181896
0.110395 0.284083 0.195098
0.207307 0.275870 0.195098
0.307164 0.258497 0.207307
0.410703 0.239595 0.207307
0.493821 0.239595 0.218708
0.537242 0.229437 0.218708
0.559241 0.207307 0.229437
0.590417 0.207307 0.229437
0.673853 0.195098 0.239595
0.792793 0.167429 0.249261
0.847080 0.167429 0.249261
0.847080 0.167429 0.249261
0.847080 0.167429 0.249261
0.000000 0.335031 0.207307
0.000000 0.335031 0.207307
0.000000 0.335031 0.207307
0.000000 0.321460 0.207307
0.110395 0.314409 0.207307
0.207307 0.299707 0.218708
0.307164 0.284083 0.218708
0.410703 0.275870 0.229437
0.493821 0.258497 0.229437
0.537242 0.258497 0.239595
0.559241 0.239595 0.249261
0.590417 0.229437 0.258497
0.673853 0.207307 0.267353
0.792793 0.207307 0.275870
0.847080 0.207307 0.275870
0.847080 0.207307 0.275870
0.847080 0.207307 0.275870
0.000000 0.354232 0.218708
0.000000 0.354232 0.218708
0.000000 0.354232 0.218708
0.000000 0.354232 0.218708
0.110395 0.347973 0.229437
0.207307 0.335031 0.229437
0.307164 0.314409 0.239595
0.410703 0.299707 0.249261
0.493821 0.284083 0.258497
0.537242 0.275870 0.267353
0.559241 0.275870 0.275870
0.590417 0.258497 0.284083
0.673853 0.239595 0.292020
0.792793 0.229437 0.307164
0.847080 0.229437 0.307164
0.847080 0.229437 0.307164
0.847080 0.229437 0.307164
0.000000 0.383716 0.239595
0.000000 0.383716 0.239595
0.000000 0.383716 0.239595
0.000000 0.383716 0.239595
0.110395 0.366368 0.249261
0.207307 0.354232 0.258497
0.307164 0.347973 0.267353
0.410703 0.335031 0.275870
0.493821 0.321460 0.284083
0.537242 0.314409 0.292020
0.559241 0.299707 0.307164
0.590417 0.284083 0.321460
0.673853 0.275870 0.335031
0.792793 0.258497 0.347973
0.847080 0.258497 0.354232
0.847080 0.258497 0.354232
0.847080 0.258497 0.354232
0.000000 0.410703 0.258497
0.000000 0.410703 0.258497
0.000000 0.410703 0.258497
0.000000 0.410703 0.267353
0.110395 0.394777 0.275870
0.207307 0.383716 0.284083
0.307164 0.366368 0.292020
0.410703 0.354232 0.307164
0.493821 0.347973 0.321460
0.537242 0.335031 0.335031
0.559241 0.321460 0.347973
0.590417 0.314409 0.366368
0.673853 0.299707 0.383716
0.792793 0.284083 0.405478
0.847080 0.284083 0.415850
0.847080 0.284083 0.415850
0.847080 0.284083 0.415850
0.000000 0.435714 0.292020
0.000000 0.435714 0.292020
0.000000 0.435714 0.292020
0.000000 0.435714 0.292020
0.110395 0.420922 0.307164
0.207307 0.410703 0.321460
0.307164 0.394777 0.335031
0.410703 0.383716 0.347973
0.493821 0.372258 0.366368
0.537242 0.354232 0.383716
0.559241 0.347973 0.405478
0.590417 0.335031 0.430851
0.673853 0.321460 0.449927
0.792793 0.314409 0.476845
0.847080 0.314409 0.485422
0.847080 0.314409 0.485422
0.847080 0.314409 0.485422
0.000000 0.468078 0.328330
0.000000 0.468078 0.328330
0.000000 0.468078 0.328330
0.000000 0.459110 0.328330
0.110395 0.445250 0.347973
0.207307 0.435714 0.366368
0.307164 0.420922 0.383716
0.410703 0.410703 0.405478
0.493821 0.400170 0.430851
0.537242 0.383716 0.449927
0.559241 0.372258 0.476845
0.590417 0.366368 0.497957
0.673853 0.347973 0.521953
0.792793 0.335031 0.555647
0.847080 0.335031 0.562808
0.847080 0.335031 0.562808
0.847080 0.335031 0.562808
0.000000 0.485422 0.378039
0.000000 0.485422 0.378039
0.000000 0.485422 0.378039
0.000000 0.485422 0.383716
0.110395 0.472486 0.405478
0.207307 0.459110 0.430851
0.307164 0.449927 0.449927
0.410703 0.435714 0.476845
0.493821 0.425921 0.497957
0.537242 0.410703 0.521953
0.559241 0.400170 0.555647
0.590417 0.383716 0.576811
0.673853 0.372258 0.597081
0.792793 0.366368 0.626025
0.847080 0.354232 0.632242
0.847080 0.354232 0.632242
0.847080 0.354232 0.632242
0.000000 0.514104 0.445250
0.000000 0.514104 0.445250
0.000000 0.514104 0.445250
0.000000 0.514104 0.445250
0.110395 0.502052 0.476845
0.207307 0.485422 0.497957
0.307164 0.472486 0.521953
0.410703 0.468078 0.544693
0.493821 0.449927 0.576811
0.537242 0.435714 0.597081
0.559241 0.425921 0.626025
0.590417 0.410703 0.644460
0.673853 0.400170 0.670983
0.792793 0.394777 0.687988
0.847080 0.383716 0.699050
0.847080 0.383716 0.699050
0.847080 0.383716 0.699050
0.000000 0.525825 0.468078
0.000000 0.525825 0.468078
0.000000 0.525825 0.468078
0.000000 0.521953 0.476845
0.110395 0.506108 0.497957
0.207307 0.493821 0.521953
0.307164 0.481157 0.555647
0.410703 0.472486 0.576811
0.493821 0.459110 0.597081
0.537242 0.449927 0.626025
0.559241 0.435714 0.644460
0.590417 0.420922 0.670983
0.673853 0.410703 0.693545
0.792793 0.400170 0.707210
0.847080 0.394777 0.717918
0.847080 0.394777 0.717918
0.847080 0.394777 0.717918
0.000000 0.525825 0.468078
0.000000 0.525825 0.468078
0.000000 0.525825 0.468078
0.000000 0.521953 0.476845
0.110395 0.506108 0.497957
0.207307 0.493821 0.521953
0.307164 0.481157 0.555647
0.410703 0.472486 0.576811
0.493821 0.459110 0.597081
0.537242 0.449927 0.626025
0.559241 0.435714 0.644460
0.590417 0.420922 0.670983
0.673853 0.410703 0.693545
0.792793 0.400170 0.707210
0.847080 0.394777 0.717918
0.847080 0.394777 0.717918
0.847080 0.394777 0.717918
0.000000 0.525825 0.468078
0.000000 0.525825 0.468078
0.000000 0.525825 0.468078
0.000000 0.521953 0.476845
0.110395 0.506108 0.497957
0.207307 0.493821 0.521953
0.307164 0.481157 0.555647
0.410703 0.472486 0.576811
0.493821 0.459110 0.597081
0.537242 0.449927 0.626025
0.559241 0.435714 0.644460
0.590417 0.420922 0.670983
0.673853 0.410703 0.693545
0.792793 0.400170 0.707210
0.847080 0.394777 0.717918
0.847080 0.394777 0.717918
0.847080 0.394777 0.717918
0.000000 0.229437 0.151280
0.000000 0.229437 0.151280
0.000000 0.229437 0.151280
0.000000 0.229437 0.151280
0.110395 0.207307 0.151280
0.207307 0.195098 0.151280
0.307164 0.195098 0.167429
0.410703 0.167429 0.167429
0.493821 0.167429 0.167429
0.537242 0.132737 0.181896
0.559241 0.132737 0.181896
0.590417 0.110395 0.181896
0.673853 0.110395 0.195098
0.792793 0.110395 0.195098
0.847080 0.110395 0.195098
0.847080 0.110395 0.195098
0.847080 0.110395 0.195098
0.000000 0.229437 0.151280
0.000000 0.229437 0.151280
0.000000 0.229437 0.151280
0.000000 0.229437 0.151280
0.110395 0.207307 0.151280
0.207307 0.195098 0.151280
0.307164 0.195098 0.167429
0.410703 0.167429 0.167429
0.493821 0.167429 0.167429
0.537242 0.132737 0.181896
0.559241 0.132737 0.181896
0.590417 0.110395 0.181896
0.673853 0.110395 0.195098
0.792793 0.110395 0.195098
0.847080 0.110395 0.195098
0.847080 0.110395 0.195098
0.847080 0.110395 0.195098
0.000000 0.229437 0.151280
0.000000 0.229437 0.151280
0.000000 0.229437 0.151280
0.000000 0.229437 0.151280
0.110395 0.207307 0.151280
0.207307 0.195098 0.151280
0.307164 0.195098 0.167429
0.410703 0.167429 0.167429
0.493821 0.167429 0.167429
0.537242 0.132737 0.181896
0.559241 0.132737 0.181896
0.590417 0.110395 0.181896
0.673853 0.110395 0.195098
0.792793 0.110395 0.195098
0.847080 0.110395 0.195098
0.847080 0.110395 0.195098
0.847080 0.110395 0.195098
0.000000 0.239595 0.167429
0.000000 0.239595 0.167429
0.000000 0.239595 0.167429
0.000000 0.239595 0.167429
0.110395 0.229437 0.167429
0.207307 0.229437 0.167429
0.307164 0.207307 0.181896
0.410703 0.195098 0.181896
0.493821 0.195098 0.181896
0.537242 0.167429 0.181896
0.559241 0.167429 0.195098
0.590417 0.132737 0.195098
0.673853 0.132737 0.207307
0.792793 0.110395 0.207307
0.847080 0.110395 0.207307
0.847080 0.110395 0.207307
0.847080 0.110395 0.207307
0.000000 0.275870 0.181896
0.000000 0.275870 0.181896
0.000000 0.275870 0.181896
0.000000 0.275870 0.181896
0.110395 0.258497 0.181896
0.207307 0.239595 0.181896
0.307164 0.229437 0.181896
0.410703 0.229437 0.195098
0.493821 0.207307 0.195098
0.537242 0.195098 0.207307
0.559241 0.195098 0.207307
0.590417 0.167429 0.218708
0.673853 0.167429 0.218708
0.792793 0.132737 0.229437
0.847080 0.132737 0.229437
0.847080 0.132737 0.229437
0.847080 0.132737 0.229437
0.000000 0.299707 0.181896
0.000000 0.299707 0.181896
0.000000 0.299707 0.181896
0.000000 0.299707 0.181896
0.110395 0.284083 0.195098
0.207307 0.275870 0.195098
0.307164 0.258497 0.207307
0.410703 0.239595 0.207307
0.493821 0.239595 0.218708
0.537242 0.229437 0.218708
0.559241 0.207307 0.229437
0.590417 0.207307 0.229437
0.673853 0.195098 0.239595
0.792793 0.167429 0.249261
0.847080 0.167429 0.249261
0.847080 0.167429 0.249261
0.847080 0.167429 0.249261
0.000000 0.335031 0.207307
0.000000 0.335031 0.207307
0.000000 0.335031 0.207307
0.000000 0.321460 0.207307
0.110395 0.314409 0.207307
0.207307 0.299707 0.218708
0.307164 0.284083 0.218708
0.410703 0.275870 0.229437
0.493821 0.258497 0.229437
0.537242 0.258497 0.239595
0.559241 0.239595 0.249261
0.590417 0.229437 0.258497
0.673853 0.207307 0.267353
0.792793 0.207307 0.275870
0.847080 0.207307 0.275870
0.847080 0.207307 0.275870
0.847080 0.207307 0.275870
0.000000 0.354232 0.218708
0.000000 0.354232 0.218708
0.000000 0.354232 0.218708
0.000000 0.354232 0.218708
0.110395 0.347973 0.229437
0.207307 0.335031 0.229437
0.307164 0.314409 0.239595
0.410703 0.299707 0.249261
0.493821 0.284083 0.258497
0.537242 0.275870 0.267353
0.559241 0.275870 0.275870
0.590417 0.258497 0.284083
0.673853 0.239595 0.292020
0.792793 0.229437 0.307164
0.847080 0.229437 0.307164
0.847080 0.229437 0.307164
0.847080 0.229437 0.307164
0.000000 0.383716 0.239595
0.000000 0.383716 0.239595
0.000000 0.383716 0.239595
0.000000 0.383716 0.239595
0.110395 0.366368 0.249261
0.207307 0.354232 0.258497
0.307164 0.347973 0.267353
0.410703 0.335031 0.275870
0.493821 0.321460 0.284083
0.537242 0.314409 0.292020
0.559241 0.299707 0.307164
0.590417 0.284083 0.321460
0.673853 0.275870 0.335031
0.792793 0.258497 0.347973
0.847080 0.258497 0.354232
0.847080 0.258497 0.354232
0.847080 0.258497 0.354232
0.000000 0.410703 0.258497
0.000000 0.410703 0.258497
0.000000 0.410703 0.258497
0.000000 0.410703 0.267353
0.110395 0.394777 0.275870
0.207307 0.383716 0.284083
0.307164 0.366368 0.292020
0.410703 0.354232 0.307164
0.493821 0.347973 0.321460
0.537242 0.335031 0.335031
0.559241 0.321460 0.347973
0.590417 0.314409 0.366368
0.673853 0.299707 0.383716
0.792793 0.284083 0.405478
0.847080 0.284083 0.415850
0.847080 0.284083 0.415850
0.847080 0.284083 0.415850
0.000000 0.435714 0.292020
0.000000 0.435714 0.292020
0.000000 0.435714 0.292020
0.000000 0.435714 0.292020
0.110395 0.420922 0.307164
0.207307 0.410703 0.321460
0.307164 0.394777 0.335031
0.410703 0.383716 0.347973
0.493821 0.372258 0.366368
0.537242 0.354232 0.383716
0.559241 0.347973 0.405478
0.590417 0.335031 0.430851
0.673853 0.321460 0.449927
0.792793 0.314409 0.476845
0.847080 0.314409 0.485422
0.847080 0.314409 0.485422
0.847080 0.314409 0.485422
0.000000 0.468078 0.328330
0.000000 0.468078 0.328330
0.000000 0.468078 0.328330
0.000000 0.459110 0.328330
0.110395 0.445250 0.347973
0.207307 0.435714 0.366368
0.307164 0.420922 0.383716
0.410703 0.410703 0.405478
0.493821 0.400170 0.430851
0.537242 0.383716 0.449927
0.559241 0.372258 0.476845
0.590417 0.366368 0.497957
0.673853 0.347973 0.521953
0.792793 0.335031 0.555647
0.847080 0.335031 0.562808
0.847080 0.335031 0.562808
0.847080 0.335031 0.562808
0.000000 0.485422 0.378039
0.000000 0.485422 0.378039
0.000000 0.485422 0.378039
0.000000 0.485422 0.383716
0.110395 0.472486 0.405478
0.207307 0.459110 0.430851
0.307164 0.449927 0.449927
0.410703 0.435714 0.476845
0.493821 0.425921 0.497957
0.537242 0.410703 0.521953
0.559241 0.400170 0.555647
0.590417 0.383716 0.576811
0.673853 0.372258 0.597081
0.792793 0.366368 0.626025
0.847080 0.354232 0.632242
0.847080 0.354232 0.632242
0.847080 0.354232 0.632242
0.000000 0.514104 0.445250
0.000000 0.514104 0.445250
0.000000 0.514104 0.445250
0.000000 0.514104 0.445250
0.110395 0.502052 0.476845
0.207307 0.485422 0.497957
0.307164 0.472486 0.521953
0.410703 0.468078 0.544693
0.493821 0.449927 0.576811
0.537242 0.435714 0.597081
0.559241 0.425921 0.626025
0.590417 0.410703 0.644460
0.673853 0.400170 0.670983
0.792793 0.394777 0.687988
0.847080 0.383716 0.699050
0.847080 0.383716 0.699050
0.847080 0.383716 0.699050
0.000000 0.525825 0.468078
0.000000 0.525825 0.468078
0.000000 0.525825 0.468078
0.000000 0.521953 0.476845
0.110395 0.506108 0.497957
0.207307 0.493821 0.521953
0.307164 0.481157 0.555647
0.410703 0.472486 0.576811
0.493821 0.459110 0.597081
0.537242 0.449927 0.626025
0.559241 0.435714 0.644460
0.590417 0.420922 0.670983
0.673853 0.410703 0.693545
0.792793 0.400170 0.707210
0.847080 0.394777 0.717918
0.847080 0.394777 0.717918
0.847080 0.394777 0.717918
0.000000 0.525825 0.468078
0.000000 0.525825 0.468078
0.000000 0.525825 0.468078
0.000000 0.521953 0.476845
0.110395 0.506108 0.497957
0.207307 0.493821 0.521953
0.307164 0.481157 0.555647
0.410703 0.472486 0.576811
0.493821 0.459110 0.597081
0.537242 0.449927 0.626025
0.559241 0.435714 0.644460
0.590417 0.420922 0.670983
0.673853 0.410703 0.693545
0.792793 0.400170 0.707210
0.847080 0.394777 0.717918
0.847080 0.394777 0.717918
0.847080 0.394777 0.717918
0.000000 0.525825 0.468078
0.000000 0.525825 0.468078
0.000000 0.525825 0.468078
0.000000 0.521953 0.476845
0.110395 0.506108 0.497957
0.207307 0.493821 0.521953
0.307164 0.481157 0.555647
0.410703 0.472486 0.576811
0.493821 0.459110 0.597081
0.537242 0.449927 0.626025
0.559241 0.435714 0.644460
0.590417 0.420922 0.670983
0.673853 0.410703 0.693545
0.792793 0.400170 0.707210
0.847080 0.394777 0.717918
0.847080 0.394777 0.717918
0.847080 0.394777 0.717918
0.000000 0.229437 0.151280
0.000000 0.229437 0.151280
0.000000 0.229437 0.151280
0.000000 0.229437 0.151280
0.110395 0.207307 0.151280
0.207307 0.195098 0.151280
0.307164 0.195098 0.167429
0.410703 0.167429 0.167429
0.493821 0.167429 0.167429
0.537242 0.132737 0.181896
0.559241 0.132737 0.181896
0.590417 0.110395 0.181896
0.673853 0.110395 0.195098
0.792793 0.110395 0.195098
0.847080 0.110395 0.195098
0.847080 0.110395 0.195098
0.847080 0.110395 0.195098
0.000000 0.229437 0.151280
0.000000 0.229437 0.151280
0.000000 0.229437 0.151280
0.000000 0.229437 0.151280
0.110395 0.207307 0.151280
0.207307 0.195098 0.151280
0.307164 0.195098 0.167429
0.410703 0.167429 0.167429
0.493821 0.167429 0.167429
0.537242 0.132737 0.181896
0.559241 0.132737 0.181896
0.590417 0.110395 0.181896
0.673853 0.110395 0.195098
0.792793 0.110395 0.195098
0.847080 0.110395 0.195098
0.847080 0.110395 0.195098
0.847080 0.110395 0.195098
0.000000 0.229437 0.151280
0.000000 0.229437 0.151280
0.000000 0.229437 0.151280
0.000000 0.229437 0.151280
0.110395 0.207307 0.151280
0.207307 0.195098 0.151280
0.307164 0.195098 0.167429
0.410703 0.167429 0.167429
0.493821 0.167429 0.167429
0.537242 0.132737 0.181896
0.559241 0.132737 0.181896
0.590417 0.110395 0.181896
0.673853 0.110395 0.195098
0.792793 0.110395 0.195098
0.847080 0.110395 0.195098
0.847080 0.110395 0.195098
0.847080 0.110395 0.195098
0.000000 0.239595 0.167429
0.000000 0.239595 0.167429
0.000000 0.239595 0.167429
0.000000 0.239595 0.167429
0.110395 0.229437 0.167429
0.207307 0.229437 0.167429
0.307164 0.207307 0.181896
0.410703 0.195098 0.181896
0.493821 0.195098 0.181896
0.537242 0.167429 0.181896
0.559241 0.167429 0.195098
0.590417 0.132737 0.195098
0.673853 0.132737 0.207307
0.792793 0.110395 0.207307
0.847080 0.110395 0.207307
0.847080 0.110395 0.207307
0.847080 0.110395 0.207307
0.000000 0.275870 0.181896
0.000000 0.275870 0.181896
0.000000 0.275870 0.181896
0.000000 0.275870 0.181896
0.110395 0.258497 0.181896
0.207307 0.239595 0.181896
0.307164 0.229437 0.181896
0.410703 0.229437 0.195098
0.493821 0.207307 0.195098
0.537242 0.195098 0.207307
0.559241 0.195098 0.207307
0.590417 0.167429 0.218708
0.673853 0.167429 0.218708
0.792793 0.132737 0.229437
0.847080 0.132737 0.229437
0.847080 0.132737 0.229437
0.847080 0.132737 0.229437
0.000000 0.299707 0.181896
0.000000 0.299707 0.181896
0.000000 0.299707 0.181896
0.000000 0.299707 0.181896
0.110395 0.284083 0.195098
0.207307 0.275870 0.195098
0.307164 0.258497 0.207307
0.410703 0.239595 0.207307
0.493821 0.239595 0.218708
0.537242 0.229437 0.218708
0.559241 0.207307 0.229437
0.590417 0.207307 0.229437
0.673853 0.195098 0.239595
0.792793 0.167429 0.249261
0.847080 0.167429 0.249261
0.847080 0.167429 0.249261
0.847080 0.167429 0.249261
0.000000 0.335031 0.207307
0.000000 0.335031 0.207307
0.000000 0.335031 0.207307
0.000000 0.321460 0.207307
0.110395 0.314409 0.207307
0.207307 0.299707 0.218708
0.307164 0.284083 0.218708
0.410703 0.275870 0.229437
0.493821 0.258497 0.229437
0.537242 0.258497 0.239595
0.559241 0.239595 0.249261
0.590417 0.229437 0.258497
0.673853 0.207307 0.267353
0.792793 0.207307 0.275870
0.847080 0.207307 0.275870
0.847080 0.207307 0.275870
0.847080 0.207307 0.275870
0.000000 0.354232 0.218708
0.000000 0.354232 0.218708
0.000000 0.354232 0.218708
0.000000 0.354232 0.218708
0.110395 0.347973 0.229437
0.207307 0.335031 0.229437
0.307164 0.314409 0.239595
0.410703 0.299707 0.249261
0.493821 0.284083 0.258497
0.537242 0.275870 0.267353
0.559241 0.275870 0.275870
0.590417 0.258497 0.284083
0.673853 0.239595 0.292020
0.792793 0.229437 0.307164
0.847080 0.229437 0.307164
0.847080 0.229437 0.307164
0.847080 0.229437 0.307164
0.000000 0.383716 0.239595
0.000000 0.383716 0.239595
0.000000 0.383716 0.239595
0.000000 0.383716 0.239595
0.110395 0.366368 0.249261
0.207307 0.354232 0.258497
0.307164 0.347973 0.267353
0.410703 0.335031 0.275870
0.493821 0.321460 0.284083
0.537242 0.314409 0.292020
0.559241 0.299707 0.307164
0.590417 0.284083 0.321460
0.673853 0.275870 0.335031
0.792793 0.258497 0.347973
0.847080 0.258497 0.354232
0.847080 0.258497 0.354232
0.847080 0.258497 0.354232
0.000000 0.410703 0.258497
0.000000 0.410703 0.258497
0.000000 0.410703 0.258497
0.000000 0.410703 0.267353
0.110395 0.394777 0.275870
0.207307 0.383716 0.284083
0.307164 0.366368 0.292020
0.410703 0.354232 0.307164
0.493821 0.347973 0.321460
0.537242 0.335031 0.335031
0.559241 0.321460 0.347973
0.590417 0.314409 0.366368
0.673853 0.299707 0.383716
0.792793 0.284083 0.405478
0.847080 0.284083 0.415850
0.847080 0.284083 0.415850
0.847080 0.284083 0.415850
0.000000 0.435714 0.292020
0.000000 0.435714 0.292020
0.000000 0.435714 0.292020
0.000000 0.435714 0.292020
0.110395 0.420922 0.307164
0.207307 0.410703 0.321460
0.307164 0.394777 0.335031
0.410703 0.383716 0.347973
0.493821 0.372258 0.366368
0.537242 0.354232 0.383716
0.559241 0.347973 0.405478
0.590417 0.335031 0.430851
0.673853 0.321460 0.449927
0.792793 0.314409 0.476845
0.847080 0.314409 0.485422
0.847080 0.314409 0.485422
0.847080 0.314409 0.485422
0.000000 0.468078 0.328330
0.000000 0.468078 0.328330
0.000000 0.468078 0.328330
0.000000 0.459110 0.328330
0.110395 0.445250 0.347973
0.207307 0.435714 0.366368
0.307164 0.420922 0.383716
0.410703 0.410703 0.405478
0.493821 0.400170 0.430851
0.537242 0.383716 0.449927
0.559241 0.372258 0.476845
0.590417 0.366368 0.497957
0.673853 0.347973 0.521953
0.792793 0.335031 0.555647
0.847080 0.335031 0.562808
0.847080 0.335031 0.562808
0.847080 0.335031 0.562808
0.000000 0.485422 0.378039
0.000000 0.485422 0.378039
0.000000 0.485422 0.378039
0.000000 0.485422 0.383716
0.110395 0.472486 0.405478
0.207307 0.459110 0.430851
0.307164 0.449927 0.449927
0.410703 0.435714 0.476845
0.493821 0.425921 0.497957
0.537242 0.410703 0.521953
0.559241 0.400170 0.555647
0.590417 0.383716 0.576811
0.673853 0.372258 0.597081
0.792793 0.366368 0.626025
0.847080 0.354232 0.632242
0.847080 0.354232 0.632242
0.847080 0.354232 0.632242
0.000000 0.514104 0.445250
0.000000 0.514104 0.445250
0.000000 0.514104 0.445250
0.000000 0.514104 0.445250
0.110395 0.502052 0.476845
0.207307 0.485422 0.497957
0.307164 0.472486 0.521953
0.410703 0.468078 0.544693
0.493821 0.449927 0.576811
0.537242 0.435714 0.597081
0.559241 0.425921 0.626025
0.590417 0.410703 0.644460
0.673853 0.400170 0.670983
0.792793 0.394777 0.687988
0.847080 0.383716 0.699050
0.847080 0.383716 0.699050
0.847080 0.383716 0.699050
0.000000 0.525825 0.468078
0.000000 0.525825 0.468078
0.000000 0.525825 0.468078
0.000000 0.521953 0.476845
0.110395 0.506108 0.497957
0.207307 0.493821 0.521953
0.307164 0.481157 0.555647
0.410703 0.472486 0.576811
0.493821 0.459110 0.597081
0.537242 0.449927 0.626025
0.559241 0.435714 0.644460
0.590417 0.420922 0.670983
0.673853 0.410703 0.693545
0.792793 0.400170 0.707210
0.847080 0.394777 0.717918
0.847080 0.394777 0.717918
0.847080 0.394777 0.717918
0.000000 0.525825 0.468078
0.000000 0.525825 0.468078
0.000000 0.525825 0.468078
0.000000 0.521953 0.476845
0.110395 0.506108 0.497957
0.207307 0.493821 0.521953
0.307164 0.481157 0.555647
0.410703 0.472486 0.576811
0.493821 0.459110 0.597081
0.537242 0.449927 0.626025
0.559241 0.435714 0.644460
0.590417 0.420922 0.670983
0.673853 0.410703 0.693545
0.792793 0.400170 0.707210
0.847080 0.394777 0.717918
0.847080 0.394777 0.717918
0.847080 0.394777 0.717918
0.000000 0.525825 0.468078
0.000000 0.525825 0.468078
0.000000 0.525825 0.468078
0.000000 0.521953 0.476845
0.110395 0.506108 0.497957
0.207307 0.493821 0.521953
0.307164 0.481157 0.555647
0.410703 0.472486 0.576811
0.493821 0.459110 0.597081
0.537242 0.449927 0.626025
0.559241 0.435714 0.644460
0.590417 0.420922 0.670983
0.673853 0.410703 0.693545
0.792793 0.400170 0.707210
0.847080 0.394777 0.717918
0.847080 0.394777 0.717918
0.847080 0.394777 0.717918
0.000000 0.275870 0.181896
0.000000 0.275870 0.181896
0.000000 0.275870 0.181896
0.000000 0.275870 0.181896
0.110395 0.258497 0.195098
0.207307 0.239595 0.195098
0.307164 0.229437 0.195098
0.410703 0.207307 0.207307
0.493821 0.207307 0.207307
0.537242 0.195098 0.218708
0.559241 0.195098 0.218708
0.590417 0.167429 0.229437
0.673853 0.167429 0.229437
0.792793 0.132737 0.239595
0.847080 0.132737 0.239595
0.847080 0.132737 0.239595
0.847080 0.132737 0.239595
0.000000 0.275870 0.181896
