luts_tmp/bubblegum_dream.cube
TITLE "Exported LUT"
LUT_3D_SIZE 9
DOMAIN_MIN 0.0 0.0 0.0
DOMAIN_MAX 1.0 1.0 1.0
0.000000 0.229437 0.151280
0.000000 0.229437 0.151280
0.110395 0.207307 0.151280
0.307164 0.195098 0.167429
0.493821 0.167429 0.167429
0.559241 0.132737 0.181896
0.673853 0.110395 0.195098
0.847080 0.110395 0.195098
0.847080 0.110395 0.195098
0.000000 0.229437 0.151280
0.000000 0.229437 0.151280
0.110395 0.207307 0.151280
0.307164 0.195098 0.167429
0.493821 0.167429 0.167429
0.559241 0.132737 0.181896
0.673853 0.110395 0.195098
0.847080 0.110395 0.195098
0.847080 0.110395 0.195098
0.000000 0.275870 0.181896
0.000000 0.275870 0.181896
0.110395 0.258497 0.181896
0.307164 0.229437 0.181896
0.493821 0.207307 0.195098
0.559241 0.195098 0.207307
0.673853 0.167429 0.218708
0.847080 0.132737 0.229437
0.847080 0.132737 0.229437
0.000000 0.335031 0.207307
0.000000 0.335031 0.207307
0.110395 0.314409 0.207307
0.307164 0.284083 0.218708
0.493821 0.258497 0.229437
0.559241 0.239595 0.249261
0.673853 0.207307 0.267353
0.847080 0.207307 0.275870
0.847080 0.207307 0.275870
0.000000 0.383716 0.239595
0.000000 0.383716 0.239595
0.110395 0.366368 0.249261
0.307164 0.347973 0.267353
0.493821 0.321460 0.284083
0.559241 0.299707 0.307164
0.673853 0.275870 0.335031
0.847080 0.258497 0.354232
0.847080 0.258497 0.354232
0.000000 0.435714 0.292020
0.000000 0.435714 0.292020
0.110395 0.420922 0.307164
0.307164 0.394777 0.335031
0.493821 0.372258 0.366368
0.559241 0.347973 0.405478
0.673853 0.321460 0.449927
0.847080 0.314409 0.485422
0.847080 0.314409 0.485422
0.000000 0.485422 0.378039
0.000000 0.485422 0.378039
0.110395 0.472486 0.405478
0.307164 0.449927 0.449927
0.493821 0.425921 0.497957
0.559241 0.400170 0.555647
0.673853 0.372258 0.597081
0.847080 0.354232 0.632242
0.847080 0.354232 0.632242
0.000000 0.525825 0.468078
0.000000 0.525825 0.468078
0.110395 0.506108 0.497957
0.307164 0.481157 0.555647
0.493821 0.459110 0.597081
0.559241 0.435714 0.644460
0.673853 0.410703 0.693545
0.847080 0.394777 0.717918
0.847080 0.394777 0.717918
0.000000 0.525825 0.468078
0.000000 0.525825 0.468078
0.110395 0.506108 0.497957
0.307164 0.481157 0.555647
0.493821 0.459110 0.597081
0.559241 0.435714 0.644460
0.673853 0.410703 0.693545
0.847080 0.394777 0.717918
0.847080 0.394777 0.717918
0.000000 0.229437 0.151280
0.000000 0.229437 0.151280
0.110395 0.207307 0.151280
0.307164 0.195098 0.167429
0.493821 0.167429 0.167429
0.559241 0.132737 0.181896
0.673853 0.110395 0.195098
0.847080 0.110395 0.195098
0.847080 0.110395 0.195098
0.000000 0.229437 0.151280
0.000000 0.229437 0.151280
0.110395 0.207307 0.151280
0.307164 0.195098 0.167429
0.493821 0.167429 0.167429
0.559241 0.132737 0.181896
0.673853 0.110395 0.195098
0.847080 0.110395 0.195098
0.847080 0.110395 0.195098
0.000000 0.275870 0.181896
0.000000 0.275870 0.181896
0.110395 0.258497 0.181896
0.307164 0.229437 0.181896
0.493821 0.207307 0.195098
0.559241 0.195098 0.207307
0.673853 0.167429 0.218708
0.847080 0.132737 0.229437
0.847080 0.132737 0.229437
0.000000 0.335031 0.207307
0.000000 0.335031 0.207307
0.110395 0.314409 0.207307
0.307164 0.284083 0.218708
0.493821 0.258497 0.229437
0.559241 0.239595 0.249261
0.673853 0.207307 0.267353
0.847080 0.207307 0.275870
0.847080 0.207307 0.275870
0.000000 0.383716 0.239595
0.000000 0.383716 0.239595
0.110395 0.366368 0.249261
0.307164 0.347973 0.267353
0.493821 0.321460 0.284083
0.559241 0.299707 0.307164
0.673853 0.275870 0.335031
0.847080 0.258497 0.354232
0.847080 0.258497 0.354232
0.000000 0.435714 0.292020
0.000000 0.435714 0.292020
0.110395 0.420922 0.307164
0.307164 0.394777 0.335031
0.493821 0.372258 0.366368
0.559241 0.347973 0.405478
0.673853 0.321460 0.449927
0.847080 0.314409 0.485422
0.847080 0.314409 0.485422
0.000000 0.485422 0.378039
0.000000 0.485422 0.378039
0.110395 0.472486 0.405478
0.307164 0.449927 0.449927
0.493821 0.425921 0.497957
0.559241 0.400170 0.555647
0.673853 0.372258 0.597081
0.847080 0.354232 0.632242
0.847080 0.354232 0.632242
0.000000 0.525825 0.468078
0.000000 0.525825 0.468078
0.110395 0.506108 0.497957
0.307164 0.481157 0.555647
0.493821 0.459110 0.597081
0.559241 0.435714 0.644460
0.673853 0.410703 0.693545
0.847080 0.394777 0.717918
0.847080 0.394777 0.717918
0.000000 0.525825 0.468078
0.000000 0.525825 0.468078
0.110395 0.506108 0.497957
0.307164 0.481157 0.555647
0.493821 0.459110 0.597081
0.559241 0.435714 0.644460
0.673853 0.410703 0.693545
0.847080 0.394777 0.717918
0.847080 0.394777 0.717918
0.000000 0.321460 0.229437
0.000000 0.321460 0.229437
0.110395 0.299707 0.239595
0.307164 0.284083 0.249261
0.493821 0.258497 0.267353
0.559241 0.229437 0.292020
0.673853 0.207307 0.314409
0.847080 0.195098 0.335031
0.847080 0.195098 0.335031
0.000000 0.321460 0.229437
0.000000 0.321460 0.229437
0.110395 0.299707 0.239595
0.307164 0.284083 0.249261
0.493821 0.258497 0.267353
0.559241 0.229437 0.292020
0.673853 0.207307 0.314409
0.847080 0.195098 0.335031
0.847080 0.195098 0.335031
0.000000 0.372258 0.275870
0.000000 0.372258 0.275870
0.110395 0.335031 0.258497
0.307164 0.314409 0.267353
0.493821 0.275870 0.275870
0.559241 0.239595 0.284083
0.673853 0.207307 0.292020
0.847080 0.195098 0.299707
0.847080 0.195098 0.299707
0.000000 0.425921 0.354232
0.000000 0.425921 0.354232
0.080560 0.400170 0.328330
0.307164 0.366368 0.360361
0.493821 0.335031 0.366368
0.559241 0.299707 0.378039
0.673853 0.275870 0.394777
0.847080 0.239595 0.405478
0.847080 0.239595 0.405478
0.000000 0.481157 0.485422
0.000000 0.481157 0.485422
0.000000 0.449927 0.415850
0.292020 0.420922 0.468078
0.493821 0.394777 0.521953
0.559241 0.354232 0.529664
0.673853 0.321460 0.555647
0.847080 0.299707 0.562808
0.847080 0.299707 0.562808
0.000000 0.533469 0.632242
0.000000 0.533469 0.632242
0.000000 0.493821 0.529664
0.267353 0.472486 0.590417
0.476845 0.445250 0.638386
0.559241 0.420922 0.687988
0.673853 0.383716 0.701783
0.847080 0.366368 0.707210
0.847080 0.366368 0.707210
0.000000 0.583662 0.748948
0.000000 0.583662 0.748948
0.000000 0.544693 0.650467
0.258497 0.521953 0.701783
0.468078 0.493821 0.738778
0.555647 0.468078 0.773674
0.673853 0.445250 0.809079
0.847080 0.420922 0.815939
0.847080 0.420922 0.815939
0.000000 0.616558 0.815939
0.000000 0.616558 0.815939
0.000000 0.573349 0.723201
0.258497 0.552025 0.756468
0.459110 0.525825 0.792793
0.552025 0.502052 0.827223
0.662284 0.472486 0.862146
0.847080 0.459110 0.881065
0.847080 0.459110 0.881065
0.000000 0.616558 0.815939
0.000000 0.616558 0.815939
0.000000 0.573349 0.723201
0.258497 0.552025 0.756468
0.459110 0.525825 0.792793
0.552025 0.502052 0.827223
0.662284 0.472486 0.862146
0.847080 0.459110 0.881065
0.847080 0.459110 0.881065
0.000000 0.420922 0.449927
0.000000 0.420922 0.449927
0.110395 0.400170 0.489643
0.307164 0.372258 0.537242
0.493821 0.354232 0.590417
0.559241 0.335031 0.638386
0.673853 0.314409 0.682376
0.847080 0.284083 0.707210
0.847080 0.284083 0.707210
0.000000 0.420922 0.449927
0.000000 0.420922 0.449927
0.110395 0.400170 0.489643
0.307164 0.372258 0.537242
0.493821 0.354232 0.590417
0.559241 0.335031 0.638386
0.673853 0.314409 0.682376
0.847080 0.284083 0.707210
0.847080 0.284083 0.707210
0.000000 0.472486 0.606913
0.000000 0.472486 0.606913
0.080560 0.449927 0.597081
0.307164 0.420922 0.659353
0.493821 0.383716 0.650467
0.559241 0.347973 0.665199
0.673853 0.314409 0.676709
0.847080 0.299707 0.687988
0.847080 0.299707 0.687988
0.000000 0.525825 0.731039
0.000000 0.525825 0.731039
0.080560 0.514104 0.748948
0.307164 0.445250 0.682376
0.493821 0.410703 0.701783
0.559241 0.383716 0.717918
0.673853 0.354232 0.731039
0.847080 0.335031 0.738778
0.847080 0.335031 0.738778
0.000000 0.580248 0.831684
0.000000 0.580248 0.831684
0.000000 0.555647 0.813660
0.249261 0.514104 0.790433
0.493821 0.481157 0.831684
0.559241 0.445250 0.831684
0.673853 0.410703 0.842715
0.847080 0.383716 0.849251
0.847080 0.383716 0.849251
0.000000 0.626025 0.911556
0.000000 0.626025 0.911556
0.000000 0.600380 0.881065
0.239595 0.562808 0.868507
0.463620 0.533469 0.895449
0.559241 0.506108 0.923415
0.673853 0.472486 0.923415
0.847080 0.449927 0.927328
0.847080 0.449927 0.927328
0.000000 0.679549 0.954181
0.000000 0.679549 0.954181
0.000000 0.647472 0.931221
0.239595 0.610149 0.923415
0.449927 0.583662 0.940870
0.552025 0.555647 0.954181
0.673853 0.533469 0.965416
0.847080 0.506108 0.967273
0.847080 0.506108 0.967273
0.000000 0.717918 0.972820
0.000000 0.717918 0.972820
0.000000 0.679549 0.952293
0.218708 0.641432 0.948503
0.440513 0.616558 0.959818
0.552025 0.590417 0.970975
0.656407 0.562808 0.980156
0.847080 0.544693 0.985616
0.847080 0.544693 0.985616
0.000000 0.717918 0.972820
0.000000 0.717918 0.972820
0.000000 0.679549 0.952293
0.218708 0.641432 0.948503
0.440513 0.616558 0.959818
0.552025 0.590417 0.970975
0.656407 0.562808 0.980156
0.847080 0.544693 0.985616
0.847080 0.544693 0.985616
0.000000 0.514104 0.809079
0.000000 0.514104 0.809079
0.110395 0.502052 0.831684
0.307164 0.472486 0.862146
0.493821 0.449927 0.889319
0.559241 0.425921 0.911556
0.673853 0.400170 0.927328
0.847080 0.383716 0.938949
0.847080 0.383716 0.938949
0.000000 0.514104 0.809079
0.000000 0.514104 0.809079
0.110395 0.502052 0.831684
0.307164 0.472486 0.862146
0.493821 0.449927 0.889319
0.559241 0.425921 0.911556
0.673853 0.400170 0.927328
0.847080 0.383716 0.938949
0.847080 0.383716 0.938949
0.000000 0.569861 0.893411
0.000000 0.569861 0.893411
0.000000 0.544693 0.889319
0.292020 0.521953 0.913545
0.493821 0.493821 0.933160
0.559241 0.459110 0.935095
0.673853 0.420922 0.937025
0.847080 0.400170 0.940870
0.847080 0.400170 0.940870
0.000000 0.619733 0.948503
0.000000 0.619733 0.948503
0.000000 0.606913 0.948503
0.249261 0.573349 0.952293
0.493821 0.537242 0.965416
0.559241 0.493821 0.957944
0.673853 0.459110 0.959818
0.847080 0.435714 0.959818
0.847080 0.435714 0.959818
0.000000 0.670983 0.976496
0.000000 0.670983 0.976496
0.000000 0.662284 0.980156
0.249261 0.641432 0.987427
0.493821 0.552025 0.959818
0.559241 0.521953 0.965416
0.673853 0.485422 0.969126
0.847080 0.468078 0.970975
0.847080 0.468078 0.970975
0.000000 0.725825 1.000000
0.000000 0.725825 1.000000
0.000000 0.709905 1.000000
0.239595 0.676709 1.000000
0.420922 0.626025 0.989235
0.559241 0.597081 1.000000
0.673853 0.552025 1.000000
0.847080 0.533469 1.000000
0.847080 0.533469 1.000000
0.000000 0.778507 1.000000
0.000000 0.778507 1.000000
0.000000 0.756468 1.000000
0.239595 0.723201 1.000000
0.410703 0.676709 1.000000
0.548374 0.647472 1.000000
0.673853 0.616558 1.000000
0.847080 0.590417 1.000000
0.847080 0.590417 1.000000
0.000000 0.811373 1.000000
0.000000 0.811373 1.000000
0.000000 0.783303 1.000000
0.218708 0.751465 1.000000
0.405478 0.709905 1.000000
0.544693 0.679549 1.000000
0.647472 0.650467 1.000000
0.847080 0.632242 1.000000
0.847080 0.632242 1.000000
0.000000 0.811373 1.000000
0.000000 0.811373 1.000000
0.000000 0.783303 1.000000
0.218708 0.751465 1.000000
0.405478 0.709905 1.000000
0.544693 0.679549 1.000000
0.647472 0.650467 1.000000
0.847080 0.632242 1.000000
0.847080 0.632242 1.000000
0.000000 0.610149 0.970975
0.000000 0.610149 0.970975
0.110395 0.597081 0.976496
0.307164 0.573349 0.985616
0.493821 0.544693 0.992839
0.559241 0.525825 1.000000
0.673853 0.502052 1.000000
0.847080 0.485422 1.000000
0.847080 0.485422 1.000000
0.000000 0.610149 0.970975
0.000000 0.610149 0.970975
0.110395 0.597081 0.976496
0.307164 0.573349 0.985616
0.493821 0.544693 0.992839
0.559241 0.525825 1.000000
0.673853 0.502052 1.000000
0.847080 0.485422 1.000000
0.847080 0.485422 1.000000
0.000000 0.662284 0.996427
0.000000 0.662284 0.996427
0.000000 0.635323 0.991039
0.267353 0.610149 1.000000
0.476845 0.583662 1.000000
0.559241 0.562808 1.000000
0.673853 0.525825 1.000000
0.847080 0.502052 1.000000
0.847080 0.502052 1.000000
0.000000 0.717918 1.000000
0.000000 0.717918 1.000000
0.000000 0.699050 1.000000
0.239595 0.665199 1.000000
0.463620 0.635323 1.000000
0.559241 0.606913 1.000000
0.673853 0.569861 1.000000
0.847080 0.544693 1.000000
0.847080 0.544693 1.000000
0.000000 0.768805 1.000000
0.000000 0.768805 1.000000
0.000000 0.756468 1.000000
0.239595 0.731039 1.000000
0.420922 0.690773 1.000000
0.559241 0.656407 1.000000
0.673853 0.606913 1.000000
0.847080 0.580248 1.000000
0.847080 0.580248 1.000000
0.000000 0.815939 1.000000
0.000000 0.815939 1.000000
0.000000 0.811373 1.000000
0.239595 0.790433 1.000000
0.420922 0.768805 1.000000
0.559241 0.656407 1.000000
0.673853 0.619733 1.000000
0.847080 0.600380 1.000000
0.847080 0.600380 1.000000
0.000000 0.853576 1.000000
0.000000 0.853576 1.000000
0.000000 0.844901 1.000000
0.239595 0.822732 1.000000
0.410703 0.797487 1.000000
0.533469 0.743884 1.000000
0.673853 0.709905 1.000000
0.847080 0.670983 1.000000
0.847080 0.670983 1.000000
0.000000 0.872717 1.000000
0.000000 0.872717 1.000000
0.000000 0.862146 1.000000
0.218708 0.844901 1.000000
0.405478 0.820475 1.000000
0.529664 0.776095 1.000000
0.626025 0.743884 1.000000
0.847080 0.723201 1.000000
0.847080 0.723201 1.000000
0.000000 0.872717 1.000000
0.000000 0.872717 1.000000
0.000000 0.862146 1.000000
0.218708 0.844901 1.000000
0.405478 0.820475 1.000000
0.529664 0.776095 1.000000
0.626025 0.743884 1.000000
0.847080 0.723201 1.000000
0.847080 0.723201 1.000000
0.000000 0.709905 1.000000
0.000000 0.709905 1.000000
0.110395 0.690773 1.000000
0.307164 0.665199 1.000000
0.493821 0.641432 1.000000
0.559241 0.616558 1.000000
0.673853 0.597081 1.000000
0.847080 0.580248 1.000000
0.847080 0.580248 1.000000
0.000000 0.709905 1.000000
0.000000 0.709905 1.000000
0.110395 0.690773 1.000000
0.307164 0.665199 1.000000
0.493821 0.641432 1.000000
0.559241 0.616558 1.000000
0.673853 0.597081 1.000000
0.847080 0.580248 1.000000
0.847080 0.580248 1.000000
0.000000 0.761432 1.000000
0.000000 0.761432 1.000000
0.000000 0.736210 1.000000
0.258497 0.709905 1.000000
0.468078 0.679549 1.000000
0.555647 0.650467 1.000000
0.673853 0.626025 1.000000
0.847080 0.606913 1.000000
0.847080 0.606913 1.000000
0.000000 0.806776 1.000000
0.000000 0.806776 1.000000
0.000000 0.790433 1.000000
0.239595 0.761432 1.000000
0.449927 0.736210 1.000000
0.552025 0.704503 1.000000
0.673853 0.676709 1.000000
0.847080 0.650467 1.000000
0.847080 0.650467 1.000000
0.000000 0.849251 1.000000
0.000000 0.849251 1.000000
0.000000 0.836118 1.000000
0.239595 0.815939 1.000000
0.410703 0.788065 1.000000
0.548374 0.756468 1.000000
0.673853 0.725825 1.000000
0.847080 0.693545 1.000000
0.847080 0.693545 1.000000
0.000000 0.876903 1.000000
0.000000 0.876903 1.000000
0.000000 0.870615 1.000000
0.239595 0.857874 1.000000
0.410703 0.838324 1.000000
0.533469 0.806776 1.000000
0.673853 0.776095 1.000000
0.847080 0.736210 1.000000
0.847080 0.736210 1.000000
0.000000 0.899508 1.000000
0.000000 0.899508 1.000000
0.000000 0.895449 1.000000
0.239595 0.887264 1.000000
0.410703 0.876903 1.000000
0.533469 0.866393 1.000000
0.673853 0.761432 1.000000
0.847080 0.738778 1.000000
0.847080 0.738778 1.000000
0.000000 0.911556 1.000000
0.000000 0.911556 1.000000
0.000000 0.905556 1.000000
0.218708 0.897481 1.000000
0.405478 0.887264 1.000000
0.529664 0.870615 1.000000
0.569861 0.833905 1.000000
0.847080 0.806776 1.000000
0.847080 0.806776 1.000000
0.000000 0.911556 1.000000
0.000000 0.911556 1.000000
0.000000 0.905556 1.000000
0.218708 0.897481 1.000000
0.405478 0.887264 1.000000
0.529664 0.870615 1.000000
0.569861 0.833905 1.000000
0.847080 0.806776 1.000000
0.847080 0.806776 1.000000
0.000000 0.751465 1.000000
0.000000 0.751465 1.000000
0.110395 0.736210 1.000000
0.307164 0.709905 1.000000
0.493821 0.685189 1.000000
0.559241 0.662284 1.000000
0.673853 0.635323 1.000000
0.847080 0.619733 1.000000
0.847080 0.619733 1.000000
0.000000 0.751465 1.000000
0.000000 0.751465 1.000000
0.110395 0.736210 1.000000
0.307164 0.709905 1.000000
0.493821 0.685189 1.000000
0.559241 0.662284 1.000000
0.673853 0.635323 1.000000
0.847080 0.619733 1.000000
0.847080 0.619733 1.000000
0.000000 0.799821 1.000000
0.000000 0.799821 1.000000
0.000000 0.776095 1.000000
0.258497 0.751465 1.000000
0.459110 0.723201 1.000000
0.552025 0.699050 1.000000
0.662284 0.670983 1.000000
0.847080 0.650467 1.000000
0.847080 0.650467 1.000000
0.000000 0.840523 1.000000
0.000000 0.840523 1.000000
0.000000 0.824981 1.000000
0.218708 0.799821 1.000000
0.440513 0.776095 1.000000
0.552025 0.748948 1.000000
0.656407 0.723201 1.000000
0.847080 0.704503 1.000000
0.847080 0.704503 1.000000
0.000000 0.872717 1.000000
0.000000 0.872717 1.000000
0.000000 0.862146 1.000000
0.218708 0.847080 1.000000
0.405478 0.822732 1.000000
0.544693 0.797487 1.000000
0.647472 0.771244 1.000000
0.847080 0.751465 1.000000
0.847080 0.751465 1.000000
0.000000 0.895449 1.000000
0.000000 0.895449 1.000000
0.000000 0.891368 1.000000
0.218708 0.876903 1.000000
0.405478 0.864273 1.000000
0.529664 0.840523 1.000000
0.626025 0.815939 1.000000
0.847080 0.797487 1.000000
0.847080 0.797487 1.000000
0.000000 0.913545 1.000000
0.000000 0.913545 1.000000
0.000000 0.909561 1.000000
0.218708 0.901529 1.000000
0.405478 0.893411 1.000000
0.529664 0.881065 1.000000
0.569861 0.857874 1.000000
0.847080 0.836118 1.000000
0.847080 0.836118 1.000000
0.000000 0.925374 1.000000
0.000000 0.925374 1.000000
0.000000 0.923415 1.000000
0.218708 0.915529 1.000000
0.405478 0.907561 1.000000
0.529664 0.899508 1.000000
0.569861 0.891368 1.000000
0.847080 0.822732 1.000000
0.847080 0.822732 1.000000
0.000000 0.925374 1.000000
0.000000 0.925374 1.000000
0.000000 0.923415 1.000000
0.218708 0.915529 1.000000
0.405478 0.907561 1.000000
0.529664 0.899508 1.000000
0.569861 0.891368 1.000000
0.847080 0.822732 1.000000
0.847080 0.822732 1.000000
0.000000 0.751465 1.000000
0.000000 0.751465 1.000000
0.110395 0.736210 1.000000
0.307164 0.709905 1.000000
0.493821 0.685189 1.000000
0.559241 0.662284 1.000000
0.673853 0.635323 1.000000
0.847080 0.619733 1.000000
0.847080 0.619733 1.000000
0.000000 0.751465 1.000000
0.000000 0.751465 1.000000
0.110395 0.736210 1.000000
0.307164 0.709905 1.000000
0.493821 0.685189 1.000000
0.559241 0.662284 1.000000
0.673853 0.635323 1.000000
0.847080 0.619733 1.000000
0.847080 0.619733 1.000000
0.000000 0.799821 1.000000
0.000000 0.799821 1.000000
0.000000 0.776095 1.000000
0.258497 0.751465 1.000000
0.459110 0.723201 1.000000
0.552025 0.699050 1.000000
0.662284 0.670983 1.000000
0.847080 0.650467 1.000000
0.847080 0.650467 1.000000
0.000000 0.840523 1.000000
0.000000 0.840523 1.000000
0.000000 0.824981 1.000000
0.218708 0.799821 1.000000
0.440513 0.776095 1.000000
0.552025 0.748948 1.000000
0.656407 0.723201 1.000000
0.847080 0.704503 1.000000
0.847080 0.704503 1.000000
0.000000 0.872717 1.000000
0.000000 0.872717 1.000000
0.000000 0.862146 1.000000
0.218708 0.847080 1.000000
0.405478 0.822732 1.000000
0.544693 0.797487 1.000000
0.647472 0.771244 1.000000
0.847080 0.751465 1.000000
0.847080 0.751465 1.000000
0.000000 0.895449 1.000000
0.000000 0.895449 1.000000
0.000000 0.891368 1.000000
0.218708 0.876903 1.000000
0.405478 0.864273 1.000000
0.529664 0.840523 1.000000
0.626025 0.815939 1.000000
0.847080 0.797487 1.000000
0.847080 0.797487 1.000000
0.000000 0.913545 1.000000
0.000000 0.913545 1.000000
0.000000 0.909561 1.000000
0.218708 0.901529 1.000000
0.405478 0.893411 1.000000
0.529664 0.881065 1.000000
0.569861 0.857874 1.000000
0.847080 0.836118 1.000000
0.847080 0.836118 1.000000
0.000000 0.925374 1.000000
0.000000 0.925374 1.000000
0.000000 0.923415 1.000000
0.218708 0.915529 1.000000
0.405478 0.907561 1.000000
0.529664 0.899508 1.000000
0.569861 0.891368 1.000000
0.847080 0.822732 1.000000
0.847080 0.822732 1.000000
0.000000 0.925374 1.000000
0.000000 0.925374 1.000000
0.000000 0.923415 1.000000
0.218708 0.915529 1.000000
0.405478 0.907561 1.000000
0.529664 0.899508 1.000000
0.569861 0.891368 1.000000
0.847080 0.822732 1.000000
0.847080 0.822732 1.000000
