luts_tmp/bubblegum_dream.cube
TITLE "Exported LUT"
LUT_3D_SIZE 5
DOMAIN_MIN 0.0 0.0 0.0
DOMAIN_MAX 1.0 1.0 1.0
0.000000 0.229437 0.151280
0.110395 0.207307 0.151280
0.493821 0.167429 0.167429
0.673853 0.110395 0.195098
0.847080 0.110395 0.195098
0.000000 0.275870 0.181896
0.110395 0.258497 0.181896
0.493821 0.207307 0.195098
0.673853 0.167429 0.218708
0.847080 0.132737 0.229437
0.000000 0.383716 0.239595
0.110395 0.366368 0.249261
0.493821 0.321460 0.284083
0.673853 0.275870 0.335031
0.847080 0.258497 0.354232
0.000000 0.485422 0.378039
0.110395 0.472486 0.405478
0.493821 0.425921 0.497957
0.673853 0.372258 0.597081
0.847080 0.354232 0.632242
0.000000 0.525825 0.468078
0.110395 0.506108 0.497957
0.493821 0.459110 0.597081
0.673853 0.410703 0.693545
0.847080 0.394777 0.717918
0.000000 0.321460 0.229437
0.110395 0.299707 0.239595
0.493821 0.258497 0.267353
0.673853 0.207307 0.314409
0.847080 0.195098 0.335031
0.000000 0.372258 0.275870
0.110395 0.335031 0.258497
0.493821 0.275870 0.275870
0.673853 0.207307 0.292020
0.847080 0.195098 0.299707
0.000000 0.481157 0.485422
0.000000 0.449927 0.415850
0.493821 0.394777 0.521953
0.673853 0.321460 0.555647
0.847080 0.299707 0.562808
0.000000 0.583662 0.748948
0.000000 0.544693 0.650467
0.468078 0.493821 0.738778
0.673853 0.445250 0.809079
0.847080 0.420922 0.815939
0.000000 0.616558 0.815939
0.000000 0.573349 0.723201
0.459110 0.525825 0.792793
0.662284 0.472486 0.862146
0.847080 0.459110 0.881065
0.000000 0.514104 0.809079
0.110395 0.502052 0.831684
0.493821 0.449927 0.889319
0.673853 0.400170 0.927328
0.847080 0.383716 0.938949
0.000000 0.569861 0.893411
0.000000 0.544693 0.889319
0.493821 0.493821 0.933160
0.673853 0.420922 0.937025
0.847080 0.400170 0.940870
0.000000 0.670983 0.976496
0.000000 0.662284 0.980156
0.493821 0.552025 0.959818
0.673853 0.485422 0.969126
0.847080 0.468078 0.970975
0.000000 0.778507 1.000000
0.000000 0.756468 1.000000
0.410703 0.676709 1.000000
0.673853 0.616558 1.000000
0.847080 0.590417 1.000000
0.000000 0.811373 1.000000
0.000000 0.783303 1.000000
0.405478 0.709905 1.000000
0.647472 0.650467 1.000000
0.847080 0.632242 1.000000
0.000000 0.709905 1.000000
0.110395 0.690773 1.000000
0.493821 0.641432 1.000000
0.673853 0.597081 1.000000
0.847080 0.580248 1.000000
0.000000 0.761432 1.000000
0.000000 0.736210 1.000000
0.468078 0.679549 1.000000
0.673853 0.626025 1.000000
0.847080 0.606913 1.000000
0.000000 0.849251 1.000000
0.000000 0.836118 1.000000
0.410703 0.788065 1.000000
0.673853 0.725825 1.000000
0.847080 0.693545 1.000000
0.000000 0.899508 1.000000
0.000000 0.895449 1.000000
0.410703 0.876903 1.000000
0.673853 0.761432 1.000000
0.847080 0.738778 1.000000
0.000000 0.911556 1.000000
0.000000 0.905556 1.000000
0.405478 0.887264 1.000000
0.569861 0.833905 1.000000
0.847080 0.806776 1.000000
0.000000 0.751465 1.000000
0.110395 0.736210 1.000000
0.493821 0.685189 1.000000
0.673853 0.635323 1.000000
0.847080 0.619733 1.000000
0.000000 0.799821 1.000000
0.000000 0.776095 1.000000
0.459110 0.723201 1.000000
0.662284 0.670983 1.000000
0.847080 0.650467 1.000000
0.000000 0.872717 1.000000
0.000000 0.862146 1.000000
0.405478 0.822732 1.000000
0.647472 0.771244 1.000000
0.847080 0.751465 1.000000
0.000000 0.913545 1.000000
0.000000 0.909561 1.000000
0.405478 0.893411 1.000000
0.569861 0.857874 1.000000
0.847080 0.836118 1.000000
0.000000 0.925374 1.000000
0.000000 0.923415 1.000000
0.405478 0.907561 1.000000
0.569861 0.891368 1.000000
0.847080 0.822732 1.000000
