luts_tmp/dynamic_saturated.cube
TITLE "Exported LUT"
LUT_3D_SIZE 17
DOMAIN_MIN 0.0 0.0 0.0
DOMAIN_MAX 1.0 1.0 1.0
0.000000 0.000000 0.000000
0.000000 0.000000 0.000000
0.000000 0.000000 0.000000
0.000000 0.000000 0.000000
0.110395 0.000000 0.000000
0.207307 0.000000 0.000000
0.267353 0.000000 0.000000
0.360361 0.000000 0.000000
0.502052 0.000000 0.000000
0.665199 0.000000 0.000000
0.780909 0.000000 0.000000
0.872717 0.000000 0.000000
0.935095 0.000000 0.000000
0.969126 0.000000 0.000000
0.987427 0.000000 0.000000
1.000000 0.000000 0.000000
1.000000 0.000000 0.000000
0.000000 0.000000 0.000000
0.000000 0.000000 0.000000
0.000000 0.000000 0.000000
0.000000 0.000000 0.000000
0.110395 0.000000 0.000000
0.207307 0.000000 0.000000
0.267353 0.000000 0.000000
0.360361 0.000000 0.000000
0.502052 0.000000 0.000000
0.665199 0.000000 0.000000
0.780909 0.000000 0.000000
0.872717 0.000000 0.000000
0.935095 0.000000 0.000000
0.969126 0.000000 0.000000
0.987427 0.000000 0.000000
1.000000 0.000000 0.000000
1.000000 0.000000 0.000000
0.000000 0.000000 0.000000
0.000000 0.000000 0.000000
0.000000 0.000000 0.000000
0.000000 0.000000 0.000000
0.110395 0.000000 0.000000
0.207307 0.000000 0.000000
0.267353 0.000000 0.000000
0.360361 0.000000 0.000000
0.502052 0.000000 0.000000
0.665199 0.000000 0.000000
0.780909 0.000000 0.000000
0.872717 0.000000 0.000000
0.935095 0.000000 0.000000
0.969126 0.000000 0.000000
0.987427 0.000000 0.000000
1.000000 0.000000 0.000000
1.000000 0.000000 0.000000
0.000000 0.000000 0.000000
0.000000 0.000000 0.000000
0.000000 0.000000 0.000000
0.000000 0.000000 0.000000
0.110395 0.000000 0.000000
0.207307 0.000000 0.000000
0.267353 0.000000 0.000000
0.360361 0.000000 0.000000
0.502052 0.000000 0.000000
0.665199 0.000000 0.000000
0.780909 0.000000 0.000000
0.872717 0.000000 0.000000
0.935095 0.000000 0.000000
0.969126 0.000000 0.000000
0.987427 0.000000 0.000000
1.000000 0.000000 0.000000
1.000000 0.000000 0.000000
0.000000 0.151280 0.000000
0.000000 0.151280 0.000000
0.000000 0.151280 0.000000
0.000000 0.151280 0.000000
0.110395 0.151280 0.000000
0.207307 0.151280 0.000000
0.267353 0.151280 0.000000
0.360361 0.151280 0.000000
0.502052 0.151280 0.000000
0.665199 0.151280 0.000000
0.780909 0.151280 0.000000
0.872717 0.151280 0.000000
0.935095 0.151280 0.000000
0.969126 0.151280 0.000000
0.987427 0.151280 0.000000
1.000000 0.151280 0.000000
1.000000 0.151280 0.000000
0.000000 0.299707 0.000000
0.000000 0.299707 0.000000
0.000000 0.299707 0.000000
0.000000 0.299707 0.000000
0.110395 0.299707 0.000000
0.207307 0.299707 0.000000
0.267353 0.299707 0.000000
0.360361 0.299707 0.000000
0.502052 0.299707 0.000000
0.665199 0.299707 0.000000
0.780909 0.299707 0.000000
0.872717 0.299707 0.000000
0.935095 0.299707 0.000000
0.969126 0.299707 0.000000
0.987427 0.299707 0.000000
1.000000 0.299707 0.000000
1.000000 0.299707 0.000000
0.000000 0.405478 0.000000
0.000000 0.405478 0.000000
0.000000 0.405478 0.000000
0.000000 0.405478 0.000000
0.110395 0.405478 0.000000
0.207307 0.405478 0.000000
0.267353 0.405478 0.000000
0.360361 0.405478 0.000000
0.502052 0.405478 0.000000
0.665199 0.405478 0.000000
0.780909 0.405478 0.000000
0.872717 0.405478 0.000000
0.935095 0.405478 0.000000
0.969126 0.405478 0.000000
0.987427 0.405478 0.000000
1.000000 0.405478 0.000000
1.000000 0.405478 0.000000
0.000000 0.476845 0.000000
0.000000 0.476845 0.000000
0.000000 0.476845 0.000000
0.000000 0.476845 0.000000
0.110395 0.476845 0.000000
0.207307 0.476845 0.000000
0.267353 0.476845 0.000000
0.360361 0.476845 0.000000
0.502052 0.476845 0.000000
0.665199 0.476845 0.000000
0.780909 0.476845 0.000000
0.872717 0.476845 0.000000
0.935095 0.476845 0.000000
0.969126 0.476845 0.000000
0.987427 0.476845 0.000000
1.000000 0.476845 0.000000
1.000000 0.476845 0.000000
0.000000 0.510125 0.000000
0.000000 0.510125 0.000000
0.000000 0.510125 0.000000
0.000000 0.510125 0.000000
0.110395 0.510125 0.000000
0.207307 0.510125 0.000000
0.267353 0.510125 0.000000
0.360361 0.510125 0.000000
0.502052 0.510125 0.000000
0.665199 0.510125 0.000000
0.780909 0.510125 0.000000
0.872717 0.510125 0.000000
0.935095 0.510125 0.000000
0.969126 0.510125 0.000000
0.987427 0.510125 0.000000
1.000000 0.510125 0.000000
1.000000 0.510125 0.000000
0.000000 0.529664 0.000000
0.000000 0.529664 0.000000
0.000000 0.529664 0.000000
0.000000 0.529664 0.000000
0.110395 0.529664 0.000000
0.207307 0.529664 0.000000
0.267353 0.529664 0.000000
0.360361 0.529664 0.000000
0.502052 0.529664 0.000000
0.665199 0.529664 0.000000
0.780909 0.529664 0.000000
0.872717 0.529664 0.000000
0.935095 0.529664 0.000000
0.969126 0.529664 0.000000
0.987427 0.529664 0.000000
1.000000 0.529664 0.000000
1.000000 0.529664 0.000000
0.000000 0.566348 0.000000
0.000000 0.566348 0.000000
0.000000 0.566348 0.000000
0.000000 0.566348 0.000000
0.110395 0.566348 0.000000
0.207307 0.566348 0.000000
0.267353 0.566348 0.000000
0.360361 0.566348 0.000000
0.502052 0.566348 0.000000
0.665199 0.566348 0.000000
0.780909 0.566348 0.000000
0.872717 0.566348 0.000000
0.935095 0.566348 0.000000
0.969126 0.566348 0.000000
0.987427 0.566348 0.000000
1.000000 0.566348 0.000000
1.000000 0.566348 0.000000
0.000000 0.670983 0.000000
0.000000 0.670983 0.000000
0.000000 0.670983 0.000000
0.000000 0.670983 0.000000
0.110395 0.670983 0.000000
0.207307 0.670983 0.000000
0.267353 0.670983 0.000000
0.360361 0.670983 0.000000
0.502052 0.670983 0.000000
0.665199 0.670983 0.000000
0.780909 0.670983 0.000000
0.872717 0.670983 0.000000
0.935095 0.670983 0.000000
0.969126 0.670983 0.000000
0.987427 0.670983 0.000000
1.000000 0.670983 0.000000
1.000000 0.670983 0.000000
0.000000 0.829457 0.000000
0.000000 0.829457 0.000000
0.000000 0.829457 0.000000
0.000000 0.829457 0.000000
0.110395 0.829457 0.000000
0.207307 0.829457 0.000000
0.267353 0.829457 0.000000
0.360361 0.829457 0.000000
0.502052 0.829457 0.000000
0.665199 0.829457 0.000000
0.780909 0.829457 0.000000
0.872717 0.829457 0.000000
0.935095 0.829457 0.000000
0.969126 0.829457 0.000000
0.987427 0.829457 0.000000
1.000000 0.829457 0.000000
1.000000 0.829457 0.000000
0.000000 0.923415 0.000000
0.000000 0.923415 0.000000
0.000000 0.923415 0.000000
0.000000 0.923415 0.000000
0.110395 0.923415 0.000000
0.207307 0.923415 0.000000
0.267353 0.923415 0.000000
0.360361 0.923415 0.000000
0.502052 0.923415 0.000000
0.665199 0.923415 0.000000
0.780909 0.923415 0.000000
0.872717 0.923415 0.000000
0.935095 0.923415 0.000000
0.969126 0.923415 0.000000
0.987427 0.923415 0.000000
1.000000 0.923415 0.000000
1.000000 0.923415 0.000000
0.000000 0.972820 0.000000
0.000000 0.972820 0.000000
0.000000 0.972820 0.000000
0.000000 0.972820 0.000000
0.110395 0.972820 0.000000
0.207307 0.972820 0.000000
0.267353 0.972820 0.000000
0.360361 0.972820 0.000000
0.502052 0.972820 0.000000
0.665199 0.972820 0.000000
0.780909 0.972820 0.000000
0.872717 0.972820 0.000000
0.935095 0.972820 0.000000
0.969126 0.972820 0.000000
0.987427 0.972820 0.000000
1.000000 0.972820 0.000000
1.000000 0.972820 0.000000
0.000000 1.000000 0.000000
0.000000 1.000000 0.000000
0.000000 1.000000 0.000000
0.000000 1.000000 0.000000
0.110395 1.000000 0.000000
0.207307 1.000000 0.000000
0.267353 1.000000 0.000000
0.360361 1.000000 0.000000
0.502052 1.000000 0.000000
0.665199 1.000000 0.000000
0.780909 1.000000 0.000000
0.872717 1.000000 0.000000
0.935095 1.000000 0.000000
0.969126 1.000000 0.000000
0.987427 1.000000 0.000000
1.000000 1.000000 0.000000
1.000000 1.000000 0.000000
0.000000 1.000000 0.000000
0.000000 1.000000 0.000000
0.000000 1.000000 0.000000
0.000000 1.000000 0.000000
0.110395 1.000000 0.000000
0.207307 1.000000 0.000000
0.267353 1.000000 0.000000
0.360361 1.000000 0.000000
0.502052 1.000000 0.000000
0.665199 1.000000 0.000000
0.780909 1.000000 0.000000
0.872717 1.000000 0.000000
0.935095 1.000000 0.000000
0.969126 1.000000 0.000000
0.987427 1.000000 0.000000
1.000000 1.000000 0.000000
1.000000 1.000000 0.000000
0.000000 0.000000 0.000000
0.000000 0.000000 0.000000
0.000000 0.000000 0.000000
0.000000 0.000000 0.000000
0.110395 0.000000 0.000000
0.207307 0.000000 0.000000
0.267353 0.000000 0.000000
0.360361 0.000000 0.000000
0.502052 0.000000 0.000000
0.665199 0.000000 0.000000
0.780909 0.000000 0.000000
0.872717 0.000000 0.000000
0.935095 0.000000 0.000000
0.969126 0.000000 0.000000
0.987427 0.000000 0.000000
1.000000 0.000000 0.000000
1.000000 0.000000 0.000000
0.000000 0.000000 0.000000
0.000000 0.000000 0.000000
0.000000 0.000000 0.000000
0.000000 0.000000 0.000000
0.110395 0.000000 0.000000
0.207307 0.000000 0.000000
0.267353 0.000000 0.000000
0.360361 0.000000 0.000000
0.502052 0.000000 0.000000
0.665199 0.000000 0.000000
0.780909 0.000000 0.000000
0.872717 0.000000 0.000000
0.935095 0.000000 0.000000
0.969126 0.000000 0.000000
0.987427 0.000000 0.000000
1.000000 0.000000 0.000000
1.000000 0.000000 0.000000
0.000000 0.000000 0.000000
0.000000 0.000000 0.000000
0.000000 0.000000 0.000000
0.000000 0.000000 0.000000
0.110395 0.000000 0.000000
0.207307 0.000000 0.000000
0.267353 0.000000 0.000000
0.360361 0.000000 0.000000
0.502052 0.000000 0.000000
0.665199 0.000000 0.000000
0.780909 0.000000 0.000000
0.872717 0.000000 0.000000
0.935095 0.000000 0.000000
0.969126 0.000000 0.000000
0.987427 0.000000 0.000000
1.000000 0.000000 0.000000
1.000000 0.000000 0.000000
0.000000 0.000000 0.000000
0.000000 0.000000 0.000000
0.000000 0.000000 0.000000
0.000000 0.000000 0.000000
0.110395 0.000000 0.000000
0.207307 0.000000 0.000000
0.267353 0.000000 0.000000
0.360361 0.000000 0.000000
0.502052 0.000000 0.000000
0.665199 0.000000 0.000000
0.780909 0.000000 0.000000
0.872717 0.000000 0.000000
0.935095 0.000000 0.000000
0.969126 0.000000 0.000000
0.987427 0.000000 0.000000
1.000000 0.000000 0.000000
1.000000 0.000000 0.000000
0.000000 0.151280 0.000000
0.000000 0.151280 0.000000
0.000000 0.151280 0.000000
0.000000 0.151280 0.000000
0.110395 0.151280 0.000000
0.207307 0.151280 0.000000
0.267353 0.151280 0.000000
0.360361 0.151280 0.000000
0.502052 0.151280 0.000000
0.665199 0.151280 0.000000
0.780909 0.151280 0.000000
0.872717 0.151280 0.000000
0.935095 0.151280 0.000000
0.969126 0.151280 0.000000
0.987427 0.151280 0.000000
1.000000 0.151280 0.000000
1.000000 0.151280 0.000000
0.000000 0.299707 0.000000
0.000000 0.299707 0.000000
0.000000 0.299707 0.000000
0.000000 0.299707 0.000000
0.110395 0.299707 0.000000
0.207307 0.299707 0.000000
0.267353 0.299707 0.000000
0.360361 0.299707 0.000000
0.502052 0.299707 0.000000
0.665199 0.299707 0.000000
0.780909 0.299707 0.000000
0.872717 0.299707 0.000000
0.935095 0.299707 0.000000
0.969126 0.299707 0.000000
0.987427 0.299707 0.000000
1.000000 0.299707 0.000000
1.000000 0.299707 0.000000
0.000000 0.405478 0.000000
0.000000 0.405478 0.000000
0.000000 0.405478 0.000000
0.000000 0.405478 0.000000
0.110395 0.405478 0.000000
0.207307 0.405478 0.000000
0.267353 0.405478 0.000000
0.360361 0.405478 0.000000
0.502052 0.405478 0.000000
0.665199 0.405478 0.000000
0.780909 0.405478 0.000000
0.872717 0.405478 0.000000
0.935095 0.405478 0.000000
0.969126 0.405478 0.000000
0.987427 0.405478 0.000000
1.000000 0.405478 0.000000
1.000000 0.405478 0.000000
0.000000 0.476845 0.000000
0.000000 0.476845 0.000000
0.000000 0.476845 0.000000
0.000000 0.476845 0.000000
0.110395 0.476845 0.000000
0.207307 0.476845 0.000000
0.267353 0.476845 0.000000
0.360361 0.476845 0.000000
0.502052 0.476845 0.000000
0.665199 0.476845 0.000000
0.780909 0.476845 0.000000
0.872717 0.476845 0.000000
0.935095 0.476845 0.000000
0.969126 0.476845 0.000000
0.987427 0.476845 0.000000
1.000000 0.476845 0.000000
1.000000 0.476845 0.000000
0.000000 0.510125 0.000000
0.000000 0.510125 0.000000
0.000000 0.510125 0.000000
0.000000 0.510125 0.000000
0.110395 0.510125 0.000000
0.207307 0.510125 0.000000
0.267353 0.510125 0.000000
0.360361 0.510125 0.000000
0.502052 0.510125 0.000000
0.665199 0.510125 0.000000
0.780909 0.510125 0.000000
0.872717 0.510125 0.000000
0.935095 0.510125 0.000000
0.969126 0.510125 0.000000
0.987427 0.510125 0.000000
1.000000 0.510125 0.000000
1.000000 0.510125 0.000000
0.000000 0.529664 0.000000
0.000000 0.529664 0.000000
0.000000 0.529664 0.000000
0.000000 0.529664 0.000000
0.110395 0.529664 0.000000
0.207307 0.529664 0.000000
0.267353 0.529664 0.000000
0.360361 0.529664 0.000000
0.502052 0.529664 0.000000
0.665199 0.529664 0.000000
0.780909 0.529664 0.000000
0.872717 0.529664 0.000000
0.935095 0.529664 0.000000
0.969126 0.529664 0.000000
0.987427 0.529664 0.000000
1.000000 0.529664 0.000000
1.000000 0.529664 0.000000
0.000000 0.566348 0.000000
0.000000 0.566348 0.000000
0.000000 0.566348 0.000000
0.000000 0.566348 0.000000
0.110395 0.566348 0.000000
0.207307 0.566348 0.000000
0.267353 0.566348 0.000000
0.360361 0.566348 0.000000
0.502052 0.566348 0.000000
0.665199 0.566348 0.000000
0.780909 0.566348 0.000000
0.872717 0.566348 0.000000
0.935095 0.566348 0.000000
0.969126 0.566348 0.000000
0.987427 0.566348 0.000000
1.000000 0.566348 0.000000
1.000000 0.566348 0.000000
0.000000 0.670983 0.000000
0.000000 0.670983 0.000000
0.000000 0.670983 0.000000
0.000000 0.670983 0.000000
0.110395 0.670983 0.000000
0.207307 0.670983 0.000000
0.267353 0.670983 0.000000
0.360361 0.670983 0.000000
0.502052 0.670983 0.000000
0.665199 0.670983 0.000000
0.780909 0.670983 0.000000
0.872717 0.670983 0.000000
0.935095 0.670983 0.000000
0.969126 0.670983 0.000000
0.987427 0.670983 0.000000
1.000000 0.670983 0.000000
1.000000 0.670983 0.000000
0.000000 0.829457 0.000000
0.000000 0.829457 0.000000
0.000000 0.829457 0.000000
0.000000 0.829457 0.000000
0.110395 0.829457 0.000000
0.207307 0.829457 0.000000
0.267353 0.829457 0.000000
0.360361 0.829457 0.000000
0.502052 0.829457 0.000000
0.665199 0.829457 0.000000
0.780909 0.829457 0.000000
0.872717 0.829457 0.000000
0.935095 0.829457 0.000000
0.969126 0.829457 0.000000
0.987427 0.829457 0.000000
1.000000 0.829457 0.000000
1.000000 0.829457 0.000000
0.000000 0.923415 0.000000
0.000000 0.923415 0.000000
0.000000 0.923415 0.000000
0.000000 0.923415 0.000000
0.110395 0.923415 0.000000
0.207307 0.923415 0.000000
0.267353 0.923415 0.000000
0.360361 0.923415 0.000000
0.502052 0.923415 0.000000
0.665199 0.923415 0.000000
0.780909 0.923415 0.000000
0.872717 0.923415 0.000000
0.935095 0.923415 0.000000
0.969126 0.923415 0.000000
0.987427 0.923415 0.000000
1.000000 0.923415 0.000000
1.000000 0.923415 0.000000
0.000000 0.972820 0.000000
0.000000 0.972820 0.000000
0.000000 0.972820 0.000000
0.000000 0.972820 0.000000
0.110395 0.972820 0.000000
0.207307 0.972820 0.000000
0.267353 0.972820 0.000000
0.360361 0.972820 0.000000
0.502052 0.972820 0.000000
0.665199 0.972820 0.000000
0.780909 0.972820 0.000000
0.872717 0.972820 0.000000
0.935095 0.972820 0.000000
0.969126 0.972820 0.000000
0.987427 0.972820 0.000000
1.000000 0.972820 0.000000
1.000000 0.972820 0.000000
0.000000 1.000000 0.000000
0.000000 1.000000 0.000000
0.000000 1.000000 0.000000
0.000000 1.000000 0.000000
0.110395 1.000000 0.000000
0.207307 1.000000 0.000000
0.267353 1.000000 0.000000
0.360361 1.000000 0.000000
0.502052 1.000000 0.000000
0.665199 1.000000 0.000000
0.780909 1.000000 0.000000
0.872717 1.000000 0.000000
0.935095 1.000000 0.000000
0.969126 1.000000 0.000000
0.987427 1.000000 0.000000
1.000000 1.000000 0.000000
1.000000 1.000000 0.000000
0.000000 1.000000 0.000000
0.000000 1.000000 0.000000
0.000000 1.000000 0.000000
0.000000 1.000000 0.000000
0.110395 1.000000 0.000000
0.207307 1.000000 0.000000
0.267353 1.000000 0.000000
0.360361 1.000000 0.000000
0.502052 1.000000 0.000000
0.665199 1.000000 0.000000
0.780909 1.000000 0.000000
0.872717 1.000000 0.000000
0.935095 1.000000 0.000000
0.969126 1.000000 0.000000
0.987427 1.000000 0.000000
1.000000 1.000000 0.000000
1.000000 1.000000 0.000000
0.000000 0.000000 0.000000
0.000000 0.000000 0.000000
0.000000 0.000000 0.000000
0.000000 0.000000 0.000000
0.110395 0.000000 0.000000
0.207307 0.000000 0.000000
0.267353 0.000000 0.000000
0.360361 0.000000 0.000000
0.502052 0.000000 0.000000
0.665199 0.000000 0.000000
0.780909 0.000000 0.000000
0.872717 0.000000 0.000000
0.935095 0.000000 0.000000
0.969126 0.000000 0.000000
0.987427 0.000000 0.000000
1.000000 0.000000 0.000000
1.000000 0.000000 0.000000
0.000000 0.000000 0.000000
0.000000 0.000000 0.000000
0.000000 0.000000 0.000000
0.000000 0.000000 0.000000
0.110395 0.000000 0.000000
0.207307 0.000000 0.000000
0.267353 0.000000 0.000000
0.360361 0.000000 0.000000
0.502052 0.000000 0.000000
0.665199 0.000000 0.000000
0.780909 0.000000 0.000000
0.872717 0.000000 0.000000
0.935095 0.000000 0.000000
0.969126 0.000000 0.000000
0.987427 0.000000 0.000000
1.000000 0.000000 0.000000
1.000000 0.000000 0.000000
0.000000 0.000000 0.000000
0.000000 0.000000 0.000000
0.000000 0.000000 0.000000
0.000000 0.000000 0.000000
0.110395 0.000000 0.000000
0.207307 0.000000 0.000000
0.267353 0.000000 0.000000
0.360361 0.000000 0.000000
0.502052 0.000000 0.000000
0.665199 0.000000 0.000000
0.780909 0.000000 0.000000
0.872717 0.000000 0.000000
0.935095 0.000000 0.000000
0.969126 0.000000 0.000000
0.987427 0.000000 0.000000
1.000000 0.000000 0.000000
1.000000 0.000000 0.000000
0.000000 0.000000 0.000000
0.000000 0.000000 0.000000
0.000000 0.000000 0.000000
0.000000 0.000000 0.000000
0.110395 0.000000 0.000000
0.207307 0.000000 0.000000
0.267353 0.000000 0.000000
0.360361 0.000000 0.000000
0.502052 0.000000 0.000000
0.665199 0.000000 0.000000
0.780909 0.000000 0.000000
0.872717 0.000000 0.000000
0.935095 0.000000 0.000000
0.969126 0.000000 0.000000
0.987427 0.000000 0.000000
1.000000 0.000000 0.000000
1.000000 0.000000 0.000000
0.000000 0.151280 0.000000
0.000000 0.151280 0.000000
0.000000 0.151280 0.000000
0.000000 0.151280 0.000000
0.110395 0.151280 0.000000
0.207307 0.151280 0.000000
0.267353 0.151280 0.000000
0.360361 0.151280 0.000000
0.502052 0.151280 0.000000
0.665199 0.151280 0.000000
0.780909 0.151280 0.000000
0.872717 0.151280 0.000000
0.935095 0.151280 0.000000
0.969126 0.151280 0.000000
0.987427 0.151280 0.000000
1.000000 0.151280 0.000000
1.000000 0.151280 0.000000
0.000000 0.299707 0.000000
0.000000 0.299707 0.000000
0.000000 0.299707 0.000000
0.000000 0.299707 0.000000
0.110395 0.299707 0.000000
0.207307 0.299707 0.000000
0.267353 0.299707 0.000000
0.360361 0.299707 0.000000
0.502052 0.299707 0.000000
0.665199 0.299707 0.000000
0.780909 0.299707 0.000000
0.872717 0.299707 0.000000
0.935095 0.299707 0.000000
0.969126 0.299707 0.000000
0.987427 0.299707 0.000000
1.000000 0.299707 0.000000
1.000000 0.299707 0.000000
0.000000 0.405478 0.000000
0.000000 0.405478 0.000000
0.000000 0.405478 0.000000
0.000000 0.405478 0.000000
0.110395 0.405478 0.000000
0.207307 0.405478 0.000000
0.267353 0.405478 0.000000
0.360361 0.405478 0.000000
0.502052 0.405478 0.000000
0.665199 0.405478 0.000000
0.780909 0.405478 0.000000
0.872717 0.405478 0.000000
0.935095 0.405478 0.000000
0.969126 0.405478 0.000000
0.987427 0.405478 0.000000
1.000000 0.405478 0.000000
1.000000 0.405478 0.000000
0.000000 0.476845 0.000000
0.000000 0.476845 0.000000
0.000000 0.476845 0.000000
0.000000 0.476845 0.000000
0.110395 0.476845 0.000000
0.207307 0.476845 0.000000
0.267353 0.476845 0.000000
0.360361 0.476845 0.000000
0.502052 0.476845 0.000000
0.665199 0.476845 0.000000
0.780909 0.476845 0.000000
0.872717 0.476845 0.000000
0.935095 0.476845 0.000000
0.969126 0.476845 0.000000
0.987427 0.476845 0.000000
1.000000 0.476845 0.000000
1.000000 0.476845 0.000000
0.000000 0.510125 0.000000
0.000000 0.510125 0.000000
0.000000 0.510125 0.000000
0.000000 0.510125 0.000000
0.110395 0.510125 0.000000
0.207307 0.510125 0.000000
0.267353 0.510125 0.000000
0.360361 0.510125 0.000000
0.502052 0.510125 0.000000
0.665199 0.510125 0.000000
0.780909 0.510125 0.000000
0.872717 0.510125 0.000000
0.935095 0.510125 0.000000
0.969126 0.510125 0.000000
0.987427 0.510125 0.000000
1.000000 0.510125 0.000000
1.000000 0.510125 0.000000
0.000000 0.529664 0.000000
0.000000 0.529664 0.000000
0.000000 0.529664 0.000000
0.000000 0.529664 0.000000
0.110395 0.529664 0.000000
0.207307 0.529664 0.000000
0.267353 0.529664 0.000000
0.360361 0.529664 0.000000
0.502052 0.529664 0.000000
0.665199 0.529664 0.000000
0.780909 0.529664 0.000000
0.872717 0.529664 0.000000
0.935095 0.529664 0.000000
0.969126 0.529664 0.000000
0.987427 0.529664 0.000000
1.000000 0.529664 0.000000
1.000000 0.529664 0.000000
0.000000 0.566348 0.000000
0.000000 0.566348 0.000000
0.000000 0.566348 0.000000
0.000000 0.566348 0.000000
0.110395 0.566348 0.000000
0.207307 0.566348 0.000000
0.267353 0.566348 0.000000
0.360361 0.566348 0.000000
0.502052 0.566348 0.000000
0.665199 0.566348 0.000000
0.780909 0.566348 0.000000
0.872717 0.566348 0.000000
0.935095 0.566348 0.000000
0.969126 0.566348 0.000000
0.987427 0.566348 0.000000
1.000000 0.566348 0.000000
1.000000 0.566348 0.000000
0.000000 0.670983 0.000000
0.000000 0.670983 0.000000
0.000000 0.670983 0.000000
0.000000 0.670983 0.000000
0.110395 0.670983 0.000000
0.207307 0.670983 0.000000
0.267353 0.670983 0.000000
0.360361 0.670983 0.000000
0.502052 0.670983 0.000000
0.665199 0.670983 0.000000
0.780909 0.670983 0.000000
0.872717 0.670983 0.000000
0.935095 0.670983 0.000000
0.969126 0.670983 0.000000
0.987427 0.670983 0.000000
1.000000 0.670983 0.000000
1.000000 0.670983 0.000000
0.000000 0.829457 0.000000
0.000000 0.829457 0.000000
0.000000 0.829457 0.000000
0.000000 0.829457 0.000000
0.110395 0.829457 0.000000
0.207307 0.829457 0.000000
0.267353 0.829457 0.000000
0.360361 0.829457 0.000000
0.502052 0.829457 0.000000
0.665199 0.829457 0.000000
0.780909 0.829457 0.000000
0.872717 0.829457 0.000000
0.935095 0.829457 0.000000
0.969126 0.829457 0.000000
0.987427 0.829457 0.000000
1.000000 0.829457 0.000000
1.000000 0.829457 0.000000
0.000000 0.923415 0.000000
0.000000 0.923415 0.000000
0.000000 0.923415 0.000000
0.000000 0.923415 0.000000
0.110395 0.923415 0.000000
0.207307 0.923415 0.000000
0.267353 0.923415 0.000000
0.360361 0.923415 0.000000
0.502052 0.923415 0.000000
0.665199 0.923415 0.000000
0.780909 0.923415 0.000000
0.872717 0.923415 0.000000
0.935095 0.923415 0.000000
0.969126 0.923415 0.000000
0.987427 0.923415 0.000000
1.000000 0.923415 0.000000
1.000000 0.923415 0.000000
0.000000 0.972820 0.000000
0.000000 0.972820 0.000000
0.000000 0.972820 0.000000
0.000000 0.972820 0.000000
0.110395 0.972820 0.000000
0.207307 0.972820 0.000000
0.267353 0.972820 0.000000
0.360361 0.972820 0.000000
0.502052 0.972820 0.000000
0.665199 0.972820 0.000000
0.780909 0.972820 0.000000
0.872717 0.972820 0.000000
0.935095 0.972820 0.000000
0.969126 0.972820 0.000000
0.987427 0.972820 0.000000
1.000000 0.972820 0.000000
1.000000 0.972820 0.000000
0.000000 1.000000 0.000000
0.000000 1.000000 0.000000
0.000000 1.000000 0.000000
0.000000 1.000000 0.000000
0.110395 1.000000 0.000000
0.207307 1.000000 0.000000
0.267353 1.000000 0.000000
0.360361 1.000000 0.000000
0.502052 1.000000 0.000000
0.665199 1.000000 0.000000
0.780909 1.000000 0.000000
0.872717 1.000000 0.000000
0.935095 1.000000 0.000000
0.969126 1.000000 0.000000
0.987427 1.000000 0.000000
1.000000 1.000000 0.000000
1.000000 1.000000 0.000000
0.000000 1.000000 0.000000
0.000000 1.000000 0.000000
0.000000 1.000000 0.000000
0.000000 1.000000 0.000000
0.110395 1.000000 0.000000
0.207307 1.000000 0.000000
0.267353 1.000000 0.000000
0.360361 1.000000 0.000000
0.502052 1.000000 0.000000
0.665199 1.000000 0.000000
0.780909 1.000000 0.000000
0.872717 1.000000 0.000000
0.935095 1.000000 0.000000
0.969126 1.000000 0.000000
0.987427 1.000000 0.000000
1.000000 1.000000 0.000000
1.000000 1.000000 0.000000
0.000000 0.000000 0.000000
0.000000 0.000000 0.000000
0.000000 0.000000 0.000000
0.000000 0.000000 0.000000
0.110395 0.000000 0.000000
0.207307 0.000000 0.000000
0.267353 0.000000 0.000000
0.360361 0.000000 0.000000
0.502052 0.000000 0.000000
0.665199 0.000000 0.000000
0.780909 0.000000 0.000000
0.872717 0.000000 0.000000
0.935095 0.000000 0.000000
0.969126 0.000000 0.000000
0.987427 0.000000 0.000000
1.000000 0.000000 0.000000
1.000000 0.000000 0.000000
0.000000 0.000000 0.000000
