luts_tmp/dynamic_saturated.cube
TITLE "Exported LUT"
LUT_3D_SIZE 5
DOMAIN_MIN 0.0 0.0 0.0
DOMAIN_MAX 1.0 1.0 1.0
0.000000 0.000000 0.000000
0.110395 0.000000 0.000000
0.502052 0.000000 0.000000
0.935095 0.000000 0.000000
1.000000 0.000000 0.000000
0.000000 0.151280 0.000000
0.110395 0.151280 0.000000
0.502052 0.151280 0.000000
0.935095 0.151280 0.000000
1.000000 0.151280 0.000000
0.000000 0.510125 0.000000
0.110395 0.510125 0.000000
0.502052 0.510125 0.000000
0.935095 0.510125 0.000000
1.000000 0.510125 0.000000
0.000000 0.829457 0.000000
0.110395 0.829457 0.000000
0.502052 0.829457 0.000000
0.935095 0.829457 0.000000
1.000000 0.829457 0.000000
0.000000 1.000000 0.000000
0.110395 1.000000 0.000000
0.502052 1.000000 0.000000
0.935095 1.000000 0.000000
1.000000 1.000000 0.000000
0.000000 0.000000 0.110395
0.110395 0.000000 0.110395
0.502052 0.000000 0.110395
0.935095 0.000000 0.110395
1.000000 0.000000 0.110395
0.000000 0.151280 0.110395
0.110395 0.151280 0.110395
0.502052 0.110395 0.080560
0.935095 0.000000 0.000000
1.000000 0.000000 0.000000
0.000000 0.510125 0.110395
0.080560 0.510125 0.080560
0.502052 0.510125 0.080560
0.935095 0.497957 0.000000
1.000000 0.489643 0.000000
0.000000 0.829457 0.110395
0.000000 0.829457 0.000000
0.435714 0.829457 0.000000
0.935095 0.829457 0.000000
1.000000 0.785689 0.000000
0.000000 1.000000 0.110395
0.000000 1.000000 0.000000
0.400170 1.000000 0.000000
0.921451 1.000000 0.000000
1.000000 1.000000 0.000000
0.000000 0.000000 0.435714
0.110395 0.000000 0.435714
0.502052 0.000000 0.435714
0.935095 0.000000 0.435714
1.000000 0.000000 0.435714
0.000000 0.151280 0.435714
0.080560 0.110395 0.435714
0.502052 0.110395 0.435714
0.935095 0.000000 0.400170
1.000000 0.000000 0.378039
0.000000 0.510125 0.435714
0.080560 0.510125 0.435714
0.502052 0.510125 0.435714
0.935095 0.510125 0.449927
1.000000 0.506108 0.425921
0.000000 0.829457 0.435714
0.000000 0.829457 0.400170
0.521953 0.829457 0.449927
0.935095 0.829457 0.449927
1.000000 0.824981 0.425921
0.000000 1.000000 0.435714
0.000000 1.000000 0.378039
0.476845 1.000000 0.425921
0.935095 1.000000 0.425921
1.000000 1.000000 0.425921
0.000000 0.000000 0.868507
0.110395 0.000000 0.868507
0.502052 0.000000 0.868507
0.935095 0.000000 0.868507
1.000000 0.000000 0.868507
0.000000 0.151280 0.868507
0.000000 0.000000 0.868507
0.435714 0.000000 0.868507
0.935095 0.000000 0.868507
1.000000 0.000000 0.840523
0.000000 0.510125 0.868507
0.000000 0.497957 0.868507
0.521953 0.510125 0.868507
0.935095 0.510125 0.868507
1.000000 0.506108 0.866393
0.000000 0.829457 0.868507
0.000000 0.829457 0.868507
0.521953 0.829457 0.868507
0.935095 0.829457 0.868507
1.000000 0.915529 0.927328
0.000000 1.000000 0.868507
0.000000 1.000000 0.840523
0.476845 1.000000 0.866393
0.965416 1.000000 0.927328
1.000000 1.000000 0.927328
0.000000 0.000000 1.000000
0.110395 0.000000 1.000000
0.502052 0.000000 1.000000
0.935095 0.000000 1.000000
1.000000 0.000000 1.000000
0.000000 0.151280 1.000000
0.000000 0.000000 1.000000
0.400170 0.000000 1.000000
0.921451 0.000000 1.000000
1.000000 0.000000 1.000000
0.000000 0.510125 1.000000
0.000000 0.489643 1.000000
0.476845 0.506108 1.000000
0.935095 0.506108 1.000000
1.000000 0.506108 1.000000
0.000000 0.829457 1.000000
0.000000 0.785689 1.000000
0.476845 0.824981 1.000000
0.965416 0.915529 1.000000
1.000000 0.915529 1.000000
0.000000 1.000000 1.000000
0.000000 1.000000 1.000000
0.476845 1.000000 1.000000
0.965416 1.000000 1.000000
1.000000 1.000000 1.000000
