luts_tmp/dynamic_saturated.cube
TITLE "Exported LUT"
LUT_3D_SIZE 9
DOMAIN_MIN 0.0 0.0 0.0
DOMAIN_MAX 1.0 1.0 1.0
0.000000 0.000000 0.000000
0.000000 0.000000 0.000000
0.110395 0.000000 0.000000
0.267353 0.000000 0.000000
0.502052 0.000000 0.000000
0.780909 0.000000 0.000000
0.935095 0.000000 0.000000
0.987427 0.000000 0.000000
1.000000 0.000000 0.000000
0.000000 0.000000 0.000000
0.000000 0.000000 0.000000
0.110395 0.000000 0.000000
0.267353 0.000000 0.000000
0.502052 0.000000 0.000000
0.780909 0.000000 0.000000
0.935095 0.000000 0.000000
0.987427 0.000000 0.000000
1.000000 0.000000 0.000000
0.000000 0.151280 0.000000
0.000000 0.151280 0.000000
0.110395 0.151280 0.000000
0.267353 0.151280 0.000000
0.502052 0.151280 0.000000
0.780909 0.151280 0.000000
0.935095 0.151280 0.000000
0.987427 0.151280 0.000000
1.000000 0.151280 0.000000
0.000000 0.405478 0.000000
0.000000 0.405478 0.000000
0.110395 0.405478 0.000000
0.267353 0.405478 0.000000
0.502052 0.405478 0.000000
0.780909 0.405478 0.000000
0.935095 0.405478 0.000000
0.987427 0.405478 0.000000
1.000000 0.405478 0.000000
0.000000 0.510125 0.000000
0.000000 0.510125 0.000000
0.110395 0.510125 0.000000
0.267353 0.510125 0.000000
0.502052 0.510125 0.000000
0.780909 0.510125 0.000000
0.935095 0.510125 0.000000
0.987427 0.510125 0.000000
1.000000 0.510125 0.000000
0.000000 0.566348 0.000000
0.000000 0.566348 0.000000
0.110395 0.566348 0.000000
0.267353 0.566348 0.000000
0.502052 0.566348 0.000000
0.780909 0.566348 0.000000
0.935095 0.566348 0.000000
0.987427 0.566348 0.000000
1.000000 0.566348 0.000000
0.000000 0.829457 0.000000
0.000000 0.829457 0.000000
0.110395 0.829457 0.000000
0.267353 0.829457 0.000000
0.502052 0.829457 0.000000
0.780909 0.829457 0.000000
0.935095 0.829457 0.000000
0.987427 0.829457 0.000000
1.000000 0.829457 0.000000
0.000000 0.972820 0.000000
0.000000 0.972820 0.000000
0.110395 0.972820 0.000000
0.267353 0.972820 0.000000
0.502052 0.972820 0.000000
0.780909 0.972820 0.000000
0.935095 0.972820 0.000000
0.987427 0.972820 0.000000
1.000000 0.972820 0.000000
0.000000 1.000000 0.000000
0.000000 1.000000 0.000000
0.110395 1.000000 0.000000
0.267353 1.000000 0.000000
0.502052 1.000000 0.000000
0.780909 1.000000 0.000000
0.935095 1.000000 0.000000
0.987427 1.000000 0.000000
1.000000 1.000000 0.000000
0.000000 0.000000 0.000000
0.000000 0.000000 0.000000
0.110395 0.000000 0.000000
0.267353 0.000000 0.000000
0.502052 0.000000 0.000000
0.780909 0.000000 0.000000
0.935095 0.000000 0.000000
0.987427 0.000000 0.000000
1.000000 0.000000 0.000000
0.000000 0.000000 0.000000
0.000000 0.000000 0.000000
0.110395 0.000000 0.000000
0.267353 0.000000 0.000000
0.502052 0.000000 0.000000
0.780909 0.000000 0.000000
0.935095 0.000000 0.000000
0.987427 0.000000 0.000000
1.000000 0.000000 0.000000
0.000000 0.151280 0.000000
0.000000 0.151280 0.000000
0.110395 0.151280 0.000000
0.267353 0.151280 0.000000
0.502052 0.151280 0.000000
0.780909 0.151280 0.000000
0.935095 0.151280 0.000000
0.987427 0.151280 0.000000
1.000000 0.151280 0.000000
0.000000 0.405478 0.000000
0.000000 0.405478 0.000000
0.110395 0.405478 0.000000
0.267353 0.405478 0.000000
0.502052 0.405478 0.000000
0.780909 0.405478 0.000000
0.935095 0.405478 0.000000
0.987427 0.405478 0.000000
1.000000 0.405478 0.000000
0.000000 0.510125 0.000000
0.000000 0.510125 0.000000
0.110395 0.510125 0.000000
0.267353 0.510125 0.000000
0.502052 0.510125 0.000000
0.780909 0.510125 0.000000
0.935095 0.510125 0.000000
0.987427 0.510125 0.000000
1.000000 0.510125 0.000000
0.000000 0.566348 0.000000
0.000000 0.566348 0.000000
0.110395 0.566348 0.000000
0.267353 0.566348 0.000000
0.502052 0.566348 0.000000
0.780909 0.566348 0.000000
0.935095 0.566348 0.000000
0.987427 0.566348 0.000000
1.000000 0.566348 0.000000
0.000000 0.829457 0.000000
0.000000 0.829457 0.000000
0.110395 0.829457 0.000000
0.267353 0.829457 0.000000
0.502052 0.829457 0.000000
0.780909 0.829457 0.000000
0.935095 0.829457 0.000000
0.987427 0.829457 0.000000
1.000000 0.829457 0.000000
0.000000 0.972820 0.000000
0.000000 0.972820 0.000000
0.110395 0.972820 0.000000
0.267353 0.972820 0.000000
0.502052 0.972820 0.000000
0.780909 0.972820 0.000000
0.935095 0.972820 0.000000
0.987427 0.972820 0.000000
1.000000 0.972820 0.000000
0.000000 1.000000 0.000000
0.000000 1.000000 0.000000
0.110395 1.000000 0.000000
0.267353 1.000000 0.000000
0.502052 1.000000 0.000000
0.780909 1.000000 0.000000
0.935095 1.000000 0.000000
0.987427 1.000000 0.000000
1.000000 1.000000 0.000000
0.000000 0.000000 0.110395
0.000000 0.000000 0.110395
0.110395 0.000000 0.110395
0.267353 0.000000 0.110395
0.502052 0.000000 0.110395
0.780909 0.000000 0.110395
0.935095 0.000000 0.110395
0.987427 0.000000 0.110395
1.000000 0.000000 0.110395
0.000000 0.000000 0.110395
0.000000 0.000000 0.110395
0.110395 0.000000 0.110395
0.267353 0.000000 0.110395
0.502052 0.000000 0.110395
0.780909 0.000000 0.110395
0.935095 0.000000 0.110395
0.987427 0.000000 0.110395
1.000000 0.000000 0.110395
0.000000 0.151280 0.110395
0.000000 0.151280 0.110395
0.110395 0.151280 0.110395
0.267353 0.132737 0.080560
0.502052 0.110395 0.080560
0.780909 0.080560 0.000000
0.935095 0.000000 0.000000
0.987427 0.000000 0.000000
1.000000 0.000000 0.000000
0.000000 0.405478 0.110395
0.000000 0.405478 0.110395
0.110395 0.405478 0.080560
0.267353 0.405478 0.080560
0.502052 0.389294 0.080560
0.780909 0.366368 0.000000
0.935095 0.347973 0.000000
0.987427 0.341576 0.000000
1.000000 0.335031 0.000000
0.000000 0.510125 0.110395
0.000000 0.510125 0.110395
0.080560 0.510125 0.080560
0.258497 0.510125 0.080560
0.502052 0.510125 0.080560
0.780909 0.506108 0.000000
0.935095 0.497957 0.000000
0.987427 0.493821 0.000000
1.000000 0.489643 0.000000
0.000000 0.566348 0.110395
0.000000 0.566348 0.110395
0.080560 0.566348 0.000000
0.249261 0.566348 0.000000
0.463620 0.566348 0.000000
0.780909 0.566348 0.000000
0.935095 0.555647 0.000000
0.987427 0.544693 0.000000
1.000000 0.544693 0.000000
0.000000 0.829457 0.110395
0.000000 0.829457 0.110395
0.000000 0.829457 0.000000
0.239595 0.829457 0.000000
0.435714 0.829457 0.000000
0.761432 0.829457 0.000000
0.935095 0.829457 0.000000
0.987427 0.797487 0.000000
1.000000 0.785689 0.000000
0.000000 0.972820 0.110395
0.000000 0.972820 0.110395
0.000000 0.972820 0.000000
0.229437 0.972820 0.000000
0.410703 0.972820 0.000000
0.736210 0.972820 0.000000
0.925374 0.972820 0.000000
0.987427 0.972820 0.000000
1.000000 0.970975 0.000000
0.000000 1.000000 0.110395
0.000000 1.000000 0.110395
0.000000 1.000000 0.000000
0.229437 1.000000 0.000000
0.400170 1.000000 0.000000
0.731039 1.000000 0.000000
0.921451 1.000000 0.000000
0.985616 1.000000 0.000000
1.000000 1.000000 0.000000
0.000000 0.000000 0.275870
0.000000 0.000000 0.275870
0.110395 0.000000 0.275870
0.267353 0.000000 0.275870
0.502052 0.000000 0.275870
0.780909 0.000000 0.275870
0.935095 0.000000 0.275870
0.987427 0.000000 0.275870
1.000000 0.000000 0.275870
0.000000 0.000000 0.275870
0.000000 0.000000 0.275870
0.110395 0.000000 0.275870
0.267353 0.000000 0.275870
0.502052 0.000000 0.275870
0.780909 0.000000 0.275870
0.935095 0.000000 0.275870
0.987427 0.000000 0.275870
1.000000 0.000000 0.275870
0.000000 0.151280 0.275870
0.000000 0.151280 0.275870
0.110395 0.132737 0.275870
0.267353 0.132737 0.275870
0.502052 0.110395 0.258497
0.780909 0.080560 0.249261
0.935095 0.000000 0.239595
0.987427 0.000000 0.229437
1.000000 0.000000 0.229437
0.000000 0.405478 0.275870
0.000000 0.405478 0.275870
0.110395 0.405478 0.275870
0.267353 0.405478 0.275870
0.502052 0.410703 0.275870
0.780909 0.394777 0.267353
0.935095 0.378039 0.258497
0.987427 0.360361 0.239595
1.000000 0.354232 0.239595
0.000000 0.510125 0.275870
0.000000 0.510125 0.275870
0.080560 0.510125 0.258497
0.275870 0.510125 0.275870
0.502052 0.510125 0.275870
0.780909 0.510125 0.267353
0.935095 0.506108 0.258497
0.987427 0.497957 0.239595
1.000000 0.497957 0.239595
0.000000 0.566348 0.275870
0.000000 0.566348 0.275870
0.080560 0.566348 0.249261
0.267353 0.566348 0.267353
0.493821 0.566348 0.267353
0.780909 0.566348 0.267353
0.935095 0.559241 0.258497
0.987427 0.552025 0.239595
1.000000 0.552025 0.239595
0.000000 0.829457 0.275870
0.000000 0.829457 0.275870
0.000000 0.829457 0.239595
0.249261 0.829457 0.258497
0.463620 0.829457 0.258497
0.768805 0.829457 0.258497
0.935095 0.829457 0.258497
0.987427 0.809079 0.239595
1.000000 0.804466 0.239595
0.000000 0.972820 0.275870
0.000000 0.972820 0.275870
0.000000 0.972820 0.229437
0.239595 0.972820 0.239595
0.435714 0.972820 0.239595
0.753971 0.972820 0.239595
0.929277 0.972820 0.239595
0.987427 0.972820 0.239595
1.000000 0.970975 0.239595
0.000000 1.000000 0.275870
0.000000 1.000000 0.275870
0.000000 1.000000 0.229437
0.239595 1.000000 0.239595
0.430851 1.000000 0.239595
0.748948 1.000000 0.239595
0.927328 1.000000 0.239595
0.985616 1.000000 0.239595
1.000000 1.000000 0.239595
0.000000 0.000000 0.435714
0.000000 0.000000 0.435714
0.110395 0.000000 0.435714
0.267353 0.000000 0.435714
0.502052 0.000000 0.435714
0.780909 0.000000 0.435714
0.935095 0.000000 0.435714
0.987427 0.000000 0.435714
1.000000 0.000000 0.435714
0.000000 0.000000 0.435714
0.000000 0.000000 0.435714
0.110395 0.000000 0.435714
0.267353 0.000000 0.435714
0.502052 0.000000 0.435714
0.780909 0.000000 0.435714
0.935095 0.000000 0.435714
0.987427 0.000000 0.435714
1.000000 0.000000 0.435714
0.000000 0.151280 0.435714
0.000000 0.151280 0.435714
0.080560 0.110395 0.435714
0.258497 0.110395 0.435714
0.502052 0.110395 0.435714
0.780909 0.080560 0.415850
0.935095 0.000000 0.400170
0.987427 0.000000 0.383716
1.000000 0.000000 0.378039
0.000000 0.405478 0.435714
0.000000 0.405478 0.435714
0.080560 0.389294 0.435714
0.275870 0.410703 0.435714
0.502052 0.410703 0.435714
0.780909 0.394777 0.430851
0.935095 0.378039 0.415850
0.987427 0.360361 0.400170
1.000000 0.354232 0.394777
0.000000 0.510125 0.435714
0.000000 0.510125 0.435714
0.080560 0.510125 0.435714
0.275870 0.510125 0.435714
0.502052 0.510125 0.435714
0.780909 0.514104 0.468078
0.935095 0.510125 0.449927
0.987427 0.506108 0.425921
1.000000 0.506108 0.425921
0.000000 0.566348 0.435714
0.000000 0.566348 0.435714
0.080560 0.566348 0.415850
0.267353 0.566348 0.430851
0.559241 0.566348 0.468078
0.780909 0.566348 0.468078
0.935095 0.573349 0.449927
0.987427 0.566348 0.425921
1.000000 0.562808 0.425921
0.000000 0.829457 0.435714
0.000000 0.829457 0.435714
0.000000 0.829457 0.400170
0.249261 0.829457 0.415850
0.521953 0.829457 0.449927
0.788065 0.829457 0.449927
0.935095 0.829457 0.449927
0.987427 0.829457 0.425921
1.000000 0.824981 0.425921
0.000000 0.972820 0.435714
0.000000 0.972820 0.435714
0.000000 0.972820 0.383716
0.239595 0.972820 0.400170
0.485422 0.972820 0.425921
0.778507 0.972820 0.425921
0.935095 0.972820 0.425921
0.987427 0.972820 0.425921
1.000000 0.970975 0.425921
0.000000 1.000000 0.435714
0.000000 1.000000 0.435714
0.000000 1.000000 0.378039
0.239595 1.000000 0.394777
0.476845 1.000000 0.425921
0.773674 1.000000 0.425921
0.935095 1.000000 0.425921
0.987427 1.000000 0.425921
1.000000 1.000000 0.425921
0.000000 0.000000 0.638386
0.000000 0.000000 0.638386
0.110395 0.000000 0.638386
0.267353 0.000000 0.638386
0.502052 0.000000 0.638386
0.780909 0.000000 0.638386
0.935095 0.000000 0.638386
0.987427 0.000000 0.638386
1.000000 0.000000 0.638386
0.000000 0.000000 0.638386
0.000000 0.000000 0.638386
0.110395 0.000000 0.638386
0.267353 0.000000 0.638386
0.502052 0.000000 0.638386
0.780909 0.000000 0.638386
0.935095 0.000000 0.638386
0.987427 0.000000 0.638386
1.000000 0.000000 0.638386
0.000000 0.151280 0.638386
0.000000 0.151280 0.638386
0.080560 0.080560 0.638386
0.249261 0.080560 0.638386
0.463620 0.080560 0.638386
0.780909 0.080560 0.638386
0.935095 0.000000 0.616558
0.987427 0.000000 0.590417
1.000000 0.000000 0.587051
0.000000 0.405478 0.638386
0.000000 0.405478 0.638386
0.080560 0.366368 0.638386
0.267353 0.394777 0.638386
0.493821 0.394777 0.638386
0.780909 0.394777 0.638386
0.935095 0.378039 0.626025
0.987427 0.360361 0.606913
1.000000 0.354232 0.603657
0.000000 0.510125 0.638386
0.000000 0.510125 0.638386
0.080560 0.506108 0.638386
0.267353 0.510125 0.638386
0.559241 0.514104 0.638386
0.780909 0.514104 0.638386
0.935095 0.510125 0.647472
0.987427 0.506108 0.635323
1.000000 0.506108 0.629142
0.000000 0.566348 0.638386
0.000000 0.566348 0.638386
0.080560 0.566348 0.638386
0.267353 0.566348 0.638386
0.559241 0.566348 0.638386
0.780909 0.566348 0.638386
0.935095 0.622888 0.720565
0.987427 0.593760 0.685189
1.000000 0.593760 0.682376
0.000000 0.829457 0.638386
0.000000 0.829457 0.638386
0.000000 0.829457 0.616558
0.249261 0.829457 0.626025
0.521953 0.829457 0.647472
0.842715 0.829457 0.720565
0.935095 0.829457 0.720565
0.987427 0.857874 0.685189
1.000000 0.857874 0.682376
0.000000 0.972820 0.638386
0.000000 0.972820 0.638386
0.000000 0.972820 0.590417
0.239595 0.972820 0.606913
0.485422 0.972820 0.635323
0.818211 0.972820 0.685189
0.944696 0.972820 0.685189
0.987427 0.972820 0.685189
1.000000 0.974660 0.682376
0.000000 1.000000 0.638386
0.000000 1.000000 0.638386
0.000000 1.000000 0.587051
0.239595 1.000000 0.603657
0.476845 1.000000 0.629142
0.815939 1.000000 0.682376
0.944696 1.000000 0.682376
0.987427 1.000000 0.682376
1.000000 1.000000 0.682376
0.000000 0.000000 0.868507
0.000000 0.000000 0.868507
0.110395 0.000000 0.868507
0.267353 0.000000 0.868507
0.502052 0.000000 0.868507
0.780909 0.000000 0.868507
0.935095 0.000000 0.868507
0.987427 0.000000 0.868507
1.000000 0.000000 0.868507
0.000000 0.000000 0.868507
0.000000 0.000000 0.868507
0.110395 0.000000 0.868507
0.267353 0.000000 0.868507
0.502052 0.000000 0.868507
0.780909 0.000000 0.868507
0.935095 0.000000 0.868507
0.987427 0.000000 0.868507
1.000000 0.000000 0.868507
0.000000 0.151280 0.868507
0.000000 0.151280 0.868507
0.000000 0.000000 0.868507
0.239595 0.000000 0.868507
0.435714 0.000000 0.868507
0.761432 0.000000 0.868507
0.935095 0.000000 0.868507
0.987427 0.000000 0.849251
1.000000 0.000000 0.840523
0.000000 0.405478 0.868507
0.000000 0.405478 0.868507
0.000000 0.347973 0.868507
0.249261 0.378039 0.868507
0.463620 0.378039 0.868507
0.768805 0.378039 0.868507
0.935095 0.378039 0.868507
0.987427 0.360361 0.855728
1.000000 0.354232 0.851417
0.000000 0.510125 0.868507
0.000000 0.510125 0.868507
0.000000 0.497957 0.868507
0.249261 0.506108 0.868507
0.521953 0.510125 0.868507
0.788065 0.510125 0.868507
0.935095 0.510125 0.868507
0.987427 0.506108 0.868507
1.000000 0.506108 0.866393
0.000000 0.566348 0.868507
0.000000 0.566348 0.868507
0.000000 0.555647 0.868507
0.249261 0.559241 0.868507
0.521953 0.573349 0.868507
0.842715 0.622888 0.868507
0.935095 0.622888 0.868507
0.987427 0.593760 0.887264
1.000000 0.593760 0.887264
0.000000 0.829457 0.868507
0.000000 0.829457 0.868507
0.000000 0.829457 0.868507
0.249261 0.829457 0.868507
0.521953 0.829457 0.868507
0.842715 0.829457 0.868507
0.935095 0.829457 0.868507
0.987427 0.919483 0.931221
1.000000 0.915529 0.927328
0.000000 0.972820 0.868507
0.000000 0.972820 0.868507
0.000000 0.972820 0.849251
0.239595 0.972820 0.855728
0.485422 0.972820 0.868507
0.818211 0.972820 0.887264
0.967273 0.972820 0.931221
0.987427 0.972820 0.931221
1.000000 0.981980 0.927328
0.000000 1.000000 0.868507
0.000000 1.000000 0.868507
0.000000 1.000000 0.840523
0.239595 1.000000 0.851417
0.476845 1.000000 0.866393
0.815939 1.000000 0.887264
0.965416 1.000000 0.927328
0.991039 1.000000 0.927328
1.000000 1.000000 0.927328
0.000000 0.000000 0.976496
0.000000 0.000000 0.976496
0.110395 0.000000 0.976496
0.267353 0.000000 0.976496
0.502052 0.000000 0.976496
0.780909 0.000000 0.976496
0.935095 0.000000 0.976496
0.987427 0.000000 0.976496
1.000000 0.000000 0.976496
0.000000 0.000000 0.976496
0.000000 0.000000 0.976496
0.110395 0.000000 0.976496
0.267353 0.000000 0.976496
0.502052 0.000000 0.976496
0.780909 0.000000 0.976496
0.935095 0.000000 0.976496
0.987427 0.000000 0.976496
1.000000 0.000000 0.976496
0.000000 0.151280 0.976496
0.000000 0.151280 0.976496
0.000000 0.000000 0.976496
0.229437 0.000000 0.976496
0.410703 0.000000 0.976496
0.736210 0.000000 0.976496
0.925374 0.000000 0.976496
0.987427 0.000000 0.976496
1.000000 0.000000 0.972820
0.000000 0.405478 0.976496
0.000000 0.405478 0.976496
0.000000 0.341576 0.976496
0.239595 0.360361 0.976496
0.435714 0.360361 0.976496
0.753971 0.360361 0.976496
0.929277 0.360361 0.976496
0.987427 0.360361 0.976496
1.000000 0.354232 0.972820
0.000000 0.510125 0.976496
0.000000 0.510125 0.976496
0.000000 0.493821 0.976496
0.239595 0.497957 0.976496
0.485422 0.506108 0.976496
0.778507 0.506108 0.976496
0.935095 0.506108 0.976496
0.987427 0.506108 0.976496
1.000000 0.506108 0.974660
0.000000 0.566348 0.976496
0.000000 0.566348 0.976496
0.000000 0.544693 0.976496
0.239595 0.552025 0.976496
0.485422 0.566348 0.976496
0.818211 0.593760 0.976496
0.944696 0.593760 0.976496
0.987427 0.593760 0.976496
1.000000 0.593760 0.978328
0.000000 0.829457 0.976496
0.000000 0.829457 0.976496
0.000000 0.797487 0.976496
0.239595 0.809079 0.976496
0.485422 0.829457 0.976496
0.818211 0.857874 0.976496
0.967273 0.919483 0.976496
0.987427 0.919483 0.976496
1.000000 0.915529 0.983800
0.000000 0.972820 0.976496
0.000000 0.972820 0.976496
0.000000 0.972820 0.976496
0.239595 0.972820 0.976496
0.485422 0.972820 0.976496
0.818211 0.972820 0.976496
0.967273 0.972820 0.976496
0.987427 0.972820 0.976496
1.000000 1.000000 1.000000
0.000000 1.000000 0.976496
0.000000 1.000000 0.976496
0.000000 1.000000 0.972820
0.239595 1.000000 0.972820
0.476845 1.000000 0.974660
0.815939 1.000000 0.978328
0.965416 1.000000 0.983800
1.000000 1.000000 1.000000
1.000000 1.000000 1.000000
0.000000 0.000000 1.000000
0.000000 0.000000 1.000000
0.110395 0.000000 1.000000
0.267353 0.000000 1.000000
0.502052 0.000000 1.000000
0.780909 0.000000 1.000000
0.935095 0.000000 1.000000
0.987427 0.000000 1.000000
1.000000 0.000000 1.000000
0.000000 0.000000 1.000000
0.000000 0.000000 1.000000
0.110395 0.000000 1.000000
0.267353 0.000000 1.000000
0.502052 0.000000 1.000000
0.780909 0.000000 1.000000
0.935095 0.000000 1.000000
0.987427 0.000000 1.000000
1.000000 0.000000 1.000000
0.000000 0.151280 1.000000
0.000000 0.151280 1.000000
0.000000 0.000000 1.000000
0.229437 0.000000 1.000000
0.400170 0.000000 1.000000
0.731039 0.000000 1.000000
0.921451 0.000000 1.000000
0.985616 0.000000 1.000000
1.000000 0.000000 1.000000
0.000000 0.405478 1.000000
0.000000 0.405478 1.000000
0.000000 0.335031 1.000000
0.239595 0.354232 1.000000
0.430851 0.354232 1.000000
0.748948 0.354232 1.000000
0.927328 0.354232 1.000000
0.985616 0.354232 1.000000
1.000000 0.354232 1.000000
0.000000 0.510125 1.000000
0.000000 0.510125 1.000000
0.000000 0.489643 1.000000
0.239595 0.497957 1.000000
0.476845 0.506108 1.000000
0.773674 0.506108 1.000000
0.935095 0.506108 1.000000
0.987427 0.506108 1.000000
1.000000 0.506108 1.000000
0.000000 0.566348 1.000000
0.000000 0.566348 1.000000
0.000000 0.544693 1.000000
0.239595 0.552025 1.000000
0.476845 0.562808 1.000000
0.815939 0.593760 1.000000
0.944696 0.593760 1.000000
0.987427 0.593760 1.000000
1.000000 0.593760 1.000000
0.000000 0.829457 1.000000
0.000000 0.829457 1.000000
0.000000 0.785689 1.000000
0.239595 0.804466 1.000000
0.476845 0.824981 1.000000
0.815939 0.857874 1.000000
0.965416 0.915529 1.000000
0.991039 0.915529 1.000000
1.000000 0.915529 1.000000
0.000000 0.972820 1.000000
0.000000 0.972820 1.000000
0.000000 0.970975 1.000000
0.239595 0.970975 1.000000
0.476845 0.970975 1.000000
0.815939 0.974660 1.000000
0.965416 0.981980 1.000000
1.000000 1.000000 1.000000
1.000000 1.000000 1.000000
0.000000 1.000000 1.000000
0.000000 1.000000 1.000000
0.000000 1.000000 1.000000
0.239595 1.000000 1.000000
0.476845 1.000000 1.000000
0.815939 1.000000 1.000000
0.965416 1.000000 1.000000
1.000000 1.000000 1.000000
1.000000 1.000000 1.000000
