luts_tmp/only_green.cube
TITLE "Exported LUT"
LUT_3D_SIZE 9
DOMAIN_MIN 0.0 0.0 0.0
DOMAIN_MAX 1.0 1.0 1.0
0.000000 0.000000 0.000000
0.000000 0.000000 0.000000
0.000000 0.000000 0.000000
0.000000 0.000000 0.000000
0.000000 0.000000 0.000000
0.000000 0.000000 0.000000
0.000000 0.000000 0.000000
0.000000 0.000000 0.000000
0.000000 0.000000 0.000000
0.000000 0.110395 0.000000
0.000000 0.110395 0.000000
0.000000 0.110395 0.000000
0.000000 0.110395 0.000000
0.000000 0.110395 0.000000
0.000000 0.110395 0.000000
0.000000 0.110395 0.000000
0.000000 0.110395 0.000000
0.000000 0.110395 0.000000
0.000000 0.249261 0.000000
0.000000 0.249261 0.000000
0.000000 0.249261 0.000000
0.000000 0.249261 0.000000
0.000000 0.249261 0.000000
0.000000 0.249261 0.000000
0.000000 0.249261 0.000000
0.000000 0.249261 0.000000
0.000000 0.249261 0.000000
0.000000 0.372258 0.000000
0.000000 0.372258 0.000000
0.000000 0.372258 0.000000
0.000000 0.372258 0.000000
0.000000 0.372258 0.000000
0.000000 0.372258 0.000000
0.000000 0.372258 0.000000
0.000000 0.372258 0.000000
0.000000 0.372258 0.000000
0.000000 0.497957 0.000000
0.000000 0.497957 0.000000
0.000000 0.497957 0.000000
0.000000 0.497957 0.000000
0.000000 0.497957 0.000000
0.000000 0.497957 0.000000
0.000000 0.497957 0.000000
0.000000 0.497957 0.000000
0.000000 0.497957 0.000000
0.000000 0.626025 0.000000
0.000000 0.626025 0.000000
0.000000 0.626025 0.000000
0.000000 0.626025 0.000000
0.000000 0.626025 0.000000
0.000000 0.626025 0.000000
0.000000 0.626025 0.000000
0.000000 0.626025 0.000000
0.000000 0.626025 0.000000
0.000000 0.748948 0.000000
0.000000 0.748948 0.000000
0.000000 0.748948 0.000000
0.000000 0.748948 0.000000
0.000000 0.748948 0.000000
0.000000 0.748948 0.000000
0.000000 0.748948 0.000000
0.000000 0.748948 0.000000
0.000000 0.748948 0.000000
0.000000 0.874813 0.000000
0.000000 0.874813 0.000000
0.000000 0.874813 0.000000
0.000000 0.874813 0.000000
0.000000 0.874813 0.000000
0.000000 0.874813 0.000000
0.000000 0.874813 0.000000
0.000000 0.874813 0.000000
0.000000 0.874813 0.000000
0.000000 1.000000 0.000000
0.000000 1.000000 0.000000
0.000000 1.000000 0.000000
0.000000 1.000000 0.000000
0.000000 1.000000 0.000000
0.000000 1.000000 0.000000
0.000000 1.000000 0.000000
0.000000 1.000000 0.000000
0.000000 1.000000 0.000000
0.000000 0.000000 0.000000
0.000000 0.000000 0.000000
0.000000 0.000000 0.000000
0.000000 0.000000 0.000000
0.000000 0.000000 0.000000
0.000000 0.000000 0.000000
0.000000 0.000000 0.000000
0.000000 0.000000 0.000000
0.000000 0.000000 0.000000
0.000000 0.110395 0.000000
0.000000 0.110395 0.000000
0.000000 0.110395 0.000000
0.000000 0.110395 0.000000
0.000000 0.110395 0.000000
0.000000 0.110395 0.000000
0.000000 0.110395 0.000000
0.000000 0.110395 0.000000
0.000000 0.110395 0.000000
0.000000 0.249261 0.000000
0.000000 0.249261 0.000000
0.000000 0.249261 0.000000
0.000000 0.249261 0.000000
0.000000 0.249261 0.000000
0.000000 0.249261 0.000000
0.000000 0.249261 0.000000
0.000000 0.249261 0.000000
0.000000 0.249261 0.000000
0.000000 0.372258 0.000000
0.000000 0.372258 0.000000
0.000000 0.372258 0.000000
0.000000 0.372258 0.000000
0.000000 0.372258 0.000000
0.000000 0.372258 0.000000
0.000000 0.372258 0.000000
0.000000 0.372258 0.000000
0.000000 0.372258 0.000000
0.000000 0.497957 0.000000
0.000000 0.497957 0.000000
0.000000 0.497957 0.000000
0.000000 0.497957 0.000000
0.000000 0.497957 0.000000
0.000000 0.497957 0.000000
0.000000 0.497957 0.000000
0.000000 0.497957 0.000000
0.000000 0.497957 0.000000
0.000000 0.626025 0.000000
0.000000 0.626025 0.000000
0.000000 0.626025 0.000000
0.000000 0.626025 0.000000
0.000000 0.626025 0.000000
0.000000 0.626025 0.000000
0.000000 0.626025 0.000000
0.000000 0.626025 0.000000
0.000000 0.626025 0.000000
0.000000 0.748948 0.000000
0.000000 0.748948 0.000000
0.000000 0.748948 0.000000
0.000000 0.748948 0.000000
0.000000 0.748948 0.000000
0.000000 0.748948 0.000000
0.000000 0.748948 0.000000
0.000000 0.748948 0.000000
0.000000 0.748948 0.000000
0.000000 0.874813 0.000000
0.000000 0.874813 0.000000
0.000000 0.874813 0.000000
0.000000 0.874813 0.000000
0.000000 0.874813 0.000000
0.000000 0.874813 0.000000
0.000000 0.874813 0.000000
0.000000 0.874813 0.000000
0.000000 0.874813 0.000000
0.000000 1.000000 0.000000
0.000000 1.000000 0.000000
0.000000 1.000000 0.000000
0.000000 1.000000 0.000000
0.000000 1.000000 0.000000
0.000000 1.000000 0.000000
0.000000 1.000000 0.000000
0.000000 1.000000 0.000000
0.000000 1.000000 0.000000
0.000000 0.000000 0.000000
0.000000 0.000000 0.000000
0.000000 0.000000 0.000000
0.000000 0.000000 0.000000
0.000000 0.000000 0.000000
0.000000 0.000000 0.000000
0.000000 0.000000 0.000000
0.000000 0.000000 0.000000
0.000000 0.000000 0.000000
0.000000 0.110395 0.000000
0.000000 0.110395 0.000000
0.000000 0.110395 0.000000
0.000000 0.110395 0.000000
0.000000 0.110395 0.000000
0.000000 0.110395 0.000000
0.000000 0.110395 0.000000
0.000000 0.110395 0.000000
0.000000 0.110395 0.000000
0.000000 0.249261 0.000000
0.000000 0.249261 0.000000
0.000000 0.249261 0.000000
0.000000 0.249261 0.000000
0.000000 0.249261 0.000000
0.000000 0.249261 0.000000
0.000000 0.249261 0.000000
0.000000 0.249261 0.000000
0.000000 0.249261 0.000000
0.000000 0.372258 0.000000
0.000000 0.372258 0.000000
0.000000 0.372258 0.000000
0.000000 0.372258 0.000000
0.000000 0.372258 0.000000
0.000000 0.372258 0.000000
0.000000 0.372258 0.000000
0.000000 0.372258 0.000000
0.000000 0.372258 0.000000
0.000000 0.497957 0.000000
0.000000 0.497957 0.000000
0.000000 0.497957 0.000000
0.000000 0.497957 0.000000
0.000000 0.497957 0.000000
0.000000 0.497957 0.000000
0.000000 0.497957 0.000000
0.000000 0.497957 0.000000
0.000000 0.497957 0.000000
0.000000 0.626025 0.000000
0.000000 0.626025 0.000000
0.000000 0.626025 0.000000
0.000000 0.626025 0.000000
0.000000 0.626025 0.000000
0.000000 0.626025 0.000000
0.000000 0.626025 0.000000
0.000000 0.626025 0.000000
0.000000 0.626025 0.000000
0.000000 0.748948 0.000000
0.000000 0.748948 0.000000
0.000000 0.748948 0.000000
0.000000 0.748948 0.000000
0.000000 0.748948 0.000000
0.000000 0.748948 0.000000
0.000000 0.748948 0.000000
0.000000 0.748948 0.000000
0.000000 0.748948 0.000000
0.000000 0.874813 0.000000
0.000000 0.874813 0.000000
0.000000 0.874813 0.000000
0.000000 0.874813 0.000000
0.000000 0.874813 0.000000
0.000000 0.874813 0.000000
0.000000 0.874813 0.000000
0.000000 0.874813 0.000000
0.000000 0.874813 0.000000
0.000000 1.000000 0.000000
0.000000 1.000000 0.000000
0.000000 1.000000 0.000000
0.000000 1.000000 0.000000
0.000000 1.000000 0.000000
0.000000 1.000000 0.000000
0.000000 1.000000 0.000000
0.000000 1.000000 0.000000
0.000000 1.000000 0.000000
0.000000 0.000000 0.000000
0.000000 0.000000 0.000000
0.000000 0.000000 0.000000
0.000000 0.000000 0.000000
0.000000 0.000000 0.000000
0.000000 0.000000 0.000000
0.000000 0.000000 0.000000
0.000000 0.000000 0.000000
0.000000 0.000000 0.000000
0.000000 0.110395 0.000000
0.000000 0.110395 0.000000
0.000000 0.110395 0.000000
0.000000 0.110395 0.000000
0.000000 0.110395 0.000000
0.000000 0.110395 0.000000
0.000000 0.110395 0.000000
0.000000 0.110395 0.000000
0.000000 0.110395 0.000000
0.000000 0.249261 0.000000
0.000000 0.249261 0.000000
0.000000 0.249261 0.000000
0.000000 0.249261 0.000000
0.000000 0.249261 0.000000
0.000000 0.249261 0.000000
0.000000 0.249261 0.000000
0.000000 0.249261 0.000000
0.000000 0.249261 0.000000
0.000000 0.372258 0.000000
0.000000 0.372258 0.000000
0.000000 0.372258 0.000000
0.000000 0.372258 0.000000
0.000000 0.372258 0.000000
0.000000 0.372258 0.000000
0.000000 0.372258 0.000000
0.000000 0.372258 0.000000
0.000000 0.372258 0.000000
0.000000 0.497957 0.000000
0.000000 0.497957 0.000000
0.000000 0.497957 0.000000
0.000000 0.497957 0.000000
0.000000 0.497957 0.000000
0.000000 0.497957 0.000000
0.000000 0.497957 0.000000
0.000000 0.497957 0.000000
0.000000 0.497957 0.000000
0.000000 0.626025 0.000000
0.000000 0.626025 0.000000
0.000000 0.626025 0.000000
0.000000 0.626025 0.000000
0.000000 0.626025 0.000000
0.000000 0.626025 0.000000
0.000000 0.626025 0.000000
0.000000 0.626025 0.000000
0.000000 0.626025 0.000000
0.000000 0.748948 0.000000
0.000000 0.748948 0.000000
0.000000 0.748948 0.000000
0.000000 0.748948 0.000000
0.000000 0.748948 0.000000
0.000000 0.748948 0.000000
0.000000 0.748948 0.000000
0.000000 0.748948 0.000000
0.000000 0.748948 0.000000
0.000000 0.874813 0.000000
0.000000 0.874813 0.000000
0.000000 0.874813 0.000000
0.000000 0.874813 0.000000
0.000000 0.874813 0.000000
0.000000 0.874813 0.000000
0.000000 0.874813 0.000000
0.000000 0.874813 0.000000
0.000000 0.874813 0.000000
0.000000 1.000000 0.000000
0.000000 1.000000 0.000000
0.000000 1.000000 0.000000
0.000000 1.000000 0.000000
0.000000 1.000000 0.000000
0.000000 1.000000 0.000000
0.000000 1.000000 0.000000
0.000000 1.000000 0.000000
0.000000 1.000000 0.000000
0.000000 0.000000 0.000000
0.000000 0.000000 0.000000
0.000000 0.000000 0.000000
0.000000 0.000000 0.000000
0.000000 0.000000 0.000000
0.000000 0.000000 0.000000
0.000000 0.000000 0.000000
0.000000 0.000000 0.000000
0.000000 0.000000 0.000000
0.000000 0.110395 0.000000
0.000000 0.110395 0.000000
0.000000 0.110395 0.000000
0.000000 0.110395 0.000000
0.000000 0.110395 0.000000
0.000000 0.110395 0.000000
0.000000 0.110395 0.000000
0.000000 0.110395 0.000000
0.000000 0.110395 0.000000
0.000000 0.249261 0.000000
0.000000 0.249261 0.000000
0.000000 0.249261 0.000000
0.000000 0.249261 0.000000
0.000000 0.249261 0.000000
0.000000 0.249261 0.000000
0.000000 0.249261 0.000000
0.000000 0.249261 0.000000
0.000000 0.249261 0.000000
0.000000 0.372258 0.000000
0.000000 0.372258 0.000000
0.000000 0.372258 0.000000
0.000000 0.372258 0.000000
0.000000 0.372258 0.000000
0.000000 0.372258 0.000000
0.000000 0.372258 0.000000
0.000000 0.372258 0.000000
0.000000 0.372258 0.000000
0.000000 0.497957 0.000000
0.000000 0.497957 0.000000
0.000000 0.497957 0.000000
0.000000 0.497957 0.000000
0.000000 0.497957 0.000000
0.000000 0.497957 0.000000
0.000000 0.497957 0.000000
0.000000 0.497957 0.000000
0.000000 0.497957 0.000000
0.000000 0.626025 0.000000
0.000000 0.626025 0.000000
0.000000 0.626025 0.000000
0.000000 0.626025 0.000000
0.000000 0.626025 0.000000
0.000000 0.626025 0.000000
0.000000 0.626025 0.000000
0.000000 0.626025 0.000000
0.000000 0.626025 0.000000
0.000000 0.748948 0.000000
0.000000 0.748948 0.000000
0.000000 0.748948 0.000000
0.000000 0.748948 0.000000
0.000000 0.748948 0.000000
0.000000 0.748948 0.000000
0.000000 0.748948 0.000000
0.000000 0.748948 0.000000
0.000000 0.748948 0.000000
0.000000 0.874813 0.000000
0.000000 0.874813 0.000000
0.000000 0.874813 0.000000
0.000000 0.874813 0.000000
0.000000 0.874813 0.000000
0.000000 0.874813 0.000000
0.000000 0.874813 0.000000
0.000000 0.874813 0.000000
0.000000 0.874813 0.000000
0.000000 1.000000 0.000000
0.000000 1.000000 0.000000
0.000000 1.000000 0.000000
0.000000 1.000000 0.000000
0.000000 1.000000 0.000000
0.000000 1.000000 0.000000
0.000000 1.000000 0.000000
0.000000 1.000000 0.000000
0.000000 1.000000 0.000000
0.000000 0.000000 0.000000
0.000000 0.000000 0.000000
0.000000 0.000000 0.000000
0.000000 0.000000 0.000000
0.000000 0.000000 0.000000
0.000000 0.000000 0.000000
0.000000 0.000000 0.000000
0.000000 0.000000 0.000000
0.000000 0.000000 0.000000
0.000000 0.110395 0.000000
0.000000 0.110395 0.000000
0.000000 0.110395 0.000000
0.000000 0.110395 0.000000
0.000000 0.110395 0.000000
0.000000 0.110395 0.000000
0.000000 0.110395 0.000000
0.000000 0.110395 0.000000
0.000000 0.110395 0.000000
0.000000 0.249261 0.000000
0.000000 0.249261 0.000000
0.000000 0.249261 0.000000
0.000000 0.249261 0.000000
0.000000 0.249261 0.000000
0.000000 0.249261 0.000000
0.000000 0.249261 0.000000
0.000000 0.249261 0.000000
0.000000 0.249261 0.000000
0.000000 0.372258 0.000000
0.000000 0.372258 0.000000
0.000000 0.372258 0.000000
0.000000 0.372258 0.000000
0.000000 0.372258 0.000000
0.000000 0.372258 0.000000
0.000000 0.372258 0.000000
0.000000 0.372258 0.000000
0.000000 0.372258 0.000000
0.000000 0.497957 0.000000
0.000000 0.497957 0.000000
0.000000 0.497957 0.000000
0.000000 0.497957 0.000000
0.000000 0.497957 0.000000
0.000000 0.497957 0.000000
0.000000 0.497957 0.000000
0.000000 0.497957 0.000000
0.000000 0.497957 0.000000
0.000000 0.626025 0.000000
0.000000 0.626025 0.000000
0.000000 0.626025 0.000000
0.000000 0.626025 0.000000
0.000000 0.626025 0.000000
0.000000 0.626025 0.000000
0.000000 0.626025 0.000000
0.000000 0.626025 0.000000
0.000000 0.626025 0.000000
0.000000 0.748948 0.000000
0.000000 0.748948 0.000000
0.000000 0.748948 0.000000
0.000000 0.748948 0.000000
0.000000 0.748948 0.000000
0.000000 0.748948 0.000000
0.000000 0.748948 0.000000
0.000000 0.748948 0.000000
0.000000 0.748948 0.000000
0.000000 0.874813 0.000000
0.000000 0.874813 0.000000
0.000000 0.874813 0.000000
0.000000 0.874813 0.000000
0.000000 0.874813 0.000000
0.000000 0.874813 0.000000
0.000000 0.874813 0.000000
0.000000 0.874813 0.000000
0.000000 0.874813 0.000000
0.000000 1.000000 0.000000
0.000000 1.000000 0.000000
0.000000 1.000000 0.000000
0.000000 1.000000 0.000000
0.000000 1.000000 0.000000
0.000000 1.000000 0.000000
0.000000 1.000000 0.000000
0.000000 1.000000 0.000000
0.000000 1.000000 0.000000
0.000000 0.000000 0.000000
0.000000 0.000000 0.000000
0.000000 0.000000 0.000000
0.000000 0.000000 0.000000
0.000000 0.000000 0.000000
0.000000 0.000000 0.000000
0.000000 0.000000 0.000000
0.000000 0.000000 0.000000
0.000000 0.000000 0.000000
0.000000 0.110395 0.000000
0.000000 0.110395 0.000000
0.000000 0.110395 0.000000
0.000000 0.110395 0.000000
0.000000 0.110395 0.000000
0.000000 0.110395 0.000000
0.000000 0.110395 0.000000
0.000000 0.110395 0.000000
0.000000 0.110395 0.000000
0.000000 0.249261 0.000000
0.000000 0.249261 0.000000
0.000000 0.249261 0.000000
0.000000 0.249261 0.000000
0.000000 0.249261 0.000000
0.000000 0.249261 0.000000
0.000000 0.249261 0.000000
0.000000 0.249261 0.000000
0.000000 0.249261 0.000000
0.000000 0.372258 0.000000
0.000000 0.372258 0.000000
0.000000 0.372258 0.000000
0.000000 0.372258 0.000000
0.000000 0.372258 0.000000
0.000000 0.372258 0.000000
0.000000 0.372258 0.000000
0.000000 0.372258 0.000000
0.000000 0.372258 0.000000
0.000000 0.497957 0.000000
0.000000 0.497957 0.000000
0.000000 0.497957 0.000000
0.000000 0.497957 0.000000
0.000000 0.497957 0.000000
0.000000 0.497957 0.000000
0.000000 0.497957 0.000000
0.000000 0.497957 0.000000
0.000000 0.497957 0.000000
0.000000 0.626025 0.000000
0.000000 0.626025 0.000000
0.000000 0.626025 0.000000
0.000000 0.626025 0.000000
0.000000 0.626025 0.000000
0.000000 0.626025 0.000000
0.000000 0.626025 0.000000
0.000000 0.626025 0.000000
0.000000 0.626025 0.000000
0.000000 0.748948 0.000000
0.000000 0.748948 0.000000
0.000000 0.748948 0.000000
0.000000 0.748948 0.000000
0.000000 0.748948 0.000000
0.000000 0.748948 0.000000
0.000000 0.748948 0.000000
0.000000 0.748948 0.000000
0.000000 0.748948 0.000000
0.000000 0.874813 0.000000
0.000000 0.874813 0.000000
0.000000 0.874813 0.000000
0.000000 0.874813 0.000000
0.000000 0.874813 0.000000
0.000000 0.874813 0.000000
0.000000 0.874813 0.000000
0.000000 0.874813 0.000000
0.000000 0.874813 0.000000
0.000000 1.000000 0.000000
0.000000 1.000000 0.000000
0.000000 1.000000 0.000000
0.000000 1.000000 0.000000
0.000000 1.000000 0.000000
0.000000 1.000000 0.000000
0.000000 1.000000 0.000000
0.000000 1.000000 0.000000
0.000000 1.000000 0.000000
0.000000 0.000000 0.000000
0.000000 0.000000 0.000000
0.000000 0.000000 0.000000
0.000000 0.000000 0.000000
0.000000 0.000000 0.000000
0.000000 0.000000 0.000000
0.000000 0.000000 0.000000
0.000000 0.000000 0.000000
0.000000 0.000000 0.000000
0.000000 0.110395 0.000000
0.000000 0.110395 0.000000
0.000000 0.110395 0.000000
0.000000 0.110395 0.000000
0.000000 0.110395 0.000000
0.000000 0.110395 0.000000
0.000000 0.110395 0.000000
0.000000 0.110395 0.000000
0.000000 0.110395 0.000000
0.000000 0.249261 0.000000
0.000000 0.249261 0.000000
0.000000 0.249261 0.000000
0.000000 0.249261 0.000000
0.000000 0.249261 0.000000
0.000000 0.249261 0.000000
0.000000 0.249261 0.000000
0.000000 0.249261 0.000000
0.000000 0.249261 0.000000
0.000000 0.372258 0.000000
0.000000 0.372258 0.000000
0.000000 0.372258 0.000000
0.000000 0.372258 0.000000
0.000000 0.372258 0.000000
0.000000 0.372258 0.000000
0.000000 0.372258 0.000000
0.000000 0.372258 0.000000
0.000000 0.372258 0.000000
0.000000 0.497957 0.000000
0.000000 0.497957 0.000000
0.000000 0.497957 0.000000
0.000000 0.497957 0.000000
0.000000 0.497957 0.000000
0.000000 0.497957 0.000000
0.000000 0.497957 0.000000
0.000000 0.497957 0.000000
0.000000 0.497957 0.000000
0.000000 0.626025 0.000000
0.000000 0.626025 0.000000
0.000000 0.626025 0.000000
0.000000 0.626025 0.000000
0.000000 0.626025 0.000000
0.000000 0.626025 0.000000
0.000000 0.626025 0.000000
0.000000 0.626025 0.000000
0.000000 0.626025 0.000000
0.000000 0.748948 0.000000
0.000000 0.748948 0.000000
0.000000 0.748948 0.000000
0.000000 0.748948 0.000000
0.000000 0.748948 0.000000
0.000000 0.748948 0.000000
0.000000 0.748948 0.000000
0.000000 0.748948 0.000000
0.000000 0.748948 0.000000
0.000000 0.874813 0.000000
0.000000 0.874813 0.000000
0.000000 0.874813 0.000000
0.000000 0.874813 0.000000
0.000000 0.874813 0.000000
0.000000 0.874813 0.000000
0.000000 0.874813 0.000000
0.000000 0.874813 0.000000
0.000000 0.874813 0.000000
0.000000 1.000000 0.000000
0.000000 1.000000 0.000000
0.000000 1.000000 0.000000
0.000000 1.000000 0.000000
0.000000 1.000000 0.000000
0.000000 1.000000 0.000000
0.000000 1.000000 0.000000
0.000000 1.000000 0.000000
0.000000 1.000000 0.000000
0.000000 0.000000 0.000000
0.000000 0.000000 0.000000
0.000000 0.000000 0.000000
0.000000 0.000000 0.000000
0.000000 0.000000 0.000000
0.000000 0.000000 0.000000
0.000000 0.000000 0.000000
0.000000 0.000000 0.000000
0.000000 0.000000 0.000000
0.000000 0.110395 0.000000
0.000000 0.110395 0.000000
0.000000 0.110395 0.000000
0.000000 0.110395 0.000000
0.000000 0.110395 0.000000
0.000000 0.110395 0.000000
0.000000 0.110395 0.000000
0.000000 0.110395 0.000000
0.000000 0.110395 0.000000
0.000000 0.249261 0.000000
0.000000 0.249261 0.000000
0.000000 0.249261 0.000000
0.000000 0.249261 0.000000
0.000000 0.249261 0.000000
0.000000 0.249261 0.000000
0.000000 0.249261 0.000000
0.000000 0.249261 0.000000
0.000000 0.249261 0.000000
0.000000 0.372258 0.000000
0.000000 0.372258 0.000000
0.000000 0.372258 0.000000
0.000000 0.372258 0.000000
0.000000 0.372258 0.000000
0.000000 0.372258 0.000000
0.000000 0.372258 0.000000
0.000000 0.372258 0.000000
0.000000 0.372258 0.000000
0.000000 0.497957 0.000000
0.000000 0.497957 0.000000
0.000000 0.497957 0.000000
0.000000 0.497957 0.000000
0.000000 0.497957 0.000000
0.000000 0.497957 0.000000
0.000000 0.497957 0.000000
0.000000 0.497957 0.000000
0.000000 0.497957 0.000000
0.000000 0.626025 0.000000
0.000000 0.626025 0.000000
0.000000 0.626025 0.000000
0.000000 0.626025 0.000000
0.000000 0.626025 0.000000
0.000000 0.626025 0.000000
0.000000 0.626025 0.000000
0.000000 0.626025 0.000000
0.000000 0.626025 0.000000
0.000000 0.748948 0.000000
0.000000 0.748948 0.000000
0.000000 0.748948 0.000000
0.000000 0.748948 0.000000
0.000000 0.748948 0.000000
0.000000 0.748948 0.000000
0.000000 0.748948 0.000000
0.000000 0.748948 0.000000
0.000000 0.748948 0.000000
0.000000 0.874813 0.000000
0.000000 0.874813 0.000000
0.000000 0.874813 0.000000
0.000000 0.874813 0.000000
0.000000 0.874813 0.000000
0.000000 0.874813 0.000000
0.000000 0.874813 0.000000
0.000000 0.874813 0.000000
0.000000 0.874813 0.000000
0.000000 1.000000 0.000000
0.000000 1.000000 0.000000
0.000000 1.000000 0.000000
0.000000 1.000000 0.000000
0.000000 1.000000 0.000000
0.000000 1.000000 0.000000
0.000000 1.000000 0.000000
0.000000 1.000000 0.000000
0.000000 1.000000 0.000000
